demo-projects/old/Demo-Report-Matrix-2026-08-10_232125/runs/run1/verifications/2026-07-01_100000/Demo-Report-Matrix-verify.ti3
CTI3   
KEYWORD "CHROMIQ_VERIFICATION"
CHROMIQ_VERIFICATION "true"

DESCRIPTOR "Argyll Calibration Target chart information 3"
ORIGINATOR "Argyll fakeread"
CREATED "Mon Aug 10 23:19:49 2026"
DEVICE_CLASS "DISPLAY"
COLOR_REP "iRGB_XYZ"

KEYWORD "CHROMIQ_MEASURED"
CHROMIQ_MEASURED "2026-07-01T10:00:00"
TARGET_INSTRUMENT "X-Rite ColorMunki"
NUMBER_OF_FIELDS 7
BEGIN_DATA_FORMAT
SAMPLE_ID RGB_R RGB_G RGB_B XYZ_X XYZ_Y XYZ_Z 
END_DATA_FORMAT

NUMBER_OF_SETS 105
BEGIN_DATA
1 100.0000 100.0000 100.0000 95.00981 99.96488 108.9061 
2 100.0000 100.0000 100.0000 94.82933 99.50547 108.8256 
3 100.0000 100.0000 100.0000 94.91796 99.91725 108.9013 
4 100.0000 100.0000 100.0000 95.07745 99.99996 108.9096 
5 0.00000 0.00000 0.00000 0.000110171 0.000219564 0.0000373209 
6 0.00000 0.00000 0.00000 0.0000584909 0.0000242816 0.000282749 
7 0.00000 0.00000 0.00000 0.0000218241 0.0000113174 1.13930e-06 
8 0.00000 0.00000 0.00000 0.000477856 0.000239689 0.000732881 
9 100.0000 100.0000 0.00000 76.92520 92.61355 14.26264 
10 0.00000 0.00000 100.0000 18.15228 7.386473 94.64699 
11 100.0000 0.00000 0.00000 41.16571 21.34740 2.149012 
12 0.00000 100.0000 100.0000 53.61806 78.06728 106.6611 
13 0.00000 100.0000 0.00000 35.75980 71.26632 12.11365 
14 100.0000 0.00000 100.0000 59.11626 28.62921 96.78547 
15 0.00000 38.69451 100.0000 22.55496 16.16022 96.13832 
16 0.00000 61.01825 0.00000 11.58346 23.08503 3.923932 
17 0.00000 0.00000 49.66734 3.991870 1.624349 20.81377 
18 100.0000 0.00000 49.59690 44.40141 22.59504 22.21055 
19 100.0000 51.96322 100.0000 67.72140 45.48127 99.64269 
20 100.0000 51.02120 0.00000 48.95432 37.60860 4.931067 
21 49.79587 0.00000 0.00000 8.640360 4.482009 0.451325 
22 100.0000 100.0000 50.20307 80.53777 93.61012 34.55416 
23 0.00000 100.0000 50.70625 39.34073 71.86479 33.42579 
24 49.48561 100.0000 100.0000 62.45131 82.28970 107.0526 
25 51.72588 100.0000 0.00000 45.71626 76.42946 12.63342 
26 50.05958 0.00000 100.0000 27.11795 12.03577 95.11503 
27 0.00000 47.79621 60.34591 13.34932 16.77563 34.73462 
28 100.0000 59.17416 43.63085 55.49396 44.95553 22.20972 
29 47.31399 48.98978 0.00000 16.10865 20.01312 3.107089 
30 52.09288 0.00000 45.52943 13.01138 6.384025 17.47509 
31 55.39583 47.66229 100.0000 36.41157 27.11562 97.31498 
32 49.20125 100.0000 50.84061 48.78300 77.54751 34.62656 
33 48.29114 47.33520 50.18713 19.63462 19.96383 23.61683 
34 0.00000 30.94905 0.00000 2.784385 5.549077 0.943241 
35 100.0000 21.19106 79.12555 53.67378 28.40355 61.32219 
36 33.94804 70.69041 100.0000 39.10500 43.31478 100.6119 
37 74.96124 25.82053 0.00000 23.87864 15.08128 1.771023 
38 0.00000 77.61705 71.72771 29.64557 45.39939 52.10057 
39 24.97790 0.00000 23.41364 2.729168 1.325496 4.292689 
40 76.31808 100.0000 28.35106 59.28029 82.44866 19.48578 
41 0.00000 77.00365 31.43299 21.03851 39.59259 14.30658 
42 75.41143 77.79628 100.0000 60.90466 59.61485 102.6615 
43 100.0000 23.29829 20.42453 42.98752 24.37931 5.601576 
44 100.0000 80.02238 22.27702 63.42286 65.55859 13.11777 
45 75.35445 100.0000 76.01304 68.01147 86.78684 64.60286 
46 75.31505 74.81469 0.00000 40.93768 49.14320 7.562347 
47 100.0000 79.49395 78.19811 73.44861 69.15753 65.54895 
48 26.41218 100.0000 75.99234 47.73351 76.36664 64.00240 
49 28.19308 28.22301 100.0000 22.64191 12.88092 95.49675 
50 76.81359 0.00000 23.55016 24.02155 12.37001 5.271608 
51 75.25932 0.00000 74.69026 31.88536 15.46481 51.17522 
52 29.89921 74.23536 0.00000 21.59651 38.76596 6.485134 
53 25.50439 100.0000 24.78846 38.31994 72.14549 16.28396 
54 77.21225 23.71451 100.0000 43.06195 22.55771 96.07715 
55 0.00000 21.07405 72.23364 10.30102 5.968471 48.24829 
56 26.28049 0.00000 71.93547 10.85365 4.645409 46.00956 
57 0.00000 19.89483 30.07019 2.244558 2.438959 7.013606 
58 26.28079 33.45692 23.52814 6.235613 7.997430 5.425197 
59 66.56754 70.38587 52.30860 37.66365 43.80244 29.20872 
60 75.09479 52.62129 65.01886 38.26252 32.31775 41.09469 
61 26.64973 49.33561 81.42125 21.63524 21.11691 62.98162 
62 45.91179 68.61670 63.70484 29.73865 37.48069 40.69842 
63 71.11740 50.49568 34.71935 29.25901 26.83593 13.18655 
64 54.43736 27.35888 62.61652 19.14650 12.35592 34.79417 
65 34.69612 74.79966 32.60823 25.13659 41.62038 14.76911 
66 74.85889 20.44437 50.18860 26.69763 14.95701 22.45547 
67 47.85106 20.11464 33.14580 10.68608 7.114139 9.028597 
68 27.20651 32.63652 48.27367 9.072477 8.800318 20.34326 
69 27.58870 24.69734 0.00000 4.349041 4.659680 0.695214 
70 0.00000 69.14068 100.0000 34.07454 39.21755 99.73390 
71 20.53684 59.80271 49.57175 16.49260 24.73686 23.87873 
72 0.00000 46.98630 28.11508 8.112212 14.28433 8.534026 
73 73.54294 75.32966 75.96305 50.02693 53.25715 59.62582 
74 63.36650 75.70063 29.24590 35.11069 46.14361 13.35173 
75 100.0000 50.88622 71.33775 57.25551 40.06137 50.12829 
76 23.55356 85.77019 53.26247 32.85509 55.24575 33.43650 
77 100.0000 29.41094 48.41781 47.22836 27.53465 22.32416 
78 72.19800 51.56213 8.666635 28.16526 26.41325 4.250267 
79 21.36322 53.66478 11.70929 10.87198 19.18510 4.104259 
80 12.24937 81.96187 10.32227 23.31251 45.68929 8.351712 
81 50.32410 91.80251 71.76533 47.56443 67.71976 56.92962 
82 48.45094 95.04594 23.03440 41.32477 69.10562 15.24880 
83 47.91670 54.94911 27.45694 19.20811 24.39215 9.372328 
84 3.781525 53.33689 81.63552 20.80744 22.51166 65.16713 
85 76.14076 97.71765 95.89858 72.82222 85.59790 99.24705 
86 74.72769 92.97172 51.48222 55.96014 73.34780 33.34232 
87 91.51768 77.11623 49.84954 58.00479 58.94843 28.83559 
88 55.99479 23.67844 88.16304 26.63662 14.38772 71.98617 
89 76.02370 54.61404 92.04182 47.43414 36.82114 83.51984 
90 52.92777 23.07148 11.01567 11.73135 8.280838 1.774625 
91 2.113597 97.73685 76.72762 43.84328 71.11264 64.76597 
92 77.95688 25.26049 74.12841 34.81353 19.66861 50.56537 
93 5.158119 95.50651 28.71841 34.05519 65.86670 17.27763 
94 4.213096 24.16053 51.05457 6.050518 5.115593 23.19938 
95 51.24030 47.80404 76.36550 26.49565 22.88907 54.41073 
96 97.40498 100.0000 75.01152 84.09370 94.73950 64.12669 
97 49.19419 5.350316 74.01136 18.32697 8.486606 50.45143 
98 91.32533 51.59153 22.20459 42.94723 34.28513 7.917277 
99 74.48121 24.34677 26.05584 24.28717 15.06531 6.452714 
100 94.19953 74.22767 93.65841 71.24550 63.49869 91.09732 
101 23.32810 75.54038 80.93191 32.33823 43.86572 66.39869 
102 56.07175 76.90790 5.268606 31.23328 45.76519 7.514734 
103 27.55381 8.135545 46.48987 5.843170 2.863655 17.49864 
104 27.88054 25.86915 72.11177 13.08356 8.342928 47.49708 
105 51.80627 80.99682 89.24284 46.96241 56.99213 82.70103 
END_DATA
