demo-projects/old/Demo-Report-Matrix-2026-08-10_231948/runs/run1/verifications/2026-08-10_100000/Demo-Report-Matrix-verify.ti3
CTI3   
KEYWORD "CHROMIQ_VERIFICATION"
CHROMIQ_VERIFICATION "true"

DESCRIPTOR "Argyll Calibration Target chart information 3"
ORIGINATOR "Argyll fakeread"
CREATED "Mon Aug 10 23:17:26 2026"
DEVICE_CLASS "DISPLAY"
COLOR_REP "iRGB_XYZ"

KEYWORD "CHROMIQ_MEASURED"
CHROMIQ_MEASURED "2026-08-10T10:00:00"
TARGET_INSTRUMENT "X-Rite i1Pro3"
NUMBER_OF_FIELDS 7
BEGIN_DATA_FORMAT
SAMPLE_ID RGB_R RGB_G RGB_B XYZ_X XYZ_Y XYZ_Z 
END_DATA_FORMAT

NUMBER_OF_SETS 105
BEGIN_DATA
1 100.0000 100.0000 100.0000 94.95753 99.82412 108.8757 
2 100.0000 100.0000 100.0000 94.77459 99.86032 108.8923 
3 100.0000 100.0000 100.0000 93.50842 99.20743 108.8330 
4 100.0000 100.0000 100.0000 94.37993 98.73089 108.4922 
5 0.00000 0.00000 0.00000 0.0456626 0.0430554 0.0563381 
6 0.00000 0.00000 0.00000 0.0184464 0.0218716 0.0524617 
7 0.00000 0.00000 0.00000 0.00519102 0.0103820 0.00173020 
8 0.00000 0.00000 0.00000 0.0391404 0.0374568 0.0306238 
9 100.0000 100.0000 0.00000 76.79936 92.36954 13.83620 
10 0.00000 0.00000 100.0000 18.04868 7.219054 95.05403 
11 100.0000 0.00000 0.00000 41.27210 21.33186 1.943696 
12 0.00000 100.0000 100.0000 53.81181 78.73815 106.9728 
13 0.00000 100.0000 0.00000 35.62597 71.24242 11.90279 
14 100.0000 0.00000 100.0000 59.28696 28.48329 96.98646 
15 0.00000 38.69451 100.0000 22.30803 16.10625 95.33743 
16 0.00000 61.01825 0.00000 11.54784 23.08809 3.872059 
17 0.00000 0.00000 49.66734 3.837576 1.535256 20.19653 
18 100.0000 0.00000 49.59690 45.08834 22.80417 22.20892 
19 100.0000 51.96322 100.0000 67.08833 44.68890 97.72772 
20 100.0000 51.02120 0.00000 49.03775 36.85028 4.571586 
21 49.79587 0.00000 0.00000 9.187881 4.744458 0.437929 
22 100.0000 100.0000 50.20307 80.02002 92.67637 33.82368 
23 0.00000 100.0000 50.70625 40.07537 73.24336 34.65346 
24 49.48561 100.0000 100.0000 61.40434 80.86939 106.3107 
25 51.72588 100.0000 0.00000 45.38754 76.48185 12.36979 
26 50.05958 0.00000 100.0000 26.68345 11.69945 94.19805 
27 0.00000 47.79621 60.34591 12.68050 15.76959 33.79881 
28 100.0000 59.17416 43.63085 55.07775 44.77181 20.58554 
29 47.31399 48.98978 0.00000 15.01558 18.10813 2.703939 
30 52.09288 0.00000 45.52943 13.18652 6.428698 17.35281 
31 55.39583 47.66229 100.0000 36.05768 27.32847 96.72077 
32 49.20125 100.0000 50.84061 48.71763 77.73627 33.40718 
33 48.29114 47.33520 50.18713 18.93197 19.80601 22.75598 
34 0.00000 30.94905 0.00000 2.833342 5.666659 0.944373 
35 100.0000 21.19106 79.12555 52.93758 28.14887 57.35887 
36 33.94804 70.69041 100.0000 38.31860 41.88177 100.6760 
37 74.96124 25.82053 0.00000 24.32823 15.76285 1.777482 
38 0.00000 77.61705 71.72771 28.82249 44.11130 51.29115 
39 24.97790 0.00000 23.41364 3.044777 1.506145 4.394641 
40 76.31808 100.0000 28.35106 59.06655 83.38241 19.91225 
41 0.00000 77.00365 31.43299 21.37536 40.64808 13.60694 
42 75.41143 77.79628 100.0000 60.09370 58.72212 102.5514 
43 100.0000 23.29829 20.42453 43.19349 24.54720 5.814592 
44 100.0000 80.02238 22.27702 64.15429 65.83376 13.46246 
45 75.35445 100.0000 76.01304 66.28717 84.43908 64.50122 
46 75.31505 74.81469 0.00000 40.56494 48.91379 7.303644 
47 100.0000 79.49395 78.19811 72.82038 67.72851 63.94800 
48 26.41218 100.0000 75.99234 47.23636 76.03903 61.62841 
49 28.19308 28.22301 100.0000 23.29680 13.56482 96.00233 
50 76.81359 0.00000 23.55016 23.46908 12.01331 5.622596 
51 75.25932 0.00000 74.69026 30.94826 14.92188 48.48530 
52 29.89921 74.23536 0.00000 21.73332 38.81370 6.349247 
53 25.50439 100.0000 24.78846 38.90040 73.02410 17.15186 
54 77.21225 23.71451 100.0000 42.52724 22.26606 96.66903 
55 0.00000 21.07405 72.23364 10.05580 6.154648 46.38406 
56 26.28049 0.00000 71.93547 10.92038 4.633439 45.52955 
57 0.00000 19.89483 30.07019 2.582590 3.047259 7.390782 
58 26.28079 33.45692 23.52814 6.588247 8.609183 5.634008 
59 66.56754 70.38587 52.30860 37.55454 43.00557 28.36631 
60 75.09479 52.62129 65.01886 37.10703 31.07543 38.92115 
61 26.64973 49.33561 81.42125 21.15984 20.06185 63.74062 
62 45.91179 68.61670 63.70484 29.74746 37.52231 39.38444 
63 71.11740 50.49568 34.71935 29.16330 26.05235 12.79957 
64 54.43736 27.35888 62.61652 19.61715 12.64154 34.27086 
65 34.69612 74.79966 32.60823 24.13537 39.81350 14.68071 
66 74.85889 20.44437 50.18860 26.87713 15.27663 21.89353 
67 47.85106 20.11464 33.14580 10.88866 7.002938 9.259660 
68 27.20651 32.63652 48.27367 9.115209 8.724376 19.50343 
69 27.58870 24.69734 0.00000 4.393850 4.935192 0.748569 
70 0.00000 69.14068 100.0000 33.55707 38.23570 100.2231 
71 20.53684 59.80271 49.57175 16.54500 24.80615 23.58052 
72 0.00000 46.98630 28.11508 7.851725 13.77724 8.555782 
73 73.54294 75.32966 75.96305 49.58824 53.03768 56.95655 
74 63.36650 75.70063 29.24590 35.77285 46.71312 13.83907 
75 100.0000 50.88622 71.33775 57.68738 40.76107 49.46366 
76 23.55356 85.77019 53.26247 31.34433 52.42980 32.67943 
77 100.0000 29.41094 48.41781 46.44469 27.17697 21.60948 
78 72.19800 51.56213 8.666635 28.41445 26.90470 4.493989 
79 21.36322 53.66478 11.70929 10.28716 17.86573 4.141061 
80 12.24937 81.96187 10.32227 23.82571 46.40647 8.668695 
81 50.32410 91.80251 71.76533 46.62706 66.22847 54.94352 
82 48.45094 95.04594 23.03440 41.12379 68.59249 15.13654 
83 47.91670 54.94911 27.45694 18.84802 24.36631 9.309767 
84 3.781525 53.33689 81.63552 20.76672 22.87133 63.91586 
85 76.14076 97.71765 95.89858 72.06870 85.03643 99.52794 
86 74.72769 92.97172 51.48222 55.86383 72.76916 32.30824 
87 91.51768 77.11623 49.84954 56.06553 56.81530 27.16822 
88 55.99479 23.67844 88.16304 26.64645 14.65529 72.11089 
89 76.02370 54.61404 92.04182 47.55057 36.96998 83.54145 
90 52.92777 23.07148 11.01567 11.65050 8.105798 1.995642 
91 2.113597 97.73685 76.72762 44.41687 72.85447 63.72068 
92 77.95688 25.26049 74.12841 34.83794 19.68756 51.45188 
93 5.158119 95.50651 28.71841 34.46150 66.51809 17.74895 
94 4.213096 24.16053 51.05457 5.647382 4.796979 21.29780 
95 51.24030 47.80404 76.36550 25.53496 22.19151 53.74150 
96 97.40498 100.0000 75.01152 84.23943 95.41923 63.66462 
97 49.19419 5.350316 74.01136 17.35344 8.122920 48.06630 
98 91.32533 51.59153 22.20459 41.65431 33.03347 7.845815 
99 74.48121 24.34677 26.05584 24.30445 15.04036 6.826296 
100 94.19953 74.22767 93.65841 69.85183 60.95640 89.27801 
101 23.32810 75.54038 80.93191 31.78241 43.40623 64.30453 
102 56.07175 76.90790 5.268606 31.52647 45.63050 7.521175 
103 27.55381 8.135545 46.48987 6.066651 3.122264 17.94852 
104 27.88054 25.86915 72.11177 13.39325 8.619718 47.41766 
105 51.80627 80.99682 89.24284 45.71058 55.35516 81.59394 
END_DATA
