demo-projects/old/Demo-Report-Matrix-2026-08-11_112103/runs/run1/verifications/2026-08-08_100000/Demo-Report-Matrix-verify.ti3
CTI3   
KEYWORD "CHROMIQ_VERIFICATION"
CHROMIQ_VERIFICATION "true"

DESCRIPTOR "Argyll Calibration Target chart information 3"
ORIGINATOR "Argyll fakeread"
CREATED "Mon Aug 10 23:21:27 2026"
DEVICE_CLASS "DISPLAY"
COLOR_REP "iRGB_XYZ"

KEYWORD "CHROMIQ_MEASURED"
CHROMIQ_MEASURED "2026-08-08T10:00:00"
TARGET_INSTRUMENT "X-Rite ColorMunki"
NUMBER_OF_FIELDS 7
BEGIN_DATA_FORMAT
SAMPLE_ID RGB_R RGB_G RGB_B XYZ_X XYZ_Y XYZ_Z 
END_DATA_FORMAT

NUMBER_OF_SETS 108
BEGIN_DATA
1 107.7174 98.90280 86.09210 89.98005 97.25766 84.36984 
2 107.7174 98.90280 86.09210 89.55092 97.06539 82.18745 
3 107.7174 98.90280 86.09210 87.54420 94.01141 78.59762 
4 107.7174 98.90280 86.09210 89.64348 96.14040 85.62524 
5 0.00000 0.00000 0.00000 0.00000 0.00000 0.00000 
6 0.00000 0.00000 0.00000 0.00302619 0.00206424 0.000468649 
7 0.00000 0.00000 0.00000 0.0000368812 0.0000191039 1.90616e-06 
8 0.00000 0.00000 0.00000 0.0000352654 0.0000182669 1.82264e-06 
9 104.1090 95.58970 83.20820 86.84468 94.11193 73.76936 
10 100.5121 92.28720 80.33340 81.67284 84.31042 70.44440 
11 96.92610 88.99450 77.46730 76.81489 79.65656 66.10366 
12 93.35250 85.71340 74.61110 66.58395 69.02234 60.09006 
13 89.79070 82.44300 71.76440 63.53281 64.79359 54.14589 
14 86.24070 79.18360 68.92710 59.27456 61.60059 49.13056 
15 82.70480 75.93700 66.10100 54.50965 56.22239 48.89167 
16 79.18120 72.70180 63.28490 49.13659 51.90966 42.85777 
17 75.67150 69.47920 60.47970 45.16415 45.69130 37.76839 
18 72.17600 66.26980 57.68610 40.13993 41.57570 33.47127 
19 68.69690 63.07540 54.90540 35.13794 36.34631 30.79164 
20 65.23250 59.89440 52.13650 30.79977 32.29061 24.79181 
21 61.78360 56.72780 49.38000 28.20826 28.58309 23.53484 
22 58.35150 53.57650 46.63690 26.31365 27.32883 22.22669 
23 54.93930 50.44360 43.90980 22.19872 22.66928 19.14830 
24 51.54420 47.32640 41.19630 18.72239 19.40976 16.74244 
25 48.16810 44.22650 38.49800 16.43972 17.57411 13.96628 
26 44.81380 41.14660 35.81700 14.64310 15.49114 13.57031 
27 41.48260 38.08810 33.15460 12.01006 12.08750 10.46289 
28 38.17180 35.04810 30.50840 9.760068 10.02964 9.636713 
29 34.88850 32.03350 27.88430 8.982168 10.14344 7.515934 
30 31.63410 29.04550 25.28330 6.860017 6.908155 5.224479 
31 28.40740 26.08280 22.70430 4.732722 5.066801 4.325430 
32 25.21030 23.14730 20.14910 4.048348 4.305708 3.295945 
33 22.05180 20.24720 17.62470 2.908444 2.818980 3.114317 
34 18.93070 17.38160 15.13020 2.070000 2.114802 2.075637 
35 15.86000 14.56220 12.67600 1.594850 1.805463 1.276862 
36 12.84060 11.78990 10.26270 0.802659 0.682077 0.645646 
37 9.876500 9.068300 7.893700 0.649600 0.653054 0.586119 
38 6.965800 6.395800 5.567300 0.334682 0.346477 0.208311 
39 13.40980 7.062400 87.89020 13.47564 5.714801 67.29983 
40 14.11760 33.24490 58.72200 9.013469 8.642234 29.39173 
41 106.2337 86.43090 25.62930 67.89582 73.15537 15.67578 
42 35.51040 99.16400 70.73900 47.07548 74.07073 55.51643 
43 23.93990 63.48260 70.84450 23.05004 30.56657 47.95932 
44 96.88440 0.00000 55.80380 43.22496 21.86706 26.68282 
45 90.95340 51.67250 40.44510 44.50444 35.15045 17.15707 
46 77.86230 43.58120 86.00250 43.67457 30.20914 72.69454 
47 73.40210 87.22270 46.16200 50.19341 64.18530 26.87116 
48 15.66080 43.82180 30.37210 8.003187 12.73480 8.681206 
49 59.50820 31.94050 38.66240 19.14745 14.23583 12.45496 
50 75.67810 72.14120 87.01890 54.05223 51.26159 76.58355 
51 77.38430 52.94290 67.20100 41.22332 33.72942 44.34101 
52 62.26770 83.00370 71.98590 47.18326 59.19483 55.00715 
53 26.74960 0.00000 31.58520 3.843613 1.817220 8.322672 
54 72.81590 62.82870 38.05160 36.19051 38.02640 17.61922 
55 25.51880 35.61850 87.74070 19.80521 14.94309 72.07136 
56 8.804500 10.32260 54.49560 4.777167 2.331691 22.61419 
57 82.40630 0.00000 27.11220 26.97006 13.85002 7.055589 
58 23.75940 67.57360 33.66630 18.67623 32.40677 13.42558 
59 40.20240 99.20420 86.54070 53.75789 77.54168 81.96416 
60 74.50460 53.52190 49.32080 34.01936 30.67332 24.43501 
61 21.85550 0.00000 11.30000 1.377334 0.700537 0.674478 
62 64.38690 99.01450 35.65270 53.65828 79.99899 22.46177 
63 91.59390 86.98490 86.56660 72.42548 73.15255 80.51257 
64 22.20970 60.61980 55.27930 17.32243 25.58325 26.75760 
65 82.51240 0.00000 12.51690 27.14712 14.04458 2.287854 
66 101.1310 98.90300 72.33630 83.87150 92.14516 60.59731 
67 40.56660 58.85620 75.58600 26.63036 29.09337 57.59101 
68 47.65970 31.87330 18.98980 11.27208 9.844126 3.942548 
69 65.76060 0.00000 56.19590 21.97279 10.79361 28.64407 
70 56.86230 25.20510 87.70990 26.93594 14.80392 70.76107 
71 92.37380 98.98470 81.66130 80.43936 89.67861 72.59490 
72 58.64660 54.52880 58.11320 28.55161 28.85790 31.98217 
73 8.039500 20.45830 27.89780 2.712774 3.493782 5.866562 
74 40.53790 42.42430 25.44100 11.82057 14.14991 6.781907 
75 59.04390 0.00000 35.60970 15.28835 7.721308 10.09175 
76 67.27970 85.41680 86.78200 55.76075 64.48481 79.80671 
77 57.21620 77.57960 54.53820 36.46238 48.39817 33.14938 
78 34.99960 11.55550 26.32090 5.464594 3.205936 5.807793 
79 100.8768 98.84670 46.74240 77.73626 89.20941 29.96964 
80 104.3218 55.49450 22.81630 51.61710 41.02292 9.144540 
81 32.67880 79.41570 62.64400 32.53748 48.78631 42.80554 
82 62.95200 26.73320 23.38520 19.06739 12.57176 5.233309 
83 42.37380 31.62080 45.81590 13.12897 10.59796 19.38319 
84 63.71070 0.00000 27.59030 16.59661 8.466417 6.956263 
85 46.76430 63.49670 25.72060 21.54540 30.23459 9.805069 
86 59.49510 99.06850 57.31530 53.72155 79.65311 39.32981 
87 90.60480 41.78210 47.35730 42.35775 30.09340 22.51566 
88 55.57560 3.473700 0.00000 11.11305 5.781221 0.589071 
89 51.63850 60.54590 57.43960 27.66052 32.13925 31.42617 
90 15.54590 40.46340 49.87030 9.518912 11.10097 23.85531 
91 15.47210 16.60060 0.00000 1.588378 2.140779 0.338738 
92 56.96200 26.89810 47.19040 17.49578 12.08639 19.21857 
93 103.6168 0.00000 87.43800 55.08992 27.00078 74.63124 
94 50.82220 54.03820 87.45940 32.51799 28.50820 77.33648 
95 39.52170 6.961700 14.51930 6.664753 3.605611 1.977994 
96 27.54950 20.13520 24.75970 4.269508 3.758989 5.138804 
97 85.24420 39.08940 57.83350 40.88255 27.44598 32.65741 
98 16.50470 43.75020 44.25550 9.646017 13.36017 17.47396 
99 71.66510 58.51160 13.21680 31.57401 32.01791 5.741943 
100 31.59960 85.19720 85.45640 39.56697 55.86446 71.71887 
101 100.0000 100.0000 100.0000 94.78338 99.88350 107.3433 
102 0.00000 0.00000 0.00000 0.00138020 0.00159266 0.00401025 
103 100.0000 0.00000 0.00000 41.17252 21.32668 2.128913 
104 0.00000 100.0000 0.00000 35.74116 71.27137 12.12268 
105 0.00000 0.00000 100.0000 18.17003 7.417938 94.62543 
106 0.00000 100.0000 100.0000 53.84863 78.65377 106.4526 
107 100.0000 0.00000 100.0000 59.33611 28.73208 96.75126 
108 100.0000 100.0000 0.00000 74.30856 89.92173 13.85016 
END_DATA
