assets/charts/knut/rgb/cr30/cr30_a4_420p_1page_portrait_w11_0mm_hexagonal/chart.ti1
CTI1   

DESCRIPTOR "Argyll Calibration Target chart information 1"
ORIGINATOR "ChromIQ"
APPROX_WHITE_POINT "95.050000 100.000000 108.900000"
COLOR_REP "iRGB"
WHITE_COLOR_PATCHES "2"
BLACK_COLOR_PATCHES "2"
CREATED "Sun Sep 06 16:55:22 2026"

NUMBER_OF_FIELDS 7
BEGIN_DATA_FORMAT
SAMPLE_ID RGB_R RGB_G RGB_B XYZ_X XYZ_Y XYZ_Z
END_DATA_FORMAT

NUMBER_OF_SETS 420
BEGIN_DATA
1 0.0000 0.0000 0.0000 0.9505 1.0000 1.0890
2 0.0000 0.0000 20.0000 1.5421 1.2366 4.2041
3 0.0000 0.0000 40.0000 3.3248 1.9497 13.5918
4 0.0000 0.0000 60.0000 6.6428 3.2769 31.0641
5 0.0000 0.0000 80.0000 11.7406 5.3160 57.9089
6 0.0000 0.0000 100.0000 18.8200 8.1478 95.1885
7 0.0000 20.0000 0.0000 2.1225 3.3440 1.4797
8 0.0000 20.0000 20.0000 2.7141 3.5806 4.5948
9 0.0000 20.0000 40.0000 4.4968 4.2937 13.9825
10 0.0000 20.0000 60.0000 7.8148 5.6209 31.4548
11 0.0000 20.0000 80.0000 12.9126 7.6600 58.2995
12 0.0000 20.0000 100.0000 19.9920 10.4918 95.5792
13 0.0000 40.0000 0.0000 5.6544 10.4077 2.6570
14 0.0000 40.0000 20.0000 6.2459 10.6443 5.7721
15 0.0000 40.0000 40.0000 8.0286 11.3574 15.1598
16 0.0000 40.0000 60.0000 11.3466 12.6846 32.6320
17 0.0000 40.0000 80.0000 16.4445 14.7238 59.4768
18 0.0000 40.0000 100.0000 23.5239 17.5555 96.7565
19 0.0000 60.0000 0.0000 12.2278 23.5546 4.8481
20 0.0000 60.0000 20.0000 12.8194 23.7913 7.9632
21 0.0000 60.0000 40.0000 14.6021 24.5044 17.3509
22 0.0000 60.0000 60.0000 17.9201 25.8315 34.8232
23 0.0000 60.0000 80.0000 23.0179 27.8707 61.6680
24 0.0000 60.0000 100.0000 30.0973 30.7024 98.9476
25 0.0000 80.0000 0.0000 22.3274 43.7539 8.2146
26 0.0000 80.0000 20.0000 22.9190 43.9905 11.3298
27 0.0000 80.0000 40.0000 24.7017 44.7036 20.7175
28 0.0000 80.0000 60.0000 28.0197 46.0308 38.1897
29 0.0000 80.0000 80.0000 33.1175 48.0699 65.0345
30 0.0000 80.0000 100.0000 40.1969 50.9017 102.3141
31 0.0000 100.0000 0.0000 36.3529 71.8048 12.8898
32 0.0000 100.0000 20.0000 36.9445 72.0414 16.0049
33 0.0000 100.0000 40.0000 38.7272 72.7545 25.3926
34 0.0000 100.0000 60.0000 42.0452 74.0817 42.8649
35 0.0000 100.0000 80.0000 47.1430 76.1208 69.7097
36 0.0000 100.0000 100.0000 54.2224 78.9526 106.9893
37 20.0000 0.0000 0.0000 2.3021 1.6968 1.1523
38 20.0000 0.0000 20.0000 2.8937 1.9334 4.2674
39 20.0000 0.0000 40.0000 4.6764 2.6465 13.6551
40 20.0000 0.0000 60.0000 7.9944 3.9737 31.1273
41 20.0000 0.0000 80.0000 13.0922 6.0128 57.9721
42 20.0000 0.0000 100.0000 20.1716 8.8446 95.2518
43 20.0000 20.0000 0.0000 3.4741 4.0407 1.5429
44 20.0000 20.0000 20.0000 4.0656 4.2774 4.6581
45 20.0000 20.0000 40.0000 5.8484 4.9905 14.0458
46 20.0000 20.0000 60.0000 9.1663 6.3177 31.5180
47 20.0000 20.0000 80.0000 14.2642 8.3568 58.3628
48 20.0000 20.0000 100.0000 21.3436 11.1885 95.6424
49 20.0000 40.0000 0.0000 7.0059 11.1045 2.7202
50 20.0000 40.0000 20.0000 7.5975 11.3411 5.8353
51 20.0000 40.0000 40.0000 9.3802 12.0542 15.2230
52 20.0000 40.0000 60.0000 12.6982 13.3814 32.6953
53 20.0000 40.0000 80.0000 17.7960 15.4205 59.5401
54 20.0000 40.0000 100.0000 24.8754 18.2523 96.8197
55 20.0000 60.0000 0.0000 13.5794 24.2514 4.9114
56 20.0000 60.0000 20.0000 14.1710 24.4880 8.0265
57 20.0000 60.0000 40.0000 15.9537 25.2011 17.4142
58 20.0000 60.0000 60.0000 19.2717 26.5283 34.8865
59 20.0000 60.0000 80.0000 24.3695 28.5674 61.7312
60 20.0000 60.0000 100.0000 31.4489 31.3992 99.0109
61 20.0000 80.0000 0.0000 23.6790 44.4506 8.2779
62 20.0000 80.0000 20.0000 24.2706 44.6873 11.3930
63 20.0000 80.0000 40.0000 26.0533 45.4004 20.7807
64 20.0000 80.0000 60.0000 29.3713 46.7276 38.2530
65 20.0000 80.0000 80.0000 34.4691 48.7667 65.0977
66 20.0000 80.0000 100.0000 41.5485 51.5984 102.3774
67 20.0000 100.0000 0.0000 37.7045 72.5016 12.9531
68 20.0000 100.0000 20.0000 38.2961 72.7382 16.0682
69 20.0000 100.0000 40.0000 40.0788 73.4513 25.4559
70 20.0000 100.0000 60.0000 43.3968 74.7785 42.9281
71 20.0000 100.0000 80.0000 48.4946 76.8176 69.7729
72 20.0000 100.0000 100.0000 55.5740 79.6494 107.0526
73 40.0000 0.0000 0.0000 6.3752 3.7965 1.3429
74 40.0000 0.0000 20.0000 6.9668 4.0332 4.4580
75 40.0000 0.0000 40.0000 8.7495 4.7462 13.8457
76 40.0000 0.0000 60.0000 12.0675 6.0734 31.3180
77 40.0000 0.0000 80.0000 17.1653 8.1126 58.1627
78 40.0000 0.0000 100.0000 24.2447 10.9443 95.4424
79 40.0000 20.0000 0.0000 7.5472 6.1405 1.7335
80 40.0000 20.0000 20.0000 8.1387 6.3771 4.8487
81 40.0000 20.0000 40.0000 9.9215 7.0902 14.2364
82 40.0000 20.0000 60.0000 13.2395 8.4174 31.7086
83 40.0000 20.0000 80.0000 18.3373 10.4565 58.5534
84 40.0000 20.0000 100.0000 25.4167 13.2883 95.8330
85 40.0000 40.0000 0.0000 11.0791 13.2042 2.9108
86 40.0000 40.0000 20.0000 11.6706 13.4409 6.0260
87 40.0000 40.0000 40.0000 13.4533 14.1540 15.4137
88 40.0000 40.0000 60.0000 16.7713 15.4812 32.8859
89 40.0000 40.0000 80.0000 21.8691 17.5203 59.7307
90 40.0000 40.0000 100.0000 28.9486 20.3520 97.0103
91 40.0000 60.0000 0.0000 17.6525 26.3512 5.1020
92 40.0000 60.0000 20.0000 18.2441 26.5878 8.2171
93 40.0000 60.0000 40.0000 20.0268 27.3009 17.6048
94 40.0000 60.0000 60.0000 23.3448 28.6281 35.0771
95 40.0000 60.0000 80.0000 28.4426 30.6672 61.9218
96 40.0000 60.0000 100.0000 35.5220 33.4990 99.2015
97 40.0000 80.0000 0.0000 27.7521 46.5504 8.4685
98 40.0000 80.0000 20.0000 28.3437 46.7870 11.5837
99 40.0000 80.0000 40.0000 30.1264 47.5001 20.9714
100 40.0000 80.0000 60.0000 33.4444 48.8273 38.4436
101 40.0000 80.0000 80.0000 38.5422 50.8664 65.2884
102 40.0000 80.0000 100.0000 45.6216 53.6982 102.5680
103 40.0000 100.0000 0.0000 41.7776 74.6013 13.1437
104 40.0000 100.0000 20.0000 42.3692 74.8380 16.2588
105 40.0000 100.0000 40.0000 44.1519 75.5510 25.6465
106 40.0000 100.0000 60.0000 47.4699 76.8782 43.1188
107 40.0000 100.0000 80.0000 52.5677 78.9174 69.9635
108 40.0000 100.0000 100.0000 59.6471 81.7491 107.2432
109 60.0000 0.0000 0.0000 13.9560 7.7046 1.6976
110 60.0000 0.0000 20.0000 14.5476 7.9412 4.8128
111 60.0000 0.0000 40.0000 16.3303 8.6543 14.2005
112 60.0000 0.0000 60.0000 19.6483 9.9815 31.6727
113 60.0000 0.0000 80.0000 24.7461 12.0206 58.5175
114 60.0000 0.0000 100.0000 31.8255 14.8524 95.7971
115 60.0000 20.0000 0.0000 15.1280 10.0486 2.0883
116 60.0000 20.0000 20.0000 15.7196 10.2852 5.2035
117 60.0000 20.0000 40.0000 17.5023 10.9983 14.5912
118 60.0000 20.0000 60.0000 20.8203 12.3255 32.0634
119 60.0000 20.0000 80.0000 25.9181 14.3646 58.9082
120 60.0000 20.0000 100.0000 32.9975 17.1964 96.1878
121 60.0000 40.0000 0.0000 18.6599 17.1123 3.2656
122 60.0000 40.0000 20.0000 19.2514 17.3489 6.3807
123 60.0000 40.0000 40.0000 21.0341 18.0620 15.7684
124 60.0000 40.0000 60.0000 24.3521 19.3892 33.2407
125 60.0000 40.0000 80.0000 29.4500 21.4283 60.0855
126 60.0000 40.0000 100.0000 36.5294 24.2601 97.3651
127 60.0000 60.0000 0.0000 25.2333 30.2592 5.4568
128 60.0000 60.0000 20.0000 25.8249 30.4958 8.5719
129 60.0000 60.0000 40.0000 27.6076 31.2089 17.9596
130 60.0000 60.0000 60.0000 30.9256 32.5361 35.4318
131 60.0000 60.0000 80.0000 36.0234 34.5753 62.2766
132 60.0000 60.0000 100.0000 43.1028 37.4070 99.5563
133 60.0000 80.0000 0.0000 35.3329 50.4585 8.8233
134 60.0000 80.0000 20.0000 35.9245 50.6951 11.9384
135 60.0000 80.0000 40.0000 37.7072 51.4082 21.3261
136 60.0000 80.0000 60.0000 41.0252 52.7354 38.7984
137 60.0000 80.0000 80.0000 46.1230 54.7745 65.6431
138 60.0000 80.0000 100.0000 53.2024 57.6063 102.9228
139 60.0000 100.0000 0.0000 49.3584 78.5094 13.4984
140 60.0000 100.0000 20.0000 49.9500 78.7460 16.6136
141 60.0000 100.0000 40.0000 51.7327 79.4591 26.0013
142 60.0000 100.0000 60.0000 55.0507 80.7863 43.4735
143 60.0000 100.0000 80.0000 60.1485 82.8254 70.3183
144 60.0000 100.0000 100.0000 67.2279 85.6572 107.5979
145 80.0000 0.0000 0.0000 25.6033 13.7090 2.2427
146 80.0000 0.0000 20.0000 26.1949 13.9456 5.3579
147 80.0000 0.0000 40.0000 27.9776 14.6587 14.7456
148 80.0000 0.0000 60.0000 31.2956 15.9859 32.2178
149 80.0000 0.0000 80.0000 36.3934 18.0250 59.0626
150 80.0000 0.0000 100.0000 43.4728 20.8568 96.3422
151 80.0000 20.0000 0.0000 26.7753 16.0530 2.6334
152 80.0000 20.0000 20.0000 27.3669 16.2896 5.7485
153 80.0000 20.0000 40.0000 29.1496 17.0027 15.1362
154 80.0000 20.0000 60.0000 32.4676 18.3299 32.6085
155 80.0000 20.0000 80.0000 37.5654 20.3690 59.4532
156 80.0000 20.0000 100.0000 44.6448 23.2008 96.7329
157 80.0000 40.0000 0.0000 30.3072 23.1167 3.8107
158 80.0000 40.0000 20.0000 30.8987 23.3533 6.9258
159 80.0000 40.0000 40.0000 32.6815 24.0664 16.3135
160 80.0000 40.0000 60.0000 35.9995 25.3936 33.7858
161 80.0000 40.0000 80.0000 41.0973 27.4327 60.6305
162 80.0000 40.0000 100.0000 48.1767 30.2645 97.9102
163 80.0000 60.0000 0.0000 36.8806 36.2636 6.0018
164 80.0000 60.0000 20.0000 37.4722 36.5003 9.1170
165 80.0000 60.0000 40.0000 39.2549 37.2134 18.5047
166 80.0000 60.0000 60.0000 42.5729 38.5405 35.9769
167 80.0000 60.0000 80.0000 47.6707 40.5797 62.8217
168 80.0000 60.0000 100.0000 54.7501 43.4114 100.1013
169 80.0000 80.0000 0.0000 46.9803 56.4629 9.3684
170 80.0000 80.0000 20.0000 47.5718 56.6995 12.4835
171 80.0000 80.0000 40.0000 49.3545 57.4126 21.8712
172 80.0000 80.0000 60.0000 52.6725 58.7398 39.3435
173 80.0000 80.0000 80.0000 57.7704 60.7789 66.1882
174 80.0000 80.0000 100.0000 64.8498 63.6107 103.4679
175 80.0000 100.0000 0.0000 61.0057 84.5138 14.0435
176 80.0000 100.0000 20.0000 61.5973 84.7504 17.1587
177 80.0000 100.0000 40.0000 63.3800 85.4635 26.5464
178 80.0000 100.0000 60.0000 66.6980 86.7907 44.0186
179 80.0000 100.0000 80.0000 71.7958 88.8298 70.8634
180 80.0000 100.0000 100.0000 78.8752 91.6616 108.1430
181 100.0000 0.0000 0.0000 41.7781 22.0474 2.9997
182 100.0000 0.0000 20.0000 42.3697 22.2840 6.1148
183 100.0000 0.0000 40.0000 44.1524 22.9971 15.5025
184 100.0000 0.0000 60.0000 47.4704 24.3243 32.9748
185 100.0000 0.0000 80.0000 52.5682 26.3634 59.8196
186 100.0000 0.0000 100.0000 59.6476 29.1952 97.0992
187 100.0000 20.0000 0.0000 42.9501 24.3914 3.3904
188 100.0000 20.0000 20.0000 43.5417 24.6280 6.5055
189 100.0000 20.0000 40.0000 45.3244 25.3411 15.8932
190 100.0000 20.0000 60.0000 48.6424 26.6683 33.3655
191 100.0000 20.0000 80.0000 53.7402 28.7074 60.2102
192 100.0000 20.0000 100.0000 60.8196 31.5392 97.4899
193 100.0000 40.0000 0.0000 46.4820 31.4551 4.5677
194 100.0000 40.0000 20.0000 47.0735 31.6917 7.6828
195 100.0000 40.0000 40.0000 48.8562 32.4048 17.0705
196 100.0000 40.0000 60.0000 52.1742 33.7320 34.5427
197 100.0000 40.0000 80.0000 57.2721 35.7712 61.3875
198 100.0000 40.0000 100.0000 64.3515 38.6029 98.6672
199 100.0000 60.0000 0.0000 53.0554 44.6020 6.7588
200 100.0000 60.0000 20.0000 53.6470 44.8387 9.8739
201 100.0000 60.0000 40.0000 55.4297 45.5518 19.2616
202 100.0000 60.0000 60.0000 58.7477 46.8789 36.7339
203 100.0000 60.0000 80.0000 63.8455 48.9181 63.5787
204 100.0000 60.0000 100.0000 70.9249 51.7498 100.8583
205 100.0000 80.0000 0.0000 63.1550 64.8013 10.1253
206 100.0000 80.0000 20.0000 63.7466 65.0379 13.2405
207 100.0000 80.0000 40.0000 65.5293 65.7510 22.6282
208 100.0000 80.0000 60.0000 68.8473 67.0782 40.1004
209 100.0000 80.0000 80.0000 73.9451 69.1173 66.9452
210 100.0000 80.0000 100.0000 81.0245 71.9491 104.2248
211 100.0000 100.0000 0.0000 77.1805 92.8522 14.8005
212 100.0000 100.0000 20.0000 77.7721 93.0888 17.9156
213 100.0000 100.0000 40.0000 79.5548 93.8019 27.3033
214 100.0000 100.0000 60.0000 82.8728 95.1291 44.7756
215 100.0000 100.0000 80.0000 87.9706 97.1682 71.6204
216 100.0000 100.0000 100.0000 95.0500 100.0000 108.9000
217 10.0000 0.0000 0.0000 1.3597 1.2110 1.1082
218 5.0000 0.0000 0.0000 1.1112 1.0828 1.0965
219 0.0000 10.0000 0.0000 1.3053 1.7097 1.2073
220 0.0000 5.0000 0.0000 1.0898 1.2787 1.1354
221 0.0000 0.0000 10.0000 1.1296 1.0716 2.0321
222 0.0000 0.0000 5.0000 1.0208 1.0281 1.4594
223 90.0000 0.0000 0.0000 33.0987 17.5730 2.5935
224 95.0000 0.0000 0.0000 37.2873 19.7323 2.7895
225 100.0000 10.0000 0.0000 42.1329 22.7571 3.1180
226 100.0000 5.0000 0.0000 41.9174 22.3261 3.0461
227 100.0000 0.0000 10.0000 41.9572 22.1190 3.9428
228 100.0000 0.0000 5.0000 41.8484 22.0755 3.3701
229 10.0000 100.0000 0.0000 36.7621 72.0158 12.9090
230 5.0000 100.0000 0.0000 36.5136 71.8876 12.8973
231 0.0000 90.0000 0.0000 28.8268 56.7526 10.3811
232 0.0000 95.0000 0.0000 32.4588 64.0167 11.5918
233 0.0000 100.0000 10.0000 36.5320 71.8764 13.8329
234 0.0000 100.0000 5.0000 36.4232 71.8329 13.2602
235 10.0000 0.0000 100.0000 19.2292 8.3588 95.2077
236 5.0000 0.0000 100.0000 18.9807 8.2306 95.1960
237 0.0000 10.0000 100.0000 19.1748 8.8575 95.3068
238 0.0000 5.0000 100.0000 18.9593 8.4265 95.2349
239 0.0000 0.0000 90.0000 15.0212 6.6283 75.1841
240 0.0000 0.0000 95.0000 16.8545 7.3616 84.8381
241 10.0000 100.0000 100.0000 54.6316 79.1636 107.0085
242 5.0000 100.0000 100.0000 54.3831 79.0354 106.9968
243 0.0000 90.0000 100.0000 46.6963 63.9004 104.4806
244 0.0000 95.0000 100.0000 50.3283 71.1645 105.6913
245 0.0000 100.0000 90.0000 50.4236 77.4331 86.9849
246 0.0000 100.0000 95.0000 52.2569 78.1664 96.6389
247 90.0000 0.0000 100.0000 50.9682 24.7208 96.6930
248 95.0000 0.0000 100.0000 55.1568 26.8801 96.8890
249 100.0000 10.0000 100.0000 60.0024 29.9049 97.2175
250 100.0000 5.0000 100.0000 59.7869 29.4739 97.1456
251 100.0000 0.0000 90.0000 55.8488 27.6757 77.0948
252 100.0000 0.0000 95.0000 57.6821 28.4090 86.7488
253 90.0000 100.0000 0.0000 68.5011 88.3778 14.3943
254 95.0000 100.0000 0.0000 72.6897 90.5371 14.5903
255 100.0000 90.0000 0.0000 69.6544 77.8000 12.2918
256 100.0000 95.0000 0.0000 73.2864 85.0641 13.5025
257 100.0000 100.0000 10.0000 77.3596 92.9238 15.7436
258 100.0000 100.0000 5.0000 77.2508 92.8803 15.1709
259 90.0000 100.0000 100.0000 86.3706 95.5256 108.4938
260 95.0000 100.0000 100.0000 90.5592 97.6849 108.6898
261 100.0000 90.0000 100.0000 87.5239 84.9478 106.3913
262 100.0000 95.0000 100.0000 91.1559 92.2119 107.6020
263 100.0000 100.0000 90.0000 91.2512 98.4805 88.8956
264 100.0000 100.0000 95.0000 93.0845 99.2138 98.5496
265 0.0000 0.0000 2.0000 0.9782 1.0111 1.2347
266 3.0303 3.0303 3.0303 1.1712 1.2322 1.3419
267 6.0606 6.0606 6.0606 1.4171 1.4909 1.6236
268 9.0909 9.0909 9.0909 1.7663 1.8583 2.0237
269 12.1212 12.1212 12.1212 2.2336 2.3499 2.5591
270 15.1515 15.1515 15.1515 2.8284 2.9757 3.2405
271 18.1818 18.1818 18.1818 3.5589 3.7443 4.0775
272 21.2121 21.2121 21.2121 4.4329 4.6638 5.0789
273 24.2424 24.2424 24.2424 5.4575 5.7417 6.2527
274 27.2727 27.2727 27.2727 6.6392 6.9849 7.6066
275 30.3030 30.3030 30.3030 7.9843 8.4001 9.1477
276 33.3333 33.3333 33.3333 9.4987 9.9933 10.8827
277 36.3636 36.3636 36.3636 11.1879 11.7706 12.8181
278 38.2392 38.2392 38.2392 12.3234 12.9652 14.1191
279 42.4242 42.4242 42.4242 15.1122 15.8992 17.3142
280 45.4545 45.4545 45.4545 17.3572 18.2611 19.8863
281 48.4848 48.4848 48.4848 19.7971 20.8281 22.6818
282 51.5152 51.5152 51.5152 22.4366 23.6051 25.7059
283 54.5455 54.5455 54.5455 25.2800 26.5966 28.9637
284 57.5758 57.5758 57.5758 28.3316 29.8071 32.4599
285 59.1918 60.6061 62.0203 31.2264 33.0156 37.7650
286 63.6364 63.6364 63.6364 35.0758 36.9025 40.1868
287 66.6667 66.6667 66.6667 38.7764 40.7958 44.4266
288 69.6970 69.6970 69.6970 42.7011 44.9248 48.9231
289 72.7273 72.7273 72.7273 46.8535 49.2935 53.6807
290 75.7576 75.7576 75.7576 51.2374 53.9057 58.7033
291 78.7879 78.7879 78.7879 55.8562 58.7651 63.9952
292 81.8182 81.8182 81.8182 60.7135 63.8754 69.5603
293 84.8485 84.8485 84.8485 65.8127 69.2401 75.4024
294 87.8788 87.8788 87.8788 71.1570 74.8627 81.5255
295 90.9091 90.9091 90.9091 76.7497 80.7467 87.9331
296 93.9394 93.9394 93.9394 82.5940 86.8953 94.6290
297 96.9697 96.9697 96.9697 88.6931 93.3120 101.6168
298 98.0000 100.0000 100.0000 93.2170 99.0551 108.8142
299 2.6667 0.0000 0.0000 1.0348 1.0434 1.0929
300 0.1786 2.4880 0.0000 1.0243 1.1393 1.1120
301 0.0000 2.6667 2.0000 1.0512 1.1572 1.2590
302 2.0000 1.3333 1.3333 1.0687 1.1130 1.2012
303 1.1547 1.1547 3.8214 1.0715 1.1032 1.3796
304 2.7475 0.0000 2.7475 1.0753 1.0600 1.2932
305 7.9298 3.9298 3.9298 1.4026 1.3866 1.4247
306 6.5965 6.5965 2.5965 1.4078 1.5221 1.3539
307 3.9298 7.9298 3.9298 1.3806 1.5888 1.4649
308 2.5965 6.5965 6.5965 1.3270 1.4732 1.6783
309 3.9298 3.9298 7.9298 1.3093 1.3302 1.7993
310 6.5965 2.5965 6.5965 1.3461 1.2982 1.6435
311 13.1930 9.1930 9.1930 2.0616 2.0179 2.0526
312 11.8596 11.8596 7.8596 2.0787 2.2585 1.9296
313 9.1930 13.1930 9.1930 2.0242 2.3610 2.1208
314 7.8596 11.8596 11.8596 1.9377 2.1731 2.4955
315 9.1930 9.1930 13.1930 1.9033 1.9220 2.6883
316 11.8596 7.8596 11.8596 1.9711 1.8677 2.4348
317 18.4561 14.4561 14.4561 3.0932 3.0327 3.0900
318 17.1228 17.1228 13.1228 3.1221 3.3927 2.8947
319 14.4561 18.4561 14.4561 3.0383 3.5360 3.1901
320 13.1228 17.1228 17.1228 2.9093 3.2639 3.7490
321 14.4561 14.4561 18.4561 2.8609 2.8921 4.0226
322 17.1228 13.1228 17.1228 2.9596 2.8028 3.6574
323 23.7193 19.7193 19.7193 4.5418 4.4790 4.5906
324 22.3860 22.3860 18.3860 4.5840 4.9711 4.3143
325 19.7193 23.7193 19.7193 4.4676 5.1588 4.7257
326 18.3860 22.3860 22.3860 4.2916 4.7941 5.4883
327 19.7193 19.7193 23.7193 4.2281 4.2891 5.8501
328 22.3860 18.3860 22.3860 4.3607 4.1604 5.3624
329 28.9825 24.9825 24.9825 6.4456 6.3980 6.5999
330 27.6491 27.6491 23.6491 6.5024 7.0333 6.2351
331 24.9825 28.9825 24.9825 6.3507 7.2686 6.7729
332 23.6491 27.6491 27.6491 6.1236 6.8040 7.7562
333 24.9825 24.9825 28.9825 6.0439 6.1548 8.2128
334 27.6491 23.6491 27.6491 6.2131 5.9830 7.5930
335 34.2456 30.2456 30.2456 8.8386 8.8260 9.1580
336 32.9123 32.9123 28.9123 8.9111 9.6144 8.6982
337 30.2456 34.2456 30.2456 8.7215 9.9001 9.3715
338 28.9123 32.9123 32.9123 8.4398 9.3290 10.5906
339 30.2456 30.2456 34.2456 8.3430 8.5259 11.1480
340 32.9123 28.9123 32.9123 8.5512 8.3076 10.3876
341 39.5088 35.5088 35.5088 11.7513 11.7956 12.3010
342 38.1754 38.1754 34.1754 11.8406 12.7461 11.7402
343 35.5088 39.5088 35.5088 11.6108 13.0851 12.5573
344 34.1754 38.1754 38.1754 11.2713 12.4015 14.0262
345 35.5088 35.5088 39.5088 11.1564 11.4355 14.6900
346 38.1754 34.1754 38.1754 11.4058 11.1676 13.7809
347 44.7719 40.7719 40.7719 15.2120 15.3370 16.0621
348 43.4386 43.4386 39.4386 15.3189 16.4579 15.3947
349 40.7719 44.7719 40.7719 15.0468 16.8525 16.3633
350 39.4386 43.4386 43.4386 14.6465 16.0508 18.0947
351 40.7719 40.7719 44.7719 14.5128 14.9136 18.8700
352 43.4386 39.4386 43.4386 14.8054 14.5936 17.8050
353 50.0351 46.0351 46.0351 19.2468 19.4778 20.4717
354 48.7018 48.7018 44.7018 19.3721 20.7770 19.6927
355 46.0351 50.0351 46.0351 19.0558 21.2296 20.8199
356 44.7018 48.7018 48.7018 18.5919 20.3046 22.8257
357 46.0351 46.0351 50.0351 18.4385 18.9885 23.7173
358 48.7018 44.7018 48.7018 18.7762 18.6136 22.4896
359 55.2982 51.2982 51.2982 23.8800 24.2442 25.5585
360 53.9649 53.9649 49.9649 24.0246 25.7288 24.6630
361 51.2982 55.2982 51.2982 23.6622 26.2416 25.9555
362 49.9649 53.9649 53.9649 23.1321 25.1884 28.2469
363 51.2982 51.2982 55.2982 22.9583 23.6862 29.2593
364 53.9649 49.9649 53.9649 23.3430 23.2540 27.8625
365 60.5614 56.5614 56.5614 29.1347 29.6604 31.3492
366 59.2281 59.2281 55.2281 29.2994 31.3374 30.3329
367 56.5614 60.5614 56.5614 28.8891 31.9126 31.7969
368 55.2281 59.2281 59.2281 28.2904 30.7265 34.3845
369 56.5614 56.5614 60.5614 28.0955 29.0313 35.5219
370 59.2281 55.2281 59.2281 28.5288 28.5397 33.9498
371 65.8246 61.8246 61.8246 35.0327 35.7497 37.8693
372 64.4912 64.4912 60.4912 35.2182 37.6255 36.7278
373 61.8246 65.8246 61.8246 34.7584 38.2651 38.3693
374 60.4912 64.4912 64.4912 34.0887 36.9417 41.2632
375 61.8246 61.8246 65.8246 33.8721 35.0471 42.5297
376 64.4912 60.4912 64.4912 34.3556 34.4938 40.7766
377 71.0877 67.0877 67.0877 41.5948 42.5341 45.1430
378 69.7544 69.7544 65.7544 41.8018 44.6150 43.8722
379 67.0877 71.0877 67.0877 41.2910 45.3208 45.6969
380 65.7544 69.7544 69.7544 40.5481 43.8560 48.9065
381 67.0877 67.0877 71.0877 40.3090 41.7556 50.3060
382 69.7544 65.7544 69.7544 40.8443 41.1388 48.3664
383 76.3509 72.3509 72.3509 48.8408 50.0345 53.1931
384 75.0175 75.0175 71.0175 49.0699 52.3265 51.7892
385 72.3509 76.3509 72.3509 48.5065 53.1003 53.8025
386 71.0175 75.0175 75.0175 47.6883 51.4901 57.3371
387 72.3509 72.3509 76.3509 47.4262 49.1781 58.8733
388 75.0175 71.0175 75.0175 48.0148 48.4957 56.7419
389 81.6140 77.6140 77.6140 56.7896 58.2712 62.0418
390 80.2807 80.2807 76.2807 57.0415 60.7800 60.5011
391 77.6140 81.6140 77.6140 56.4241 61.6235 62.7082
392 76.2807 80.2807 80.2807 55.5285 59.8640 66.5764
393 77.6140 77.6140 81.6140 55.2429 57.3347 68.2529
394 80.2807 76.2807 80.2807 55.8860 56.5849 65.9247
395 86.8772 82.8772 82.8772 65.4596 67.2634 71.7103
396 85.5439 85.5439 81.5439 65.7348 69.9944 70.0292
397 82.8772 86.8772 82.8772 65.0621 70.9094 72.4350
398 81.5439 85.5439 85.5439 64.0871 68.9968 76.6454
399 82.8772 82.8772 86.8772 63.7773 66.2449 78.4656
400 85.5439 81.5439 85.5439 64.4765 65.4258 75.9356
401 92.1404 88.1404 88.1404 74.8683 77.0297 82.2188
402 90.8070 90.8070 86.8070 75.1674 79.9882 80.3939
403 88.1404 92.1404 88.1404 74.4380 80.9764 83.0033
404 86.8070 90.8070 90.8070 73.3818 78.9072 87.5640
405 88.1404 88.1404 92.1404 73.0473 75.9272 89.5312
406 90.8070 86.8070 90.8070 73.8038 75.0373 86.7948
407 97.4035 93.4035 93.4035 85.0327 87.5881 93.5871
408 96.0702 96.0702 92.0702 85.3563 90.7793 91.6151
409 93.4035 97.4035 93.4035 84.5688 91.8422 94.4327
410 92.0702 96.0702 96.0702 83.4296 89.6128 99.3515
411 93.4035 93.4035 97.4035 83.0698 86.3997 101.4690
412 96.0702 92.0702 96.0702 83.8849 85.4372 98.5216
413 98.8453 97.5120 97.5120 91.0202 95.1119 102.9549
414 100.0000 100.0000 97.3333 93.9851 99.5740 103.2923
415 97.2525 98.5858 98.6667 90.8790 96.2369 105.5777
416 95.2120 97.8787 100.0000 89.0590 94.4110 108.1370
417 98.6667 96.6667 100.0000 91.1971 94.1164 107.9674
418 98.2679 95.6013 98.2679 89.3240 92.0223 104.0138
419 100.0000 100.0000 100.0000 95.0500 100.0000 108.9000
420 0.0000 0.0000 0.0000 0.9505 1.0000 1.0890
END_DATA
CTI1   

DESCRIPTOR "Argyll Calibration Target chart information 1"
ORIGINATOR "ChromIQ"
DENSITY_EXTREME_VALUES "8"
CREATED "Sun Sep 06 16:55:22 2026"

NUMBER_OF_FIELDS 7
BEGIN_DATA_FORMAT
INDEX RGB_R RGB_G RGB_B XYZ_X XYZ_Y XYZ_Z
END_DATA_FORMAT

NUMBER_OF_SETS 8
BEGIN_DATA
0 100.0000 100.0000 100.0000 95.0500 100.0000 108.9000
1 0.0000 100.0000 100.0000 54.2224 78.9526 106.9893
2 100.0000 0.0000 100.0000 59.6476 29.1952 97.0992
3 0.0000 0.0000 100.0000 18.8200 8.1478 95.1885
4 100.0000 100.0000 0.0000 77.1805 92.8522 14.8005
5 0.0000 100.0000 0.0000 36.3529 71.8048 12.8898
6 100.0000 0.0000 0.0000 41.7781 22.0474 2.9997
7 0.0000 0.0000 0.0000 0.9505 1.0000 1.0890
END_DATA
CTI1   

DESCRIPTOR "Argyll Calibration Target chart information 1"
ORIGINATOR "ChromIQ"
DEVICE_COMBINATION_VALUES "9"
CREATED "Sun Sep 06 16:55:22 2026"

NUMBER_OF_FIELDS 7
BEGIN_DATA_FORMAT
INDEX RGB_R RGB_G RGB_B XYZ_X XYZ_Y XYZ_Z
END_DATA_FORMAT

NUMBER_OF_SETS 9
BEGIN_DATA
0 100.0000 100.0000 100.0000 95.0500 100.0000 108.9000
1 0.0000 100.0000 100.0000 54.2224 78.9526 106.9893
2 100.0000 0.0000 100.0000 59.6476 29.1952 97.0992
3 0.0000 0.0000 100.0000 18.8200 8.1478 95.1885
4 100.0000 100.0000 0.0000 77.1805 92.8522 14.8005
5 0.0000 100.0000 0.0000 36.3529 71.8048 12.8898
6 100.0000 0.0000 0.0000 41.7781 22.0474 2.9997
7 0.0000 0.0000 0.0000 0.9505 1.0000 1.0890
8 50.0000 50.0000 50.0000 21.0917 22.1901 24.1650
END_DATA
