assets/charts/knut/rgb/i1pro75max/i1_w75max_letter_3132p_4pages_portrait_w7_5mm_maximised_no_clip_border/chart.ti1
CTI1   

DESCRIPTOR "Argyll Calibration Target chart information 1"
ORIGINATOR "ChromIQ"
APPROX_WHITE_POINT "95.050000 100.000000 108.900000"
COLOR_REP "iRGB"
WHITE_COLOR_PATCHES "2"
BLACK_COLOR_PATCHES "2"
CREATED "Tue Sep 22 17:42:39 2026"

NUMBER_OF_FIELDS 7
BEGIN_DATA_FORMAT
SAMPLE_ID RGB_R RGB_G RGB_B XYZ_X XYZ_Y XYZ_Z
END_DATA_FORMAT

NUMBER_OF_SETS 3132
BEGIN_DATA
1 0.0000 0.0000 0.0000 0.9505 1.0000 1.0890
2 0.0000 0.0000 8.3333 1.0868 1.0545 1.8068
3 0.0000 0.0000 16.6667 1.3732 1.1691 3.3147
4 0.0000 0.0000 25.0000 1.8596 1.3637 5.8764
5 0.0000 0.0000 33.3333 2.5738 1.6493 9.6372
6 0.0000 0.0000 41.6667 3.5389 2.0354 14.7193
7 0.0000 0.0000 50.0000 4.7753 2.5299 21.2302
8 0.0000 0.0000 58.3333 6.3013 3.1403 29.2660
9 0.0000 0.0000 66.6667 8.1336 3.8733 38.9149
10 0.0000 0.0000 75.0000 10.2877 4.7349 50.2580
11 0.0000 0.0000 83.3333 12.7779 5.7310 63.3712
12 0.0000 0.0000 91.6667 15.6177 6.8669 78.3256
13 0.0000 0.0000 100.0000 18.8200 8.1478 95.1885
14 0.0000 8.3333 0.0000 1.2206 1.5401 1.1790
15 0.0000 8.3333 8.3333 1.3569 1.5946 1.8968
16 0.0000 8.3333 16.6667 1.6432 1.7092 3.4047
17 0.0000 8.3333 25.0000 2.1297 1.9038 5.9664
18 0.0000 8.3333 33.3333 2.8439 2.1894 9.7272
19 0.0000 8.3333 41.6667 3.8090 2.5755 14.8093
20 0.0000 8.3333 50.0000 5.0454 3.0700 21.3202
21 0.0000 8.3333 58.3333 6.5714 3.6804 29.3561
22 0.0000 8.3333 66.6667 8.4037 4.4134 39.0049
23 0.0000 8.3333 75.0000 10.5578 5.2750 50.3480
24 0.0000 8.3333 83.3333 13.0479 6.2711 63.4612
25 0.0000 8.3333 91.6667 15.8878 7.4070 78.4156
26 0.0000 8.3333 100.0000 19.0901 8.6879 95.2785
27 0.0000 16.6667 0.0000 1.7879 2.6747 1.3681
28 0.0000 16.6667 8.3333 1.9242 2.7292 2.0859
29 0.0000 16.6667 16.6667 2.2105 2.8438 3.5938
30 0.0000 16.6667 25.0000 2.6970 3.0384 6.1555
31 0.0000 16.6667 33.3333 3.4111 3.3240 9.9163
32 0.0000 16.6667 41.6667 4.3762 3.7101 14.9984
33 0.0000 16.6667 50.0000 5.6127 4.2046 21.5093
34 0.0000 16.6667 58.3333 7.1387 4.8150 29.5452
35 0.0000 16.6667 66.6667 8.9710 5.5480 39.1940
36 0.0000 16.6667 75.0000 11.1251 6.4096 50.5371
37 0.0000 16.6667 83.3333 13.6152 7.4057 63.6503
38 0.0000 16.6667 91.6667 16.4551 8.5416 78.6047
39 0.0000 16.6667 100.0000 19.6574 9.8225 95.4676
40 0.0000 25.0000 0.0000 2.7516 4.6023 1.6894
41 0.0000 25.0000 8.3333 2.8879 4.6568 2.4072
42 0.0000 25.0000 16.6667 3.1743 4.7713 3.9151
43 0.0000 25.0000 25.0000 3.6608 4.9659 6.4768
44 0.0000 25.0000 33.3333 4.3749 5.2516 10.2375
45 0.0000 25.0000 41.6667 5.3400 5.6376 15.3197
46 0.0000 25.0000 50.0000 6.5764 6.1322 21.8305
47 0.0000 25.0000 58.3333 8.1025 6.7426 29.8664
48 0.0000 25.0000 66.6667 9.9348 7.4755 39.5153
49 0.0000 25.0000 75.0000 12.0888 8.3372 50.8584
50 0.0000 25.0000 83.3333 14.5790 9.3332 63.9715
51 0.0000 25.0000 91.6667 17.4189 10.4692 78.9259
52 0.0000 25.0000 100.0000 20.6211 11.7501 95.7889
53 0.0000 33.3333 0.0000 4.1665 7.4320 2.1610
54 0.0000 33.3333 8.3333 4.3028 7.4866 2.8788
55 0.0000 33.3333 16.6667 4.5892 7.6011 4.3867
56 0.0000 33.3333 25.0000 5.0756 7.7957 6.9484
57 0.0000 33.3333 33.3333 5.7898 8.0813 10.7092
58 0.0000 33.3333 41.6667 6.7549 8.4674 15.7913
59 0.0000 33.3333 50.0000 7.9913 8.9620 22.3022
60 0.0000 33.3333 58.3333 9.5173 9.5724 30.3381
61 0.0000 33.3333 66.6667 11.3497 10.3053 39.9869
62 0.0000 33.3333 75.0000 13.5037 11.1669 51.3300
63 0.0000 33.3333 83.3333 15.9939 12.1630 64.4432
64 0.0000 33.3333 91.6667 18.8337 13.2989 79.3976
65 0.0000 33.3333 100.0000 22.0360 14.5798 96.2605
66 0.0000 41.6667 0.0000 6.0785 11.2561 2.7983
67 0.0000 41.6667 8.3333 6.2148 11.3106 3.5161
68 0.0000 41.6667 16.6667 6.5012 11.4251 5.0240
69 0.0000 41.6667 25.0000 6.9877 11.6197 7.5858
70 0.0000 41.6667 33.3333 7.7018 11.9054 11.3465
71 0.0000 41.6667 41.6667 8.6669 12.2914 16.4287
72 0.0000 41.6667 50.0000 9.9033 12.7860 22.9395
73 0.0000 41.6667 58.3333 11.4294 13.3964 30.9754
74 0.0000 41.6667 66.6667 13.2617 14.1293 40.6243
75 0.0000 41.6667 75.0000 15.4157 14.9910 51.9674
76 0.0000 41.6667 83.3333 17.9059 15.9870 65.0805
77 0.0000 41.6667 91.6667 20.7458 17.1230 80.0349
78 0.0000 41.6667 100.0000 23.9480 18.4039 96.8978
79 0.0000 50.0000 0.0000 8.5281 16.1551 3.6149
80 0.0000 50.0000 8.3333 8.6644 16.2097 4.3327
81 0.0000 50.0000 16.6667 8.9507 16.3242 5.8405
82 0.0000 50.0000 25.0000 9.4372 16.5188 8.4023
83 0.0000 50.0000 33.3333 10.1514 16.8045 12.1630
84 0.0000 50.0000 41.6667 11.1165 17.1905 17.2452
85 0.0000 50.0000 50.0000 12.3529 17.6851 23.7560
86 0.0000 50.0000 58.3333 13.8789 18.2955 31.7919
87 0.0000 50.0000 66.6667 15.7112 19.0284 41.4408
88 0.0000 50.0000 75.0000 17.8653 19.8900 52.7839
89 0.0000 50.0000 83.3333 20.3555 20.8861 65.8970
90 0.0000 50.0000 91.6667 23.1953 22.0220 80.8514
91 0.0000 50.0000 100.0000 26.3976 23.3029 97.7144
92 0.0000 58.3333 0.0000 11.5514 22.2017 4.6226
93 0.0000 58.3333 8.3333 11.6877 22.2562 5.3404
94 0.0000 58.3333 16.6667 11.9740 22.3708 6.8483
95 0.0000 58.3333 25.0000 12.4605 22.5654 9.4100
96 0.0000 58.3333 33.3333 13.1747 22.8510 13.1708
97 0.0000 58.3333 41.6667 14.1398 23.2371 18.2529
98 0.0000 58.3333 50.0000 15.3762 23.7316 24.7638
99 0.0000 58.3333 58.3333 16.9022 24.3420 32.7997
100 0.0000 58.3333 66.6667 18.7345 25.0750 42.4485
101 0.0000 58.3333 75.0000 20.8886 25.9366 53.7916
102 0.0000 58.3333 83.3333 23.3787 26.9327 66.9048
103 0.0000 58.3333 91.6667 26.2186 28.0686 81.8592
104 0.0000 58.3333 100.0000 29.4209 29.3495 98.7221
105 0.0000 66.6667 0.0000 15.1815 29.4620 5.8327
106 0.0000 66.6667 8.3333 15.3178 29.5165 6.5505
107 0.0000 66.6667 16.6667 15.6041 29.6310 8.0583
108 0.0000 66.6667 25.0000 16.0906 29.8256 10.6201
109 0.0000 66.6667 33.3333 16.8048 30.1113 14.3808
110 0.0000 66.6667 41.6667 17.7699 30.4973 19.4630
111 0.0000 66.6667 50.0000 19.0063 30.9919 25.9738
112 0.0000 66.6667 58.3333 20.5323 31.6023 34.0097
113 0.0000 66.6667 66.6667 22.3646 32.3352 43.6586
114 0.0000 66.6667 75.0000 24.5187 33.1968 55.0017
115 0.0000 66.6667 83.3333 27.0089 34.1929 68.1148
116 0.0000 66.6667 91.6667 29.8487 35.3288 83.0692
117 0.0000 66.6667 100.0000 33.0510 36.6098 99.9322
118 0.0000 75.0000 0.0000 19.4490 37.9970 7.2552
119 0.0000 75.0000 8.3333 19.5853 38.0516 7.9730
120 0.0000 75.0000 16.6667 19.8717 38.1661 9.4809
121 0.0000 75.0000 25.0000 20.3581 38.3607 12.0426
122 0.0000 75.0000 33.3333 21.0723 38.6464 15.8033
123 0.0000 75.0000 41.6667 22.0374 39.0324 20.8855
124 0.0000 75.0000 50.0000 23.2738 39.5270 27.3963
125 0.0000 75.0000 58.3333 24.7998 40.1374 35.4322
126 0.0000 75.0000 66.6667 26.6322 40.8703 45.0811
127 0.0000 75.0000 75.0000 28.7862 41.7319 56.4242
128 0.0000 75.0000 83.3333 31.2764 42.7280 69.5373
129 0.0000 75.0000 91.6667 34.1162 43.8639 84.4917
130 0.0000 75.0000 100.0000 37.3185 45.1448 101.3547
131 0.0000 83.3333 0.0000 24.3825 47.8640 8.8997
132 0.0000 83.3333 8.3333 24.5188 47.9185 9.6175
133 0.0000 83.3333 16.6667 24.8051 48.0330 11.1253
134 0.0000 83.3333 25.0000 25.2916 48.2276 13.6871
135 0.0000 83.3333 33.3333 26.0058 48.5133 17.4478
136 0.0000 83.3333 41.6667 26.9709 48.8993 22.5300
137 0.0000 83.3333 50.0000 28.2073 49.3939 29.0408
138 0.0000 83.3333 58.3333 29.7333 50.0043 37.0767
139 0.0000 83.3333 66.6667 31.5656 50.7372 46.7256
140 0.0000 83.3333 75.0000 33.7197 51.5989 58.0687
141 0.0000 83.3333 83.3333 36.2099 52.5949 71.1818
142 0.0000 83.3333 91.6667 39.0497 53.7309 86.1362
143 0.0000 83.3333 100.0000 42.2520 55.0118 102.9992
144 0.0000 91.6667 0.0000 30.0087 59.1163 10.7751
145 0.0000 91.6667 8.3333 30.1450 59.1709 11.4929
146 0.0000 91.6667 16.6667 30.4313 59.2854 13.0007
147 0.0000 91.6667 25.0000 30.9178 59.4800 15.5625
148 0.0000 91.6667 33.3333 31.6320 59.7657 19.3232
149 0.0000 91.6667 41.6667 32.5971 60.1517 24.4054
150 0.0000 91.6667 50.0000 33.8335 60.6463 30.9162
151 0.0000 91.6667 58.3333 35.3595 61.2567 38.9521
152 0.0000 91.6667 66.6667 37.1918 61.9896 48.6010
153 0.0000 91.6667 75.0000 39.3459 62.8512 59.9441
154 0.0000 91.6667 83.3333 41.8361 63.8473 73.0572
155 0.0000 91.6667 91.6667 44.6759 64.9832 88.0116
156 0.0000 91.6667 100.0000 47.8782 66.2641 104.8746
157 0.0000 100.0000 0.0000 36.3529 71.8048 12.8898
158 0.0000 100.0000 8.3333 36.4892 71.8593 13.6076
159 0.0000 100.0000 16.6667 36.7756 71.9739 15.1155
160 0.0000 100.0000 25.0000 37.2620 72.1685 17.6772
161 0.0000 100.0000 33.3333 37.9762 72.4541 21.4380
162 0.0000 100.0000 41.6667 38.9413 72.8402 26.5201
163 0.0000 100.0000 50.0000 40.1777 73.3347 33.0310
164 0.0000 100.0000 58.3333 41.7037 73.9451 41.0668
165 0.0000 100.0000 66.6667 43.5360 74.6781 50.7157
166 0.0000 100.0000 75.0000 45.6901 75.5397 62.0588
167 0.0000 100.0000 83.3333 48.1803 76.5358 75.1720
168 0.0000 100.0000 91.6667 51.0201 77.6717 90.1264
169 0.0000 100.0000 100.0000 54.2224 78.9526 106.9893
170 8.3333 0.0000 0.0000 1.2619 1.1606 1.1036
171 8.3333 0.0000 8.3333 1.3982 1.2151 1.8214
172 8.3333 0.0000 16.6667 1.6846 1.3296 3.3293
173 8.3333 0.0000 25.0000 2.1711 1.5242 5.8910
174 8.3333 0.0000 33.3333 2.8852 1.8099 9.6517
175 8.3333 0.0000 41.6667 3.8503 2.1959 14.7339
176 8.3333 0.0000 50.0000 5.0867 2.6905 21.2447
177 8.3333 0.0000 58.3333 6.6128 3.3009 29.2806
178 8.3333 0.0000 66.6667 8.4451 4.0338 38.9295
179 8.3333 0.0000 75.0000 10.5991 4.8954 50.2726
180 8.3333 0.0000 83.3333 13.0893 5.8915 63.3857
181 8.3333 0.0000 91.6667 15.9292 7.0274 78.3401
182 8.3333 0.0000 100.0000 19.1314 8.3084 95.2031
183 8.3333 8.3333 0.0000 1.5320 1.7007 1.1936
184 8.3333 8.3333 8.3333 1.6683 1.7552 1.9114
185 8.3333 8.3333 16.6667 1.9546 1.8697 3.4193
186 8.3333 8.3333 25.0000 2.4411 2.0643 5.9810
187 8.3333 8.3333 33.3333 3.1553 2.3500 9.7418
188 8.3333 8.3333 41.6667 4.1204 2.7360 14.8239
189 8.3333 8.3333 50.0000 5.3568 3.2306 21.3348
190 8.3333 8.3333 58.3333 6.8828 3.8410 29.3706
191 8.3333 8.3333 66.6667 8.7151 4.5739 39.0195
192 8.3333 8.3333 75.0000 10.8692 5.4355 50.3626
193 8.3333 8.3333 83.3333 13.3594 6.4316 63.4758
194 8.3333 8.3333 91.6667 16.1992 7.5676 78.4302
195 8.3333 8.3333 100.0000 19.4015 8.8485 95.2931
196 8.3333 16.6667 0.0000 2.0993 2.8353 1.3827
197 8.3333 16.6667 8.3333 2.2356 2.8898 2.1005
198 8.3333 16.6667 16.6667 2.5219 3.0043 3.6084
199 8.3333 16.6667 25.0000 3.0084 3.1989 6.1701
200 8.3333 16.6667 33.3333 3.7226 3.4846 9.9309
201 8.3333 16.6667 41.6667 4.6877 3.8706 15.0130
202 8.3333 16.6667 50.0000 5.9241 4.3652 21.5239
203 8.3333 16.6667 58.3333 7.4501 4.9756 29.5597
204 8.3333 16.6667 66.6667 9.2824 5.7085 39.2086
205 8.3333 16.6667 75.0000 11.4365 6.5701 50.5517
206 8.3333 16.6667 83.3333 13.9267 7.5662 63.6649
207 8.3333 16.6667 91.6667 16.7665 8.7021 78.6193
208 8.3333 16.6667 100.0000 19.9688 9.9831 95.4822
209 8.3333 25.0000 0.0000 3.0631 4.7628 1.7040
210 8.3333 25.0000 8.3333 3.1994 4.8173 2.4218
211 8.3333 25.0000 16.6667 3.4857 4.9319 3.9296
212 8.3333 25.0000 25.0000 3.9722 5.1265 6.4914
213 8.3333 25.0000 33.3333 4.6864 5.4121 10.2521
214 8.3333 25.0000 41.6667 5.6515 5.7982 15.3343
215 8.3333 25.0000 50.0000 6.8879 6.2927 21.8451
216 8.3333 25.0000 58.3333 8.4139 6.9032 29.8810
217 8.3333 25.0000 66.6667 10.2462 7.6361 39.5299
218 8.3333 25.0000 75.0000 12.4003 8.4977 50.8730
219 8.3333 25.0000 83.3333 14.8905 9.4938 63.9861
220 8.3333 25.0000 91.6667 17.7303 10.6297 78.9405
221 8.3333 25.0000 100.0000 20.9326 11.9106 95.8035
222 8.3333 33.3333 0.0000 4.4780 7.5926 2.1756
223 8.3333 33.3333 8.3333 4.6143 7.6471 2.8934
224 8.3333 33.3333 16.6667 4.9006 7.7616 4.4013
225 8.3333 33.3333 25.0000 5.3871 7.9562 6.9630
226 8.3333 33.3333 33.3333 6.1012 8.2419 10.7237
227 8.3333 33.3333 41.6667 7.0664 8.6279 15.8059
228 8.3333 33.3333 50.0000 8.3028 9.1225 22.3167
229 8.3333 33.3333 58.3333 9.8288 9.7329 30.3526
230 8.3333 33.3333 66.6667 11.6611 10.4658 40.0015
231 8.3333 33.3333 75.0000 13.8152 11.3275 51.3446
232 8.3333 33.3333 83.3333 16.3053 12.3235 64.4577
233 8.3333 33.3333 91.6667 19.1452 13.4595 79.4121
234 8.3333 33.3333 100.0000 22.3475 14.7404 96.2751
235 8.3333 41.6667 0.0000 6.3900 11.4166 2.8129
236 8.3333 41.6667 8.3333 6.5263 11.4712 3.5307
237 8.3333 41.6667 16.6667 6.8126 11.5857 5.0386
238 8.3333 41.6667 25.0000 7.2991 11.7803 7.6003
239 8.3333 41.6667 33.3333 8.0133 12.0659 11.3611
240 8.3333 41.6667 41.6667 8.9784 12.4520 16.4432
241 8.3333 41.6667 50.0000 10.2148 12.9466 22.9541
242 8.3333 41.6667 58.3333 11.7408 13.5570 30.9900
243 8.3333 41.6667 66.6667 13.5731 14.2899 40.6388
244 8.3333 41.6667 75.0000 15.7272 15.1515 51.9819
245 8.3333 41.6667 83.3333 18.2174 16.1476 65.0951
246 8.3333 41.6667 91.6667 21.0572 17.2835 80.0495
247 8.3333 41.6667 100.0000 24.2595 18.5644 96.9124
248 8.3333 50.0000 0.0000 8.8395 16.3157 3.6294
249 8.3333 50.0000 8.3333 8.9758 16.3702 4.3472
250 8.3333 50.0000 16.6667 9.2622 16.4848 5.8551
251 8.3333 50.0000 25.0000 9.7486 16.6793 8.4168
252 8.3333 50.0000 33.3333 10.4628 16.9650 12.1776
253 8.3333 50.0000 41.6667 11.4279 17.3511 17.2597
254 8.3333 50.0000 50.0000 12.6643 17.8456 23.7706
255 8.3333 50.0000 58.3333 14.1903 18.4560 31.8065
256 8.3333 50.0000 66.6667 16.0227 19.1889 41.4553
257 8.3333 50.0000 75.0000 18.1767 20.0506 52.7984
258 8.3333 50.0000 83.3333 20.6669 21.0466 65.9116
259 8.3333 50.0000 91.6667 23.5067 22.1826 80.8660
260 8.3333 50.0000 100.0000 26.7090 23.4635 97.7289
261 8.3333 58.3333 0.0000 11.8628 22.3623 4.6372
262 8.3333 58.3333 8.3333 11.9991 22.4168 5.3550
263 8.3333 58.3333 16.6667 12.2854 22.5313 6.8629
264 8.3333 58.3333 25.0000 12.7719 22.7259 9.4246
265 8.3333 58.3333 33.3333 13.4861 23.0116 13.1854
266 8.3333 58.3333 41.6667 14.4512 23.3976 18.2675
267 8.3333 58.3333 50.0000 15.6876 23.8922 24.7784
268 8.3333 58.3333 58.3333 17.2136 24.5026 32.8142
269 8.3333 58.3333 66.6667 19.0459 25.2355 42.4631
270 8.3333 58.3333 75.0000 21.2000 26.0971 53.8062
271 8.3333 58.3333 83.3333 23.6902 27.0932 66.9194
272 8.3333 58.3333 91.6667 26.5300 28.2292 81.8738
273 8.3333 58.3333 100.0000 29.7323 29.5101 98.7367
274 8.3333 66.6667 0.0000 15.4929 29.6225 5.8472
275 8.3333 66.6667 8.3333 15.6292 29.6770 6.5650
276 8.3333 66.6667 16.6667 15.9156 29.7916 8.0729
277 8.3333 66.6667 25.0000 16.4020 29.9862 10.6346
278 8.3333 66.6667 33.3333 17.1162 30.2718 14.3954
279 8.3333 66.6667 41.6667 18.0813 30.6579 19.4775
280 8.3333 66.6667 50.0000 19.3177 31.1524 25.9884
281 8.3333 66.6667 58.3333 20.8437 31.7628 34.0243
282 8.3333 66.6667 66.6667 22.6761 32.4958 43.6731
283 8.3333 66.6667 75.0000 24.8301 33.3574 55.0163
284 8.3333 66.6667 83.3333 27.3203 34.3535 68.1294
285 8.3333 66.6667 91.6667 30.1601 35.4894 83.0838
286 8.3333 66.6667 100.0000 33.3624 36.7703 99.9467
287 8.3333 75.0000 0.0000 19.7605 38.1576 7.2697
288 8.3333 75.0000 8.3333 19.8968 38.2121 7.9876
289 8.3333 75.0000 16.6667 20.1831 38.3266 9.4954
290 8.3333 75.0000 25.0000 20.6696 38.5212 12.0572
291 8.3333 75.0000 33.3333 21.3838 38.8069 15.8179
292 8.3333 75.0000 41.6667 22.3489 39.1929 20.9001
293 8.3333 75.0000 50.0000 23.5853 39.6875 27.4109
294 8.3333 75.0000 58.3333 25.1113 40.2979 35.4468
295 8.3333 75.0000 66.6667 26.9436 41.0308 45.0957
296 8.3333 75.0000 75.0000 29.0977 41.8925 56.4388
297 8.3333 75.0000 83.3333 31.5878 42.8885 69.5519
298 8.3333 75.0000 91.6667 34.4277 44.0245 84.5063
299 8.3333 75.0000 100.0000 37.6300 45.3054 101.3692
300 8.3333 83.3333 0.0000 24.6939 48.0245 8.9142
301 8.3333 83.3333 8.3333 24.8302 48.0790 9.6320
302 8.3333 83.3333 16.6667 25.1166 48.1936 11.1399
303 8.3333 83.3333 25.0000 25.6031 48.3882 13.7017
304 8.3333 83.3333 33.3333 26.3172 48.6738 17.4624
305 8.3333 83.3333 41.6667 27.2823 49.0599 22.5446
306 8.3333 83.3333 50.0000 28.5187 49.5544 29.0554
307 8.3333 83.3333 58.3333 30.0447 50.1649 37.0913
308 8.3333 83.3333 66.6667 31.8771 50.8978 46.7401
309 8.3333 83.3333 75.0000 34.0311 51.7594 58.0833
310 8.3333 83.3333 83.3333 36.5213 52.7555 71.1964
311 8.3333 83.3333 91.6667 39.3612 53.8914 86.1508
312 8.3333 83.3333 100.0000 42.5634 55.1723 103.0137
313 8.3333 91.6667 0.0000 30.3201 59.2769 10.7896
314 8.3333 91.6667 8.3333 30.4564 59.3314 11.5074
315 8.3333 91.6667 16.6667 30.7428 59.4460 13.0153
316 8.3333 91.6667 25.0000 31.2292 59.6406 15.5770
317 8.3333 91.6667 33.3333 31.9434 59.9262 19.3378
318 8.3333 91.6667 41.6667 32.9085 60.3123 24.4199
319 8.3333 91.6667 50.0000 34.1449 60.8068 30.9308
320 8.3333 91.6667 58.3333 35.6709 61.4172 38.9667
321 8.3333 91.6667 66.6667 37.5033 62.1502 48.6155
322 8.3333 91.6667 75.0000 39.6573 63.0118 59.9587
323 8.3333 91.6667 83.3333 42.1475 64.0079 73.0718
324 8.3333 91.6667 91.6667 44.9873 65.1438 88.0262
325 8.3333 91.6667 100.0000 48.1896 66.4247 104.8891
326 8.3333 100.0000 0.0000 36.6643 71.9654 12.9044
327 8.3333 100.0000 8.3333 36.8006 72.0199 13.6222
328 8.3333 100.0000 16.6667 37.0870 72.1344 15.1301
329 8.3333 100.0000 25.0000 37.5735 72.3290 17.6918
330 8.3333 100.0000 33.3333 38.2876 72.6147 21.4525
331 8.3333 100.0000 41.6667 39.2527 73.0007 26.5347
332 8.3333 100.0000 50.0000 40.4891 73.4953 33.0455
333 8.3333 100.0000 58.3333 42.0152 74.1057 41.0814
334 8.3333 100.0000 66.6667 43.8475 74.8386 50.7303
335 8.3333 100.0000 75.0000 46.0015 75.7002 62.0734
336 8.3333 100.0000 83.3333 48.4917 76.6963 75.1865
337 8.3333 100.0000 91.6667 51.3316 77.8322 90.1409
338 8.3333 100.0000 100.0000 54.5338 79.1132 107.0039
339 16.6667 0.0000 0.0000 1.9162 1.4978 1.1342
340 16.6667 0.0000 8.3333 2.0525 1.5523 1.8520
341 16.6667 0.0000 16.6667 2.3388 1.6669 3.3599
342 16.6667 0.0000 25.0000 2.8253 1.8615 5.9216
343 16.6667 0.0000 33.3333 3.5395 2.1471 9.6824
344 16.6667 0.0000 41.6667 4.5046 2.5332 14.7645
345 16.6667 0.0000 50.0000 5.7410 3.0277 21.2754
346 16.6667 0.0000 58.3333 7.2670 3.6382 29.3112
347 16.6667 0.0000 66.6667 9.0993 4.3711 38.9601
348 16.6667 0.0000 75.0000 11.2534 5.2327 50.3032
349 16.6667 0.0000 83.3333 13.7436 6.2288 63.4164
350 16.6667 0.0000 91.6667 16.5834 7.3647 78.3708
351 16.6667 0.0000 100.0000 19.7857 8.6456 95.2337
352 16.6667 8.3333 0.0000 2.1862 2.0379 1.2242
353 16.6667 8.3333 8.3333 2.3225 2.0925 1.9420
354 16.6667 8.3333 16.6667 2.6089 2.2070 3.4499
355 16.6667 8.3333 25.0000 3.0954 2.4016 6.0116
356 16.6667 8.3333 33.3333 3.8095 2.6872 9.7724
357 16.6667 8.3333 41.6667 4.7746 3.0733 14.8545
358 16.6667 8.3333 50.0000 6.0110 3.5679 21.3654
359 16.6667 8.3333 58.3333 7.5370 4.1783 29.4013
360 16.6667 8.3333 66.6667 9.3694 4.9112 39.0501
361 16.6667 8.3333 75.0000 11.5234 5.7728 50.3932
362 16.6667 8.3333 83.3333 14.0136 6.7689 63.5064
363 16.6667 8.3333 91.6667 16.8535 7.9048 78.4608
364 16.6667 8.3333 100.0000 20.0557 9.1857 95.3237
365 16.6667 16.6667 0.0000 2.7535 3.1725 1.4133
366 16.6667 16.6667 8.3333 2.8898 3.2270 2.1311
367 16.6667 16.6667 16.6667 3.1762 3.3416 3.6390
368 16.6667 16.6667 25.0000 3.6627 3.5362 6.2007
369 16.6667 16.6667 33.3333 4.3768 3.8218 9.9615
370 16.6667 16.6667 41.6667 5.3419 4.2079 15.0436
371 16.6667 16.6667 50.0000 6.5783 4.7024 21.5545
372 16.6667 16.6667 58.3333 8.1043 5.3129 29.5904
373 16.6667 16.6667 66.6667 9.9367 6.0458 39.2392
374 16.6667 16.6667 75.0000 12.0907 6.9074 50.5823
375 16.6667 16.6667 83.3333 14.5809 7.9035 63.6955
376 16.6667 16.6667 91.6667 17.4207 9.0394 78.6499
377 16.6667 16.6667 100.0000 20.6230 10.3203 95.5128
378 16.6667 25.0000 0.0000 3.7173 5.1001 1.7346
379 16.6667 25.0000 8.3333 3.8536 5.1546 2.4524
380 16.6667 25.0000 16.6667 4.1400 5.2692 3.9602
381 16.6667 25.0000 25.0000 4.6264 5.4637 6.5220
382 16.6667 25.0000 33.3333 5.3406 5.7494 10.2827
383 16.6667 25.0000 41.6667 6.3057 6.1355 15.3649
384 16.6667 25.0000 50.0000 7.5421 6.6300 21.8757
385 16.6667 25.0000 58.3333 9.0681 7.2404 29.9116
386 16.6667 25.0000 66.6667 10.9004 7.9733 39.5605
387 16.6667 25.0000 75.0000 13.0545 8.8350 50.9036
388 16.6667 25.0000 83.3333 15.5447 9.8310 64.0167
389 16.6667 25.0000 91.6667 18.3845 10.9670 78.9711
390 16.6667 25.0000 100.0000 21.5868 12.2479 95.8341
391 16.6667 33.3333 0.0000 5.1322 7.9299 2.2062
392 16.6667 33.3333 8.3333 5.2685 7.9844 2.9240
393 16.6667 33.3333 16.6667 5.5548 8.0989 4.4319
394 16.6667 33.3333 25.0000 6.0413 8.2935 6.9936
395 16.6667 33.3333 33.3333 6.7555 8.5792 10.7544
396 16.6667 33.3333 41.6667 7.7206 8.9652 15.8365
397 16.6667 33.3333 50.0000 8.9570 9.4598 22.3474
398 16.6667 33.3333 58.3333 10.4830 10.0702 30.3832
399 16.6667 33.3333 66.6667 12.3153 10.8031 40.0321
400 16.6667 33.3333 75.0000 14.4694 11.6647 51.3752
401 16.6667 33.3333 83.3333 16.9596 12.6608 64.4884
402 16.6667 33.3333 91.6667 19.7994 13.7967 79.4428
403 16.6667 33.3333 100.0000 23.0017 15.0777 96.3057
404 16.6667 41.6667 0.0000 7.0442 11.7539 2.8435
405 16.6667 41.6667 8.3333 7.1805 11.8084 3.5613
406 16.6667 41.6667 16.6667 7.4669 11.9230 5.0692
407 16.6667 41.6667 25.0000 7.9533 12.1175 7.6310
408 16.6667 41.6667 33.3333 8.6675 12.4032 11.3917
409 16.6667 41.6667 41.6667 9.6326 12.7893 16.4739
410 16.6667 41.6667 50.0000 10.8690 13.2838 22.9847
411 16.6667 41.6667 58.3333 12.3950 13.8942 31.0206
412 16.6667 41.6667 66.6667 14.2274 14.6272 40.6694
413 16.6667 41.6667 75.0000 16.3814 15.4888 52.0126
414 16.6667 41.6667 83.3333 18.8716 16.4849 65.1257
415 16.6667 41.6667 91.6667 21.7114 17.6208 80.0801
416 16.6667 41.6667 100.0000 24.9137 18.9017 96.9430
417 16.6667 50.0000 0.0000 9.4937 16.6530 3.6600
418 16.6667 50.0000 8.3333 9.6301 16.7075 4.3779
419 16.6667 50.0000 16.6667 9.9164 16.8220 5.8857
420 16.6667 50.0000 25.0000 10.4029 17.0166 8.4475
421 16.6667 50.0000 33.3333 11.1170 17.3023 12.2082
422 16.6667 50.0000 41.6667 12.0821 17.6883 17.2904
423 16.6667 50.0000 50.0000 13.3185 18.1829 23.8012
424 16.6667 50.0000 58.3333 14.8446 18.7933 31.8371
425 16.6667 50.0000 66.6667 16.6769 19.5262 41.4860
426 16.6667 50.0000 75.0000 18.8309 20.3878 52.8291
427 16.6667 50.0000 83.3333 21.3211 21.3839 65.9422
428 16.6667 50.0000 91.6667 24.1610 22.5199 80.8966
429 16.6667 50.0000 100.0000 27.3632 23.8008 97.7595
430 16.6667 58.3333 0.0000 12.5170 22.6995 4.6678
431 16.6667 58.3333 8.3333 12.6533 22.7541 5.3856
432 16.6667 58.3333 16.6667 12.9397 22.8686 6.8935
433 16.6667 58.3333 25.0000 13.4262 23.0632 9.4552
434 16.6667 58.3333 33.3333 14.1403 23.3488 13.2160
435 16.6667 58.3333 41.6667 15.1054 23.7349 18.2981
436 16.6667 58.3333 50.0000 16.3418 24.2295 24.8090
437 16.6667 58.3333 58.3333 17.8678 24.8399 32.8449
438 16.6667 58.3333 66.6667 19.7002 25.5728 42.4937
439 16.6667 58.3333 75.0000 21.8542 26.4344 53.8368
440 16.6667 58.3333 83.3333 24.3444 27.4305 66.9500
441 16.6667 58.3333 91.6667 27.1843 28.5664 81.9044
442 16.6667 58.3333 100.0000 30.3865 29.8473 98.7673
443 16.6667 66.6667 0.0000 16.1471 29.9598 5.8779
444 16.6667 66.6667 8.3333 16.2835 30.0143 6.5957
445 16.6667 66.6667 16.6667 16.5698 30.1288 8.1035
446 16.6667 66.6667 25.0000 17.0563 30.3234 10.6653
447 16.6667 66.6667 33.3333 17.7704 30.6091 14.4260
448 16.6667 66.6667 41.6667 18.7355 30.9951 19.5082
449 16.6667 66.6667 50.0000 19.9720 31.4897 26.0190
450 16.6667 66.6667 58.3333 21.4980 32.1001 34.0549
451 16.6667 66.6667 66.6667 23.3303 32.8330 43.7038
452 16.6667 66.6667 75.0000 25.4843 33.6947 55.0469
453 16.6667 66.6667 83.3333 27.9745 34.6907 68.1600
454 16.6667 66.6667 91.6667 30.8144 35.8267 83.1144
455 16.6667 66.6667 100.0000 34.0166 37.1076 99.9774
456 16.6667 75.0000 0.0000 20.4147 38.4949 7.3004
457 16.6667 75.0000 8.3333 20.5510 38.5494 8.0182
458 16.6667 75.0000 16.6667 20.8373 38.6639 9.5260
459 16.6667 75.0000 25.0000 21.3238 38.8585 12.0878
460 16.6667 75.0000 33.3333 22.0380 39.1442 15.8485
461 16.6667 75.0000 41.6667 23.0031 39.5302 20.9307
462 16.6667 75.0000 50.0000 24.2395 40.0248 27.4415
463 16.6667 75.0000 58.3333 25.7655 40.6352 35.4774
464 16.6667 75.0000 66.6667 27.5978 41.3681 45.1263
465 16.6667 75.0000 75.0000 29.7519 42.2297 56.4694
466 16.6667 75.0000 83.3333 32.2421 43.2258 69.5825
467 16.6667 75.0000 91.6667 35.0819 44.3617 84.5369
468 16.6667 75.0000 100.0000 38.2842 45.6427 101.3999
469 16.6667 83.3333 0.0000 25.3482 48.3618 8.9449
470 16.6667 83.3333 8.3333 25.4845 48.4163 9.6627
471 16.6667 83.3333 16.6667 25.7708 48.5309 11.1705
472 16.6667 83.3333 25.0000 26.2573 48.7254 13.7323
473 16.6667 83.3333 33.3333 26.9715 49.0111 17.4930
