demo-projects/Demo-Report-Matrix/runs/run1/verifications/2026-08-10_090000/chart/Demo-Report-Matrix-verify.ti2
CTI2   

DESCRIPTOR "Argyll Calibration Target chart information 2"
ORIGINATOR "Argyll printtarg"
CREATED "Tue Aug 11 11:21:03 2026"
TARGET_INSTRUMENT "X-Rite ColorMunki"
APPROX_WHITE_POINT "95.106486 100.000000 108.844025"
COLOR_REP "iRGB"
PAPER_SIZE "210.0x297.0"
RANDOM_START "93"
STEPS_IN_PASS "15"
PASSES_IN_STRIPS2 "6,1"
STRIP_INDEX_PATTERN "A-Z, A-Z"
PATCH_INDEX_PATTERN "0-9,@-9,@-9;1-999"
INDEX_ORDER "STRIP_THEN_PATCH"

NUMBER_OF_FIELDS 8
BEGIN_DATA_FORMAT
SAMPLE_ID SAMPLE_LOC RGB_R RGB_G RGB_B XYZ_X XYZ_Y XYZ_Z 
END_DATA_FORMAT

NUMBER_OF_SETS 105
BEGIN_DATA
1 "E5" 100.0000 100.0000 100.0000 95.10649 100.0000 108.8440 
2 "B6" 100.0000 100.0000 100.0000 95.10649 100.0000 108.8440 
3 "D8" 100.0000 100.0000 100.0000 95.10649 100.0000 108.8440 
4 "C14" 100.0000 100.0000 100.0000 95.10649 100.0000 108.8440 
5 "D7" 0.00000 0.00000 0.00000 1.000000 1.000000 1.000000 
6 "B2" 0.00000 0.00000 0.00000 1.000000 1.000000 1.000000 
7 "D1" 0.00000 0.00000 0.00000 1.000000 1.000000 1.000000 
8 "D14" 0.00000 0.00000 0.00000 1.000000 1.000000 1.000000 
9 "F2" 100.0000 100.0000 0.00000 77.23538 92.85269 14.71507 
10 "G1" 0.00000 0.00000 100.0000 18.87111 8.147314 95.12896 
11 "F6" 100.0000 0.00000 0.00000 41.83017 22.05217 2.913230 
12 "F9" 0.00000 100.0000 100.0000 54.27632 78.94783 106.9308 
13 "A1" 0.00000 100.0000 0.00000 36.40521 71.80052 12.80184 
14 "G11" 100.0000 0.00000 100.0000 59.70128 29.19948 97.04219 
15 "G7" 0.00000 38.82353 100.0000 23.25788 16.91963 96.59123 
16 "A14" 0.00000 61.17647 0.00000 12.70359 24.40392 4.901231 
17 "B10" 0.00000 0.00000 49.80392 4.770356 2.507904 20.85885 
18 "B15" 100.0000 0.00000 49.41176 45.58898 23.55546 22.71129 
19 "E6" 100.0000 52.15686 100.0000 67.93881 45.67225 99.78806 
20 "B4" 100.0000 50.98039 0.00000 49.74732 37.88424 5.552301 
21 "G15" 49.80392 0.00000 0.00000 9.662389 5.466356 1.405904 
22 "D6" 100.0000 100.0000 50.19608 81.09421 94.39597 35.03991 
23 "A3" 0.00000 100.0000 50.58824 40.34823 73.37747 33.57011 
24 "G2" 49.41176 100.0000 100.0000 62.82251 83.35428 107.3313 
25 "D15" 51.76471 100.0000 0.00000 45.81104 76.65020 13.24258 
26 "G14" 50.19608 0.00000 100.0000 27.63298 12.66496 95.53953 
27 "C9" 0.00000 47.84314 60.39216 13.64115 17.05569 33.65792 
28 "C13" 100.0000 59.21569 43.52941 55.62505 45.07079 21.59713 
29 "G3" 47.45098 49.01961 0.00000 16.00974 19.50088 3.780674 
30 "C11" 52.15686 0.00000 45.49020 13.67816 7.175224 17.91731 
31 "A11" 55.29412 47.84314 100.0000 36.62472 27.44441 97.91881 
32 "E4" 49.01961 100.0000 50.98039 48.81139 77.73849 34.08497 
33 "A2" 48.23529 47.45098 50.19608 19.69763 20.18867 23.93550 
34 "C2" 0.00000 30.98039 0.00000 3.762538 6.524303 1.920854 
35 "B9" 100.0000 21.17647 79.21569 53.66604 28.87796 58.80165 
36 "G13" 34.11765 70.58824 100.0000 38.93412 42.55157 100.7133 
37 "E7" 74.90196 25.88235 0.00000 24.22978 15.82652 2.638481 
38 "G12" 0.00000 77.64706 71.76471 29.42922 44.32783 52.18068 
39 "F15" 25.09804 0.00000 23.52941 3.873488 2.389068 5.309903 
40 "B7" 76.47059 100.0000 28.23529 59.75553 83.70496 19.99150 
41 "B12" 0.00000 76.86275 31.37255 22.06368 40.81896 15.12228 
42 "B3" 75.29412 77.64706 100.0000 60.54834 59.43723 102.8343 
43 "C8" 100.0000 23.13725 20.39216 44.01513 25.43676 6.678456 
44 "F4" 100.0000 80.00000 22.35294 63.94866 65.12084 13.87014 
45 "D5" 75.29412 100.0000 76.07843 67.58856 86.76575 64.49515 
46 "D13" 75.29412 74.90196 0.00000 40.93353 48.89456 8.141819 
47 "F7" 100.0000 79.60784 78.03922 73.15967 68.29936 63.94381 
48 "C12" 26.27451 100.0000 76.07843 48.33754 76.84054 63.56246 
49 "F1" 28.23529 28.23529 100.0000 23.80146 14.09157 96.01670 
50 "E1" 76.86275 0.00000 23.52941 24.31536 12.92791 6.315245 
51 "E3" 75.29412 0.00000 74.50980 31.75200 15.78568 50.73888 
52 "E11" 29.80392 74.11765 0.00000 22.05107 38.68839 7.166235 
53 "E15" 25.49020 100.0000 24.70588 39.46004 73.27218 17.61267 
54 "D9" 77.25490 23.52941 100.0000 43.26447 23.13544 96.73735 
55 "C1" 0.00000 21.17647 72.15686 10.88040 7.021778 46.65641 
56 "B1" 26.27451 0.00000 71.76471 11.80026 5.584618 45.91725 
57 "G8" 0.00000 20.00000 30.19608 3.475594 3.846652 8.313508 
58 "A13" 26.27451 33.33333 23.52941 7.341154 8.985985 6.440625 
59 "B8" 66.66667 70.19608 52.15686 37.63334 43.22990 29.33642 
60 "F12" 74.90196 52.54902 65.09804 37.65713 31.67860 40.62175 
61 "B11" 26.66667 49.41176 81.56863 21.94608 21.42780 62.69617 
62 "E8" 45.88235 68.62745 63.52941 29.94221 37.68919 40.61562 
63 "E10" 70.98039 50.58824 34.90196 29.45552 26.95697 13.77011 
64 "G4" 54.50980 27.45098 62.74510 19.91895 13.22796 35.15048 
65 "F8" 34.50980 74.90196 32.54902 24.97050 40.47223 15.49139 
66 "D4" 74.90196 20.39216 50.19608 27.32312 15.93938 22.71492 
67 "F10" 47.84314 20.00000 33.33333 11.73857 8.109565 10.21947 
68 "F3" 27.05882 32.54902 48.23529 10.08167 9.842747 20.81764 
69 "B5" 27.45098 24.70588 0.00000 5.284522 5.819197 1.704587 
70 "E13" 0.00000 69.01961 100.0000 34.30242 39.00561 100.2728 
71 "D3" 20.39216 59.60784 49.41176 17.37253 25.62488 24.57528 
72 "A9" 0.00000 47.05882 28.23529 8.776059 14.71303 9.257121 
73 "F5" 73.72549 75.29412 76.07843 49.71031 52.73059 58.79276 
74 "A12" 63.52941 75.68627 29.41176 35.80070 46.83272 14.53133 
75 "D10" 100.0000 50.98039 71.37255 58.05275 41.13342 49.52138 
76 "E9" 23.52941 85.88235 53.33333 32.24221 53.71353 32.52990 
77 "E12" 100.0000 29.41176 48.23529 47.88978 28.46065 22.53996 
78 "A8" 72.15686 51.37255 8.627451 28.84017 27.35945 5.378562 
79 "G9" 21.17647 53.72549 11.76471 11.59700 19.54959 5.229524 
80 "C7" 12.15686 81.96078 10.19608 24.32963 46.51089 9.542786 
81 "C10" 50.19608 91.76471 71.76471 47.48310 67.26199 55.70860 
82 "C15" 48.62745 94.90196 23.13725 41.48560 68.60196 15.97917 
83 "G5" 47.84314 54.90196 27.45098 19.37006 24.15092 10.24195 
84 "D12" 3.921569 53.33333 81.56863 21.13071 23.01187 63.39370 
85 "C3" 76.07843 97.64706 96.07843 72.91098 86.05656 98.81661 
86 "B14" 74.90196 92.94118 51.37255 56.24283 73.54455 33.45678 
87 "E14" 91.37255 77.25490 49.80392 57.87914 59.10791 29.14420 
88 "D11" 56.07843 23.52941 88.23529 27.22924 15.37405 72.80631 
89 "E2" 76.07843 54.50980 92.15686 46.97560 36.61571 83.06884 
90 "B13" 52.94118 23.13725 10.98039 12.63545 9.260580 3.075270 
91 "F13" 1.960784 97.64706 76.86275 44.50275 72.17433 63.96235 
92 "C6" 78.03922 25.09804 74.11765 35.19965 20.30964 50.61894 
93 "F11" 5.098039 95.68627 28.62745 34.25821 65.34286 17.95062 
94 "G10" 4.313725 24.31373 50.98039 6.819793 6.037925 22.64628 
95 "A6" 51.37255 47.84314 76.47059 26.81651 23.39479 54.93519 
96 "A10" 97.25490 100.0000 74.90196 84.20764 95.36714 63.80536 
97 "A7" 49.01961 5.490196 74.11765 18.65383 9.277603 49.19279 
98 "G6" 91.37255 51.76471 22.35294 43.06354 34.64113 9.062858 
99 "C4" 74.50980 24.31373 25.88235 24.70281 15.64508 7.750816 
100 "A4" 94.11765 74.11765 93.72549 70.12571 61.68830 89.81241 
101 "F14" 23.13725 75.68627 80.78431 32.68934 43.95863 65.68737 
102 "A5" 56.07843 76.86275 5.098039 31.85674 45.94508 8.442348 
103 "A15" 27.45098 8.235294 46.66667 7.050379 4.128571 18.42856 
104 "D2" 27.84314 25.88235 72.15686 14.06063 9.604488 46.81825 
105 "C5" 51.76471 81.17647 89.41176 46.22494 55.34471 81.48532 
END_DATA
