demo-projects/old/Demo-Report-Matrix-2026-08-10_231948/runs/run1/verifications/2026-07-20_100000/Demo-Report-Matrix-verify.ti3
CTI3   
KEYWORD "CHROMIQ_VERIFICATION"
CHROMIQ_VERIFICATION "true"

DESCRIPTOR "Argyll Calibration Target chart information 3"
ORIGINATOR "Argyll fakeread"
CREATED "Mon Aug 10 23:17:26 2026"
DEVICE_CLASS "DISPLAY"
COLOR_REP "iRGB_XYZ"

KEYWORD "CHROMIQ_MEASURED"
CHROMIQ_MEASURED "2026-07-20T10:00:00"
TARGET_INSTRUMENT "X-Rite ColorMunki"
NUMBER_OF_FIELDS 7
BEGIN_DATA_FORMAT
SAMPLE_ID RGB_R RGB_G RGB_B XYZ_X XYZ_Y XYZ_Z 
END_DATA_FORMAT

NUMBER_OF_SETS 105
BEGIN_DATA
1 100.0000 100.0000 100.0000 94.94005 99.78917 108.8699 
2 100.0000 100.0000 100.0000 94.72054 99.83245 108.8898 
3 100.0000 100.0000 100.0000 93.20491 99.05093 108.8188 
4 100.0000 100.0000 100.0000 94.24774 98.47883 108.4101 
5 0.00000 0.00000 0.00000 0.0547951 0.0516664 0.0676057 
6 0.00000 0.00000 0.00000 0.0221357 0.0262460 0.0629540 
7 0.00000 0.00000 0.00000 0.00622923 0.0124584 0.00207625 
8 0.00000 0.00000 0.00000 0.0469684 0.0449482 0.0367486 
9 100.0000 100.0000 0.00000 76.75998 92.28748 13.83328 
10 0.00000 0.00000 100.0000 18.04868 7.219054 95.05403 
11 100.0000 0.00000 0.00000 41.27897 21.34561 1.945986 
12 0.00000 100.0000 100.0000 53.81273 78.73863 106.9729 
13 0.00000 100.0000 0.00000 35.59957 71.18778 11.89968 
14 100.0000 0.00000 100.0000 59.28696 28.48329 96.98646 
15 0.00000 38.69451 100.0000 22.27403 16.11188 95.09912 
16 0.00000 61.01825 0.00000 11.49399 22.97890 3.858728 
17 0.00000 0.00000 49.66734 3.843585 1.537723 20.22534 
18 100.0000 0.00000 49.59690 45.09921 22.80851 22.26614 
19 100.0000 51.96322 100.0000 66.98513 44.60224 97.32416 
20 100.0000 51.02120 0.00000 48.99909 36.77040 4.566610 
21 49.79587 0.00000 0.00000 9.277370 4.791960 0.443599 
22 100.0000 100.0000 50.20307 79.84662 92.34653 33.71363 
23 0.00000 100.0000 50.70625 40.14425 73.27091 35.01622 
24 49.48561 100.0000 100.0000 61.20078 80.41209 106.0987 
25 51.72588 100.0000 0.00000 45.41336 76.49517 12.37100 
26 50.05958 0.00000 100.0000 26.64062 11.68294 93.94456 
27 0.00000 47.79621 60.34591 12.66462 15.68203 33.96555 
28 100.0000 59.17416 43.63085 55.05955 44.82365 20.54267 
29 47.31399 48.98978 0.00000 14.98814 17.99467 2.683487 
30 52.09288 0.00000 45.52943 13.26391 6.467489 17.40671 
31 55.39583 47.66229 100.0000 36.07452 27.45436 96.49166 
32 49.20125 100.0000 50.84061 48.80499 77.78142 33.40665 
33 48.29114 47.33520 50.18713 18.94265 19.89258 22.67540 
34 0.00000 30.94905 0.00000 2.841926 5.683827 0.947234 
35 100.0000 21.19106 79.12555 52.88745 28.14763 57.15843 
36 33.94804 70.69041 100.0000 38.32002 41.86398 100.6725 
37 74.96124 25.82053 0.00000 24.50423 15.92403 1.802606 
38 0.00000 77.61705 71.72771 28.84461 44.18061 51.21279 
39 24.97790 0.00000 23.41364 3.073925 1.527083 4.403286 
40 76.31808 100.0000 28.35106 59.01306 83.35138 20.06526 
41 0.00000 77.00365 31.43299 21.39686 40.73401 13.48174 
42 75.41143 77.79628 100.0000 60.08425 58.66135 102.4949 
43 100.0000 23.29829 20.42453 43.14336 24.52008 5.830982 
44 100.0000 80.02238 22.27702 64.27120 66.04925 13.55794 
45 75.35445 100.0000 76.01304 66.09693 84.00592 64.57952 
46 75.31505 74.81469 0.00000 40.61137 49.02082 7.321853 
47 100.0000 79.49395 78.19811 72.80866 67.67870 64.02536 
48 26.41218 100.0000 75.99234 47.12291 75.92608 61.32082 
49 28.19308 28.22301 100.0000 23.35145 13.63411 96.01282 
50 76.81359 0.00000 23.55016 23.45341 12.00643 5.674852 
51 75.25932 0.00000 74.69026 30.92719 14.91979 48.14119 
52 29.89921 74.23536 0.00000 21.82901 38.96419 6.373900 
53 25.50439 100.0000 24.78846 38.91205 73.02842 17.22838 
54 77.21225 23.71451 100.0000 42.49567 22.24776 96.66716 
55 0.00000 21.07405 72.23364 10.07123 6.169120 46.43972 
56 26.28049 0.00000 71.93547 10.92294 4.634004 45.56380 
57 0.00000 19.89483 30.07019 2.599711 3.082956 7.392006 
58 26.28079 33.45692 23.52814 6.627603 8.722067 5.662780 
59 66.56754 70.38587 52.30860 37.66684 43.07598 28.31602 
60 75.09479 52.62129 65.01886 37.12461 31.09326 38.70494 
61 26.64973 49.33561 81.42125 21.16324 19.95046 64.03150 
62 45.91179 68.61670 63.70484 29.85352 37.61617 39.26146 
63 71.11740 50.49568 34.71935 29.25001 26.02106 12.78071 
64 54.43736 27.35888 62.61652 19.72116 12.70072 34.22786 
65 34.69612 74.79966 32.60823 24.12032 39.80190 14.68991 
66 74.85889 20.44437 50.18860 26.93553 15.31426 21.88673 
67 47.85106 20.11464 33.14580 10.89863 6.969673 9.249832 
68 27.20651 32.63652 48.27367 9.104563 8.683951 19.40228 
69 27.58870 24.69734 0.00000 4.407350 4.948964 0.756018 
70 0.00000 69.14068 100.0000 33.54164 38.20483 100.2179 
71 20.53684 59.80271 49.57175 16.54730 24.79292 23.53549 
72 0.00000 46.98630 28.11508 7.851412 13.76238 8.599585 
73 73.54294 75.32966 75.96305 49.66800 53.19581 56.67826 
74 63.36650 75.70063 29.24590 35.89900 46.79716 13.87394 
75 100.0000 50.88622 71.33775 57.70059 40.80578 49.55697 
76 23.55356 85.77019 53.26247 31.30370 52.26752 32.85041 
77 100.0000 29.41094 48.41781 46.26297 27.06538 21.58089 
78 72.19800 51.56213 8.666635 28.47415 26.96085 4.508545 
79 21.36322 53.66478 11.70929 10.20567 17.69494 4.115505 
80 12.24937 81.96187 10.32227 23.87926 46.49431 8.677133 
81 50.32410 91.80251 71.76533 46.56353 66.08858 54.88311 
82 48.45094 95.04594 23.03440 41.17075 68.65378 15.13815 
83 47.91670 54.94911 27.45694 18.90934 24.56719 9.306370 
84 3.781525 53.33689 81.63552 20.85460 22.99966 64.09802 
85 76.14076 97.71765 95.89858 71.95768 84.86169 99.67882 
86 74.72769 92.97172 51.48222 55.87875 72.66786 32.21480 
87 91.51768 77.11623 49.84954 55.79268 56.44426 26.92246 
88 55.99479 23.67844 88.16304 26.67799 14.68275 72.03070 
89 76.02370 54.61404 92.04182 47.77673 37.17154 83.67513 
90 52.92777 23.07148 11.01567 11.63143 8.060209 1.976815 
91 2.113597 97.73685 76.72762 44.51312 73.04689 63.74841 
92 77.95688 25.26049 74.12841 34.89810 19.72502 51.72356 
93 5.158119 95.50651 28.71841 34.63862 66.82588 17.87663 
94 4.213096 24.16053 51.05457 5.602422 4.740304 21.18727 
95 51.24030 47.80404 76.36550 25.42850 22.10680 53.59686 
96 97.40498 100.0000 75.01152 84.27976 95.43899 63.71336 
97 49.19419 5.350316 74.01136 17.25917 8.075796 47.94589 
98 91.32533 51.59153 22.20459 41.49000 32.84628 7.787062 
99 74.48121 24.34677 26.05584 24.37727 15.08976 6.828068 
100 94.19953 74.22767 93.65841 69.85938 60.88784 89.19664 
101 23.32810 75.54038 80.93191 31.73856 43.40927 64.10196 
102 56.07175 76.90790 5.268606 31.59953 45.67702 7.522137 
103 27.55381 8.135545 46.48987 6.058499 3.115039 18.01913 
104 27.88054 25.86915 72.11177 13.43529 8.607143 47.65019 
105 51.80627 80.99682 89.24284 45.71799 55.44780 81.65721 
END_DATA
