assets/charts/knut/rgb/i1prophoto/i1_photo_100x150mm_1500p_10pages_portrait_w7_5mm/chart.ti1
CTI1   

DESCRIPTOR "Argyll Calibration Target chart information 1"
ORIGINATOR "ChromIQ"
APPROX_WHITE_POINT "95.050000 100.000000 108.900000"
COLOR_REP "iRGB"
WHITE_COLOR_PATCHES "2"
BLACK_COLOR_PATCHES "2"
CREATED "Fri Sep 18 00:31:03 2026"

NUMBER_OF_FIELDS 7
BEGIN_DATA_FORMAT
SAMPLE_ID RGB_R RGB_G RGB_B XYZ_X XYZ_Y XYZ_Z
END_DATA_FORMAT

NUMBER_OF_SETS 1500
BEGIN_DATA
1 0.0000 0.0000 0.0000 0.9505 1.0000 1.0890
2 0.0000 0.0000 11.1111 1.1620 1.0846 2.2026
3 0.0000 0.0000 22.2222 1.6734 1.2892 4.8959
4 0.0000 0.0000 33.3333 2.5738 1.6493 9.6372
5 0.0000 0.0000 44.4444 3.9199 2.1878 16.7259
6 0.0000 0.0000 55.5556 5.7594 2.9236 26.4124
7 0.0000 0.0000 66.6667 8.1336 3.8733 38.9149
8 0.0000 0.0000 77.7778 11.0797 5.0517 54.4288
9 0.0000 0.0000 88.8889 14.6315 6.4724 73.1320
10 0.0000 0.0000 100.0000 18.8200 8.1478 95.1885
11 0.0000 11.1111 0.0000 1.3695 1.8379 1.2287
12 0.0000 11.1111 11.1111 1.5809 1.9225 2.3423
13 0.0000 11.1111 22.2222 2.0924 2.1271 5.0355
14 0.0000 11.1111 33.3333 2.9928 2.4873 9.7768
15 0.0000 11.1111 44.4444 4.3389 3.0257 16.8656
16 0.0000 11.1111 55.5556 6.1784 3.7615 26.5520
17 0.0000 11.1111 66.6667 8.5526 4.7112 39.0546
18 0.0000 11.1111 77.7778 11.4987 5.8896 54.5684
19 0.0000 11.1111 88.8889 15.0504 7.3103 73.2716
20 0.0000 11.1111 100.0000 19.2390 8.9857 95.3282
21 0.0000 22.2222 0.0000 2.3827 3.8645 1.5664
22 0.0000 22.2222 11.1111 2.5942 3.9491 2.6800
23 0.0000 22.2222 22.2222 3.1057 4.1536 5.3733
24 0.0000 22.2222 33.3333 4.0060 4.5138 10.1146
25 0.0000 22.2222 44.4444 5.3522 5.0522 17.2033
26 0.0000 22.2222 55.5556 7.1916 5.7880 26.8898
27 0.0000 22.2222 66.6667 9.5659 6.7377 39.3923
28 0.0000 22.2222 77.7778 12.5120 7.9162 54.9062
29 0.0000 22.2222 88.8889 16.0637 9.3369 73.6094
30 0.0000 22.2222 100.0000 20.2522 11.0123 95.6659
31 0.0000 33.3333 0.0000 4.1665 7.4320 2.1610
32 0.0000 33.3333 11.1111 4.3780 7.5166 3.2746
33 0.0000 33.3333 22.2222 4.8894 7.7212 5.9679
34 0.0000 33.3333 33.3333 5.7898 8.0813 10.7092
35 0.0000 33.3333 44.4444 7.1360 8.6198 17.7979
36 0.0000 33.3333 55.5556 8.9754 9.3556 27.4844
37 0.0000 33.3333 66.6667 11.3497 10.3053 39.9869
38 0.0000 33.3333 77.7778 14.2957 11.4837 55.5008
39 0.0000 33.3333 88.8889 17.8475 12.9044 74.2040
40 0.0000 33.3333 100.0000 22.0360 14.5798 96.2605
41 0.0000 44.4444 0.0000 6.8335 12.7659 3.0500
42 0.0000 44.4444 11.1111 7.0449 12.8505 4.1636
43 0.0000 44.4444 22.2222 7.5564 13.0551 6.8569
44 0.0000 44.4444 33.3333 8.4568 13.4152 11.5981
45 0.0000 44.4444 44.4444 9.8029 13.9537 18.6869
46 0.0000 44.4444 55.5556 11.6424 14.6895 28.3734
47 0.0000 44.4444 66.6667 14.0166 15.6392 40.8759
48 0.0000 44.4444 77.7778 16.9627 16.8176 56.3898
49 0.0000 44.4444 88.8889 20.5144 18.2383 75.0929
50 0.0000 44.4444 100.0000 24.7030 19.9137 97.1495
51 0.0000 55.5556 0.0000 10.4777 20.0545 4.2647
52 0.0000 55.5556 11.1111 10.6892 20.1391 5.3784
53 0.0000 55.5556 22.2222 11.2007 20.3437 8.0716
54 0.0000 55.5556 33.3333 12.1010 20.7038 12.8129
55 0.0000 55.5556 44.4444 13.4472 21.2423 19.9016
56 0.0000 55.5556 55.5556 15.2867 21.9781 29.5881
57 0.0000 55.5556 66.6667 17.6609 22.9277 42.0907
58 0.0000 55.5556 77.7778 20.6070 24.1062 57.6045
59 0.0000 55.5556 88.8889 24.1587 25.5269 76.3077
60 0.0000 55.5556 100.0000 28.3472 27.2023 98.3642
61 0.0000 66.6667 0.0000 15.1815 29.4620 5.8327
62 0.0000 66.6667 11.1111 15.3930 29.5465 6.9463
63 0.0000 66.6667 22.2222 15.9044 29.7511 9.6395
64 0.0000 66.6667 33.3333 16.8048 30.1113 14.3808
65 0.0000 66.6667 44.4444 18.1509 30.6497 21.4696
66 0.0000 66.6667 55.5556 19.9904 31.3855 31.1561
67 0.0000 66.6667 66.6667 22.3646 32.3352 43.6586
68 0.0000 66.6667 77.7778 25.3107 33.5136 59.1725
69 0.0000 66.6667 88.8889 28.8624 34.9343 77.8756
70 0.0000 66.6667 100.0000 33.0510 36.6098 99.9322
71 0.0000 77.7778 0.0000 21.0182 41.1353 7.7782
72 0.0000 77.7778 11.1111 21.2296 41.2199 8.8918
73 0.0000 77.7778 22.2222 21.7411 41.4245 11.5851
74 0.0000 77.7778 33.3333 22.6415 41.7846 16.3264
75 0.0000 77.7778 44.4444 23.9876 42.3231 23.4151
76 0.0000 77.7778 55.5556 25.8271 43.0589 33.1016
77 0.0000 77.7778 66.6667 28.2013 44.0086 45.6041
78 0.0000 77.7778 77.7778 31.1474 45.1870 61.1180
79 0.0000 77.7778 88.8889 34.6991 46.6077 79.8212
80 0.0000 77.7778 100.0000 38.8877 48.2831 101.8777
81 0.0000 88.8889 0.0000 28.0547 55.2084 10.1237
82 0.0000 88.8889 11.1111 28.2662 55.2930 11.2374
83 0.0000 88.8889 22.2222 28.7776 55.4976 13.9306
84 0.0000 88.8889 33.3333 29.6780 55.8578 18.6719
85 0.0000 88.8889 44.4444 31.0242 56.3962 25.7606
86 0.0000 88.8889 55.5556 32.8636 57.1320 35.4471
87 0.0000 88.8889 66.6667 35.2379 58.0817 47.9496
88 0.0000 88.8889 77.7778 38.1839 59.2601 63.4635
89 0.0000 88.8889 88.8889 41.7357 60.6808 82.1667
90 0.0000 88.8889 100.0000 45.9242 62.3562 104.2232
91 0.0000 100.0000 0.0000 36.3529 71.8048 12.8898
92 0.0000 100.0000 11.1111 36.5644 71.8894 14.0034
93 0.0000 100.0000 22.2222 37.0758 72.0940 16.6967
94 0.0000 100.0000 33.3333 37.9762 72.4541 21.4380
95 0.0000 100.0000 44.4444 39.3223 72.9926 28.5267
96 0.0000 100.0000 55.5556 41.1618 73.7284 38.2132
97 0.0000 100.0000 66.6667 43.5360 74.6781 50.7157
98 0.0000 100.0000 77.7778 46.4821 75.8565 66.2296
99 0.0000 100.0000 88.8889 50.0339 77.2772 84.9328
100 0.0000 100.0000 100.0000 54.2224 78.9526 106.9893
101 11.1111 0.0000 0.0000 1.4337 1.2491 1.1116
102 11.1111 0.0000 11.1111 1.6452 1.3337 2.2252
103 11.1111 0.0000 22.2222 2.1566 1.5383 4.9185
104 11.1111 0.0000 33.3333 3.0570 1.8984 9.6598
105 11.1111 0.0000 44.4444 4.4031 2.4369 16.7485
106 11.1111 0.0000 55.5556 6.2426 3.1727 26.4350
107 11.1111 0.0000 66.6667 8.6168 4.1223 38.9375
108 11.1111 0.0000 77.7778 11.5629 5.3008 54.4514
109 11.1111 0.0000 88.8889 15.1146 6.7215 73.1546
110 11.1111 0.0000 100.0000 19.3032 8.3969 95.2111
111 11.1111 11.1111 0.0000 1.8526 2.0870 1.2513
112 11.1111 11.1111 11.1111 2.0641 2.1716 2.3649
113 11.1111 11.1111 22.2222 2.5756 2.3762 5.0581
114 11.1111 11.1111 33.3333 3.4759 2.7363 9.7994
115 11.1111 11.1111 44.4444 4.8221 3.2748 16.8882
116 11.1111 11.1111 55.5556 6.6616 4.0106 26.5747
117 11.1111 11.1111 66.6667 9.0358 4.9603 39.0772
118 11.1111 11.1111 77.7778 11.9819 6.1387 54.5911
119 11.1111 11.1111 88.8889 15.5336 7.5594 73.2942
120 11.1111 11.1111 100.0000 19.7221 9.2348 95.3508
121 11.1111 22.2222 0.0000 2.8659 4.1136 1.5890
122 11.1111 22.2222 11.1111 3.0774 4.1981 2.7026
123 11.1111 22.2222 22.2222 3.5888 4.4027 5.3959
124 11.1111 22.2222 33.3333 4.4892 4.7629 10.1372
125 11.1111 22.2222 44.4444 5.8354 5.3013 17.2259
126 11.1111 22.2222 55.5556 7.6748 6.0371 26.9124
127 11.1111 22.2222 66.6667 10.0491 6.9868 39.4149
128 11.1111 22.2222 77.7778 12.9951 8.1652 54.9288
129 11.1111 22.2222 88.8889 16.5469 9.5859 73.6320
130 11.1111 22.2222 100.0000 20.7354 11.2614 95.6885
131 11.1111 33.3333 0.0000 4.6497 7.6811 2.1836
132 11.1111 33.3333 11.1111 4.8612 7.7657 3.2972
133 11.1111 33.3333 22.2222 5.3726 7.9703 5.9905
134 11.1111 33.3333 33.3333 6.2730 8.3304 10.7318
135 11.1111 33.3333 44.4444 7.6191 8.8689 17.8205
136 11.1111 33.3333 55.5556 9.4586 9.6047 27.5070
137 11.1111 33.3333 66.6667 11.8328 10.5544 40.0095
138 11.1111 33.3333 77.7778 14.7789 11.7328 55.5234
139 11.1111 33.3333 88.8889 18.3307 13.1535 74.2266
140 11.1111 33.3333 100.0000 22.5192 14.8289 96.2831
141 11.1111 44.4444 0.0000 7.3166 13.0150 3.0726
142 11.1111 44.4444 11.1111 7.5281 13.0996 4.1862
143 11.1111 44.4444 22.2222 8.0396 13.3042 6.8795
144 11.1111 44.4444 33.3333 8.9399 13.6643 11.6208
145 11.1111 44.4444 44.4444 10.2861 14.2028 18.7095
146 11.1111 44.4444 55.5556 12.1256 14.9386 28.3960
147 11.1111 44.4444 66.6667 14.4998 15.8883 40.8985
148 11.1111 44.4444 77.7778 17.4459 17.0667 56.4124
149 11.1111 44.4444 88.8889 20.9976 18.4874 75.1156
150 11.1111 44.4444 100.0000 25.1861 20.1628 97.1721
151 11.1111 55.5556 0.0000 10.9609 20.3036 4.2874
152 11.1111 55.5556 11.1111 11.1724 20.3882 5.4010
153 11.1111 55.5556 22.2222 11.6838 20.5927 8.0942
154 11.1111 55.5556 33.3333 12.5842 20.9529 12.8355
155 11.1111 55.5556 44.4444 13.9304 21.4914 19.9243
156 11.1111 55.5556 55.5556 15.7698 22.2271 29.6108
157 11.1111 55.5556 66.6667 18.1441 23.1768 42.1133
158 11.1111 55.5556 77.7778 21.0901 24.3553 57.6272
159 11.1111 55.5556 88.8889 24.6419 25.7760 76.3303
160 11.1111 55.5556 100.0000 28.8304 27.4514 98.3869
161 11.1111 66.6667 0.0000 15.6647 29.7110 5.8553
162 11.1111 66.6667 11.1111 15.8761 29.7956 6.9689
163 11.1111 66.6667 22.2222 16.3876 30.0002 9.6621
164 11.1111 66.6667 33.3333 17.2879 30.3604 14.4034
165 11.1111 66.6667 44.4444 18.6341 30.8988 21.4922
166 11.1111 66.6667 55.5556 20.4736 31.6346 31.1787
167 11.1111 66.6667 66.6667 22.8478 32.5843 43.6812
168 11.1111 66.6667 77.7778 25.7939 33.7627 59.1951
169 11.1111 66.6667 88.8889 29.3456 35.1834 77.8982
170 11.1111 66.6667 100.0000 33.5342 36.8588 99.9548
171 11.1111 77.7778 0.0000 21.5013 41.3844 7.8008
172 11.1111 77.7778 11.1111 21.7128 41.4690 8.9145
173 11.1111 77.7778 22.2222 22.2243 41.6736 11.6077
174 11.1111 77.7778 33.3333 23.1246 42.0337 16.3490
175 11.1111 77.7778 44.4444 24.4708 42.5722 23.4377
176 11.1111 77.7778 55.5556 26.3102 43.3080 33.1242
177 11.1111 77.7778 66.6667 28.6845 44.2577 45.6267
178 11.1111 77.7778 77.7778 31.6306 45.4361 61.1406
179 11.1111 77.7778 88.8889 35.1823 46.8568 79.8438
180 11.1111 77.7778 100.0000 39.3708 48.5322 101.9003
181 11.1111 88.8889 0.0000 28.5379 55.4575 10.1464
182 11.1111 88.8889 11.1111 28.7494 55.5421 11.2600
183 11.1111 88.8889 22.2222 29.2608 55.7467 13.9532
184 11.1111 88.8889 33.3333 30.1612 56.1068 18.6945
185 11.1111 88.8889 44.4444 31.5073 56.6453 25.7833
186 11.1111 88.8889 55.5556 33.3468 57.3811 35.4697
187 11.1111 88.8889 66.6667 35.7210 58.3308 47.9723
188 11.1111 88.8889 77.7778 38.6671 59.5092 63.4861
189 11.1111 88.8889 88.8889 42.2189 60.9299 82.1893
190 11.1111 88.8889 100.0000 46.4074 62.6053 104.2459
191 11.1111 100.0000 0.0000 36.8361 72.0539 12.9124
192 11.1111 100.0000 11.1111 37.0476 72.1385 14.0260
193 11.1111 100.0000 22.2222 37.5590 72.3431 16.7193
194 11.1111 100.0000 33.3333 38.4594 72.7032 21.4606
195 11.1111 100.0000 44.4444 39.8055 73.2417 28.5493
196 11.1111 100.0000 55.5556 41.6450 73.9775 38.2358
197 11.1111 100.0000 66.6667 44.0192 74.9271 50.7383
198 11.1111 100.0000 77.7778 46.9653 76.1056 66.2522
199 11.1111 100.0000 88.8889 50.5170 77.5263 84.9554
200 11.1111 100.0000 100.0000 54.7056 79.2017 107.0119
201 22.2222 0.0000 0.0000 2.6022 1.8515 1.1663
202 22.2222 0.0000 11.1111 2.8137 1.9361 2.2799
203 22.2222 0.0000 22.2222 3.3251 2.1407 4.9732
204 22.2222 0.0000 33.3333 4.2255 2.5008 9.7145
205 22.2222 0.0000 44.4444 5.5717 3.0393 16.8032
206 22.2222 0.0000 55.5556 7.4111 3.7751 26.4897
207 22.2222 0.0000 66.6667 9.7854 4.7247 38.9922
208 22.2222 0.0000 77.7778 12.7314 5.9032 54.5061
209 22.2222 0.0000 88.8889 16.2832 7.3239 73.2093
210 22.2222 0.0000 100.0000 20.4717 8.9993 95.2658
211 22.2222 11.1111 0.0000 3.0212 2.6894 1.3060
212 22.2222 11.1111 11.1111 3.2327 2.7740 2.4196
213 22.2222 11.1111 22.2222 3.7441 2.9786 5.1128
214 22.2222 11.1111 33.3333 4.6445 3.3388 9.8541
215 22.2222 11.1111 44.4444 5.9906 3.8772 16.9429
216 22.2222 11.1111 55.5556 7.8301 4.6130 26.6293
217 22.2222 11.1111 66.6667 10.2043 5.5627 39.1319
218 22.2222 11.1111 77.7778 13.1504 6.7411 54.6457
219 22.2222 11.1111 88.8889 16.7021 8.1618 73.3489
220 22.2222 11.1111 100.0000 20.8907 9.8372 95.4055
221 22.2222 22.2222 0.0000 4.0344 4.7160 1.6437
222 22.2222 22.2222 11.1111 4.2459 4.8006 2.7573
223 22.2222 22.2222 22.2222 4.7574 5.0051 5.4506
224 22.2222 22.2222 33.3333 5.6577 5.3653 10.1919
225 22.2222 22.2222 44.4444 7.0039 5.9037 17.2806
226 22.2222 22.2222 55.5556 8.8434 6.6395 26.9671
227 22.2222 22.2222 66.6667 11.2176 7.5892 39.4696
228 22.2222 22.2222 77.7778 14.1637 8.7677 54.9835
229 22.2222 22.2222 88.8889 17.7154 10.1883 73.6867
230 22.2222 22.2222 100.0000 21.9039 11.8638 95.7432
231 22.2222 33.3333 0.0000 5.8182 8.2835 2.2383
232 22.2222 33.3333 11.1111 6.0297 8.3681 3.3519
233 22.2222 33.3333 22.2222 6.5412 8.5727 6.0452
234 22.2222 33.3333 33.3333 7.4415 8.9328 10.7865
235 22.2222 33.3333 44.4444 8.7877 9.4713 17.8752
236 22.2222 33.3333 55.5556 10.6271 10.2071 27.5617
237 22.2222 33.3333 66.6667 13.0014 11.1568 40.0642
238 22.2222 33.3333 77.7778 15.9475 12.3352 55.5781
239 22.2222 33.3333 88.8889 19.4992 13.7559 74.2813
240 22.2222 33.3333 100.0000 23.6877 15.4313 96.3378
241 22.2222 44.4444 0.0000 8.4852 13.6174 3.1273
242 22.2222 44.4444 11.1111 8.6967 13.7020 4.2409
243 22.2222 44.4444 22.2222 9.2081 13.9066 6.9342
244 22.2222 44.4444 33.3333 10.1085 14.2667 11.6754
245 22.2222 44.4444 44.4444 11.4546 14.8052 18.7642
246 22.2222 44.4444 55.5556 13.2941 15.5410 28.4507
247 22.2222 44.4444 66.6667 15.6683 16.4907 40.9532
248 22.2222 44.4444 77.7778 18.6144 17.6691 56.4671
249 22.2222 44.4444 88.8889 22.1661 19.0898 75.1702
250 22.2222 44.4444 100.0000 26.3547 20.7652 97.2268
251 22.2222 55.5556 0.0000 12.1295 20.9060 4.3420
252 22.2222 55.5556 11.1111 12.3409 20.9906 5.4557
253 22.2222 55.5556 22.2222 12.8524 21.1951 8.1489
254 22.2222 55.5556 33.3333 13.7528 21.5553 12.8902
255 22.2222 55.5556 44.4444 15.0989 22.0938 19.9789
256 22.2222 55.5556 55.5556 16.9384 22.8295 29.6654
257 22.2222 55.5556 66.6667 19.3126 23.7792 42.1680
258 22.2222 55.5556 77.7778 22.2587 24.9577 57.6818
259 22.2222 55.5556 88.8889 25.8104 26.3784 76.3850
260 22.2222 55.5556 100.0000 29.9990 28.0538 98.4415
261 22.2222 66.6667 0.0000 16.8332 30.3134 5.9100
262 22.2222 66.6667 11.1111 17.0447 30.3980 7.0236
263 22.2222 66.6667 22.2222 17.5561 30.6026 9.7168
264 22.2222 66.6667 33.3333 18.4565 30.9628 14.4581
265 22.2222 66.6667 44.4444 19.8026 31.5012 21.5469
266 22.2222 66.6667 55.5556 21.6421 32.2370 31.2333
267 22.2222 66.6667 66.6667 24.0163 33.1867 43.7359
268 22.2222 66.6667 77.7778 26.9624 34.3651 59.2498
269 22.2222 66.6667 88.8889 30.5142 35.7858 77.9529
270 22.2222 66.6667 100.0000 34.7027 37.4612 100.0095
271 22.2222 77.7778 0.0000 22.6699 41.9868 7.8555
272 22.2222 77.7778 11.1111 22.8814 42.0714 8.9691
273 22.2222 77.7778 22.2222 23.3928 42.2760 11.6624
274 22.2222 77.7778 33.3333 24.2932 42.6361 16.4037
275 22.2222 77.7778 44.4444 25.6393 43.1746 23.4924
276 22.2222 77.7778 55.5556 27.4788 43.9104 33.1789
277 22.2222 77.7778 66.6667 29.8530 44.8601 45.6814
278 22.2222 77.7778 77.7778 32.7991 46.0385 61.1953
279 22.2222 77.7778 88.8889 36.3508 47.4592 79.8985
280 22.2222 77.7778 100.0000 40.5394 49.1346 101.9550
281 22.2222 88.8889 0.0000 29.7064 56.0599 10.2010
282 22.2222 88.8889 11.1111 29.9179 56.1445 11.3147
283 22.2222 88.8889 22.2222 30.4294 56.3491 14.0079
284 22.2222 88.8889 33.3333 31.3297 56.7092 18.7492
285 22.2222 88.8889 44.4444 32.6759 57.2477 25.8379
286 22.2222 88.8889 55.5556 34.5153 57.9835 35.5244
287 22.2222 88.8889 66.6667 36.8896 58.9332 48.0269
288 22.2222 88.8889 77.7778 39.8357 60.1116 63.5408
289 22.2222 88.8889 88.8889 43.3874 61.5323 82.2440
290 22.2222 88.8889 100.0000 47.5759 63.2077 104.3005
291 22.2222 100.0000 0.0000 38.0046 72.6563 12.9671
292 22.2222 100.0000 11.1111 38.2161 72.7409 14.0807
293 22.2222 100.0000 22.2222 38.7275 72.9455 16.7740
294 22.2222 100.0000 33.3333 39.6279 73.3056 21.5153
295 22.2222 100.0000 44.4444 40.9741 73.8441 28.6040
296 22.2222 100.0000 55.5556 42.8135 74.5799 38.2905
297 22.2222 100.0000 66.6667 45.1878 75.5295 50.7930
298 22.2222 100.0000 77.7778 48.1338 76.7080 66.3069
299 22.2222 100.0000 88.8889 51.6856 78.1287 85.0101
300 22.2222 100.0000 100.0000 55.8741 79.8041 107.0666
301 33.3333 0.0000 0.0000 4.6593 2.9120 1.2626
302 33.3333 0.0000 11.1111 4.8708 2.9966 2.3762
303 33.3333 0.0000 22.2222 5.3823 3.2012 5.0694
304 33.3333 0.0000 33.3333 6.2826 3.5613 9.8107
305 33.3333 0.0000 44.4444 7.6288 4.0998 16.8995
306 33.3333 0.0000 55.5556 9.4683 4.8355 26.5860
307 33.3333 0.0000 66.6667 11.8425 5.7852 39.0885
308 33.3333 0.0000 77.7778 14.7886 6.9637 54.6024
309 33.3333 0.0000 88.8889 18.3403 8.3844 73.3055
310 33.3333 0.0000 100.0000 22.5288 10.0598 95.3621
311 33.3333 11.1111 0.0000 5.0783 3.7499 1.4022
312 33.3333 11.1111 11.1111 5.2898 3.8345 2.5159
313 33.3333 11.1111 22.2222 5.8012 4.0391 5.2091
314 33.3333 11.1111 33.3333 6.7016 4.3992 9.9504
315 33.3333 11.1111 44.4444 8.0478 4.9377 17.0391
316 33.3333 11.1111 55.5556 9.8872 5.6735 26.7256
317 33.3333 11.1111 66.6667 12.2615 6.6232 39.2281
318 33.3333 11.1111 77.7778 15.2075 7.8016 54.7420
319 33.3333 11.1111 88.8889 18.7593 9.2223 73.4452
320 33.3333 11.1111 100.0000 22.9478 10.8977 95.5017
321 33.3333 22.2222 0.0000 6.0916 5.7765 1.7400
322 33.3333 22.2222 11.1111 6.3031 5.8610 2.8536
323 33.3333 22.2222 22.2222 6.8145 6.0656 5.5469
324 33.3333 22.2222 33.3333 7.7149 6.4258 10.2881
325 33.3333 22.2222 44.4444 9.0610 6.9642 17.3769
326 33.3333 22.2222 55.5556 10.9005 7.7000 27.0634
327 33.3333 22.2222 66.6667 13.2747 8.6497 39.5659
328 33.3333 22.2222 77.7778 16.2208 9.8281 55.0798
329 33.3333 22.2222 88.8889 19.7725 11.2488 73.7829
330 33.3333 22.2222 100.0000 23.9611 12.9243 95.8395
331 33.3333 33.3333 0.0000 7.8754 9.3440 2.3346
332 33.3333 33.3333 11.1111 8.0868 9.4286 3.4482
333 33.3333 33.3333 22.2222 8.5983 9.6332 6.1415
334 33.3333 33.3333 33.3333 9.4987 9.9933 10.8827
335 33.3333 33.3333 44.4444 10.8448 10.5318 17.9715
336 33.3333 33.3333 55.5556 12.6843 11.2676 27.6580
337 33.3333 33.3333 66.6667 15.0585 12.2173 40.1605
338 33.3333 33.3333 77.7778 18.0046 13.3957 55.6744
339 33.3333 33.3333 88.8889 21.5563 14.8164 74.3775
340 33.3333 33.3333 100.0000 25.7449 16.4918 96.4341
341 33.3333 44.4444 0.0000 10.5423 14.6779 3.2236
342 33.3333 44.4444 11.1111 10.7538 14.7625 4.3372
343 33.3333 44.4444 22.2222 11.2652 14.9671 7.0304
344 33.3333 44.4444 33.3333 12.1656 15.3272 11.7717
345 33.3333 44.4444 44.4444 13.5118 15.8657 18.8605
346 33.3333 44.4444 55.5556 15.3512 16.6015 28.5469
347 33.3333 44.4444 66.6667 17.7255 17.5512 41.0495
348 33.3333 44.4444 77.7778 20.6715 18.7296 56.5634
349 33.3333 44.4444 88.8889 24.2233 20.1503 75.2665
350 33.3333 44.4444 100.0000 28.4118 21.8257 97.3231
351 33.3333 55.5556 0.0000 14.1866 21.9665 4.4383
352 33.3333 55.5556 11.1111 14.3981 22.0511 5.5519
353 33.3333 55.5556 22.2222 14.9095 22.2556 8.2452
354 33.3333 55.5556 33.3333 15.8099 22.6158 12.9865
355 33.3333 55.5556 44.4444 17.1560 23.1542 20.0752
356 33.3333 55.5556 55.5556 18.9955 23.8900 29.7617
357 33.3333 55.5556 66.6667 21.3697 24.8397 42.2642
358 33.3333 55.5556 77.7778 24.3158 26.0182 57.7781
359 33.3333 55.5556 88.8889 27.8676 27.4389 76.4813
360 33.3333 55.5556 100.0000 32.0561 29.1143 98.5378
361 33.3333 66.6667 0.0000 18.8903 31.3739 6.0062
362 33.3333 66.6667 11.1111 19.1018 31.4585 7.1199
363 33.3333 66.6667 22.2222 19.6133 31.6631 9.8131
364 33.3333 66.6667 33.3333 20.5136 32.0233 14.5544
365 33.3333 66.6667 44.4444 21.8598 32.5617 21.6431
366 33.3333 66.6667 55.5556 23.6992 33.2975 31.3296
367 33.3333 66.6667 66.6667 26.0735 34.2472 43.8321
368 33.3333 66.6667 77.7778 29.0196 35.4256 59.3460
369 33.3333 66.6667 88.8889 32.5713 36.8463 78.0492
370 33.3333 66.6667 100.0000 36.7598 38.5217 100.1057
371 33.3333 77.7778 0.0000 24.7270 43.0473 7.9518
372 33.3333 77.7778 11.1111 24.9385 43.1319 9.0654
373 33.3333 77.7778 22.2222 25.4499 43.3365 11.7587
374 33.3333 77.7778 33.3333 26.3503 43.6966 16.5000
375 33.3333 77.7778 44.4444 27.6965 44.2351 23.5887
376 33.3333 77.7778 55.5556 29.5359 44.9709 33.2752
377 33.3333 77.7778 66.6667 31.9101 45.9206 45.7777
378 33.3333 77.7778 77.7778 34.8562 47.0990 61.2916
379 33.3333 77.7778 88.8889 38.4080 48.5197 79.9947
380 33.3333 77.7778 100.0000 42.5965 50.1951 102.0513
381 33.3333 88.8889 0.0000 31.7636 57.1204 10.2973
382 33.3333 88.8889 11.1111 31.9750 57.2050 11.4109
383 33.3333 88.8889 22.2222 32.4865 57.4096 14.1042
384 33.3333 88.8889 33.3333 33.3869 57.7697 18.8455
385 33.3333 88.8889 44.4444 34.7330 58.3082 25.9342
386 33.3333 88.8889 55.5556 36.5725 59.0440 35.6207
387 33.3333 88.8889 66.6667 38.9467 59.9937 48.1232
388 33.3333 88.8889 77.7778 41.8928 61.1721 63.6371
389 33.3333 88.8889 88.8889 45.4445 62.5928 82.3403
390 33.3333 88.8889 100.0000 49.6331 64.2682 104.3968
391 33.3333 100.0000 0.0000 40.0617 73.7168 13.0634
392 33.3333 100.0000 11.1111 40.2732 73.8014 14.1770
393 33.3333 100.0000 22.2222 40.7847 74.0060 16.8702
394 33.3333 100.0000 33.3333 41.6850 74.3661 21.6115
395 33.3333 100.0000 44.4444 43.0312 74.9046 28.7003
396 33.3333 100.0000 55.5556 44.8707 75.6403 38.3868
397 33.3333 100.0000 66.6667 47.2449 76.5900 50.8893
398 33.3333 100.0000 77.7778 50.1910 77.7685 66.4032
399 33.3333 100.0000 88.8889 53.7427 79.1892 85.1063
400 33.3333 100.0000 100.0000 57.9312 80.8646 107.1629
401 44.4444 0.0000 0.0000 7.7350 4.4975 1.4065
402 44.4444 0.0000 11.1111 7.9465 4.5821 2.5201
403 44.4444 0.0000 22.2222 8.4579 4.7867 5.2134
404 44.4444 0.0000 33.3333 9.3583 5.1469 9.9547
405 44.4444 0.0000 44.4444 10.7044 5.6853 17.0434
406 44.4444 0.0000 55.5556 12.5439 6.4211 26.7299
407 44.4444 0.0000 66.6667 14.9181 7.3708 39.2324
408 44.4444 0.0000 77.7778 17.8642 8.5492 54.7463
409 44.4444 0.0000 88.8889 21.4160 9.9699 73.4495
410 44.4444 0.0000 100.0000 25.6045 11.6453 95.5060
411 44.4444 11.1111 0.0000 8.1540 5.3355 1.5462
412 44.4444 11.1111 11.1111 8.3654 5.4201 2.6598
413 44.4444 11.1111 22.2222 8.8769 5.6246 5.3530
414 44.4444 11.1111 33.3333 9.7773 5.9848 10.0943
415 44.4444 11.1111 44.4444 11.1234 6.5233 17.1831
416 44.4444 11.1111 55.5556 12.9629 7.2590 26.8696
417 44.4444 11.1111 66.6667 15.3371 8.2087 39.3721
418 44.4444 11.1111 77.7778 18.2832 9.3872 54.8860
419 44.4444 11.1111 88.8889 21.8349 10.8079 73.5891
420 44.4444 11.1111 100.0000 26.0235 12.4833 95.6457
421 44.4444 22.2222 0.0000 9.1672 7.3620 1.8839
422 44.4444 22.2222 11.1111 9.3787 7.4466 2.9975
423 44.4444 22.2222 22.2222 9.8902 7.6512 5.6908
424 44.4444 22.2222 33.3333 10.7905 8.0113 10.4321
425 44.4444 22.2222 44.4444 12.1367 8.5498 17.5208
426 44.4444 22.2222 55.5556 13.9761 9.2856 27.2073
427 44.4444 22.2222 66.6667 16.3504 10.2353 39.7098
428 44.4444 22.2222 77.7778 19.2965 11.4137 55.2237
429 44.4444 22.2222 88.8889 22.8482 12.8344 73.9269
430 44.4444 22.2222 100.0000 27.0367 14.5098 95.9834
431 44.4444 33.3333 0.0000 10.9510 10.9296 2.4785
432 44.4444 33.3333 11.1111 11.1625 11.0142 3.5921
433 44.4444 33.3333 22.2222 11.6739 11.2187 6.2854
434 44.4444 33.3333 33.3333 12.5743 11.5789 11.0267
435 44.4444 33.3333 44.4444 13.9205 12.1173 18.1154
436 44.4444 33.3333 55.5556 15.7599 12.8531 27.8019
437 44.4444 33.3333 66.6667 18.1341 13.8028 40.3044
438 44.4444 33.3333 77.7778 21.0802 14.9813 55.8183
439 44.4444 33.3333 88.8889 24.6320 16.4019 74.5215
440 44.4444 33.3333 100.0000 28.8205 18.0774 96.5780
441 44.4444 44.4444 0.0000 13.6180 16.2635 3.3675
442 44.4444 44.4444 11.1111 13.8294 16.3480 4.4811
443 44.4444 44.4444 22.2222 14.3409 16.5526 7.1744
444 44.4444 44.4444 33.3333 15.2412 16.9128 11.9157
445 44.4444 44.4444 44.4444 16.5874 17.4512 19.0044
446 44.4444 44.4444 55.5556 18.4269 18.1870 28.6909
447 44.4444 44.4444 66.6667 20.8011 19.1367 41.1934
448 44.4444 44.4444 77.7778 23.7472 20.3151 56.7073
449 44.4444 44.4444 88.8889 27.2989 21.7358 75.4104
450 44.4444 44.4444 100.0000 31.4875 23.4113 97.4670
451 44.4444 55.5556 0.0000 17.2622 23.5520 4.5823
452 44.4444 55.5556 11.1111 17.4737 23.6366 5.6959
453 44.4444 55.5556 22.2222 17.9852 23.8412 8.3891
454 44.4444 55.5556 33.3333 18.8855 24.2013 13.1304
455 44.4444 55.5556 44.4444 20.2317 24.7398 20.2192
456 44.4444 55.5556 55.5556 22.0711 25.4756 29.9056
457 44.4444 55.5556 66.6667 24.4454 26.4253 42.4082
458 44.4444 55.5556 77.7778 27.3915 27.6037 57.9220
459 44.4444 55.5556 88.8889 30.9432 29.0244 76.6252
460 44.4444 55.5556 100.0000 35.1317 30.6998 98.6818
461 44.4444 66.6667 0.0000 21.9660 32.9595 6.1502
462 44.4444 66.6667 11.1111 22.1774 33.0441 7.2638
463 44.4444 66.6667 22.2222 22.6889 33.2487 9.9570
464 44.4444 66.6667 33.3333 23.5893 33.6088 14.6983
465 44.4444 66.6667 44.4444 24.9354 34.1473 21.7871
