demo-projects/old/Demo-Report-Matrix-2026-08-10_232125/runs/run1/verifications/2026-08-09_100000/Demo-Report-Matrix-verify.ti3
CTI3   
KEYWORD "CHROMIQ_VERIFICATION"
CHROMIQ_VERIFICATION "true"

DESCRIPTOR "Argyll Calibration Target chart information 3"
ORIGINATOR "Argyll fakeread"
CREATED "Mon Aug 10 23:19:49 2026"
DEVICE_CLASS "DISPLAY"
COLOR_REP "iRGB_XYZ"

KEYWORD "CHROMIQ_MEASURED"
CHROMIQ_MEASURED "2026-08-09T10:00:00"
TARGET_INSTRUMENT "X-Rite ColorMunki"
NUMBER_OF_FIELDS 7
BEGIN_DATA_FORMAT
SAMPLE_ID RGB_R RGB_G RGB_B XYZ_X XYZ_Y XYZ_Z 
END_DATA_FORMAT

NUMBER_OF_SETS 108
BEGIN_DATA
1 107.7255 98.89800 86.06100 89.62081 96.85667 83.29531 
2 107.7255 98.89800 86.06100 89.00209 95.78119 82.60130 
3 107.7255 98.89800 86.06100 89.89906 97.45955 83.24095 
4 107.7255 98.89800 86.06100 89.48928 96.81576 82.57072 
5 0.00000 0.00000 0.00000 0.000110171 0.000219564 0.0000373209 
6 0.00000 0.00000 0.00000 0.0000584909 0.0000242816 0.000282749 
7 0.00000 0.00000 0.00000 0.0000218241 0.0000113174 1.13930e-06 
8 0.00000 0.00000 0.00000 0.000477856 0.000239689 0.000732881 
9 104.1169 95.58500 83.17800 86.06258 91.74781 75.99608 
10 100.5198 92.28270 80.30440 82.58113 85.97914 71.22138 
11 96.93340 88.99020 77.43930 76.59903 79.35826 64.96922 
12 93.35960 85.70920 74.58410 70.35892 72.66617 61.11748 
13 89.79750 82.43900 71.73840 65.30944 67.81205 55.26692 
14 86.24720 79.17970 68.90220 59.05575 61.18799 50.99989 
15 82.71100 75.93330 66.07710 54.43977 56.00205 47.22336 
16 79.18720 72.69820 63.26200 48.21667 49.51195 41.32096 
17 75.67720 69.47580 60.45790 44.55747 45.98564 38.49145 
18 72.18150 66.26660 57.66520 39.52121 41.11546 33.91084 
19 68.70210 63.07230 54.88550 36.41503 37.30926 31.36080 
20 65.23740 59.89150 52.11760 31.99426 33.43237 27.59848 
21 61.78830 56.72500 49.36210 28.44351 30.04965 24.29854 
22 58.35590 53.57390 46.62000 25.04722 25.86992 21.01599 
23 54.94350 50.44120 43.89390 21.78159 22.40552 18.89041 
24 51.54810 47.32410 41.18140 19.39287 19.68898 17.07996 
25 48.17180 44.22430 38.48400 16.99687 17.71646 14.29563 
26 44.81720 41.14460 35.80400 14.02096 14.25157 12.96070 
27 41.48580 38.08620 33.14260 12.11012 12.51435 10.71747 
28 38.17460 35.04640 30.49740 10.07487 10.27176 9.061407 
29 34.89110 32.03200 27.87420 8.576414 9.051443 7.156090 
30 31.63650 29.04410 25.27420 6.505256 6.746273 5.657724 
31 28.40950 26.08150 22.69610 5.180504 5.313785 4.403496 
32 25.21220 23.14620 20.14180 4.121585 4.271581 3.625116 
33 22.05340 20.24630 17.61830 3.116064 3.158666 2.532759 
34 18.93210 17.38070 15.12470 2.164806 2.263142 1.866580 
35 15.86120 14.56150 12.67140 1.559370 1.597634 1.502552 
36 12.84160 11.78930 10.25900 0.975820 1.028581 0.799054 
37 9.877200 9.067900 7.890800 0.511602 0.527147 0.374713 
38 6.966300 6.395500 5.565300 0.257349 0.298020 0.180078 
39 13.48720 7.243000 87.87860 14.47719 6.084077 72.53957 
40 14.12040 33.26050 58.71290 9.471850 8.770074 31.46988 
41 106.2431 86.41380 25.55240 67.37143 72.08209 15.61098 
42 35.42420 99.17970 70.71770 47.59525 74.99987 56.32124 
43 23.90350 63.49790 70.83070 23.51015 30.66814 49.23316 
44 96.91580 0.00000 55.78150 42.86789 21.66939 28.17374 
45 90.97290 51.64450 40.41540 44.69760 35.28110 17.37010 
46 77.88680 43.57450 85.98420 42.47171 29.12382 70.91350 
47 73.39070 87.22350 46.13200 50.88762 65.49928 27.97034 
48 15.62230 43.82860 30.36260 7.821503 12.58406 8.958531 
49 59.52280 31.92320 38.64740 17.74690 13.11668 13.47779 
50 75.68720 72.14510 86.99820 53.26212 51.65785 77.09303 
51 77.40120 52.93340 67.18190 40.44821 33.60348 44.00170 
52 62.25520 83.01150 71.96500 46.97764 58.58857 53.67361 
53 26.76100 0.00000 31.57930 3.608765 1.718008 7.279813 
54 72.82150 62.82050 38.02550 35.69906 37.28685 16.76427 
55 25.54350 35.64700 87.72790 19.64650 13.96756 74.17883 
56 8.846100 10.36450 54.48830 5.154985 2.438387 25.05261 
57 82.43140 0.00000 27.08370 28.03052 14.42220 6.717551 
58 23.69350 67.58250 33.64940 18.68336 31.97882 14.30240 
59 40.13780 99.22200 86.51960 53.97242 78.80444 80.74200 
60 74.51740 53.51010 49.30020 35.01084 31.47982 24.43188 
61 21.86250 0.00000 11.29470 1.793559 0.913100 0.879056 
62 64.35280 99.02020 35.61310 52.29675 78.01310 22.33903 
63 91.60120 86.98460 86.54090 73.49075 75.56277 79.96875 
64 22.16500 60.63150 55.26660 18.36134 26.75077 29.61831 
65 82.53700 0.00000 12.45260 27.35767 14.16928 2.346561 
66 101.1333 98.89890 72.30410 84.67105 93.87881 60.44943 
67 40.56270 58.86910 75.57140 26.82326 29.96374 54.86913 
68 47.66770 31.86210 18.97140 11.41555 10.14153 3.878179 
69 65.78420 0.00000 56.18210 22.42234 11.04215 28.23535 
70 56.88920 25.21790 87.69530 27.56365 15.38322 71.97410 
71 92.37190 98.98630 81.63290 81.04409 91.37134 73.45988 
72 58.65250 54.52890 58.09720 28.26802 28.14628 33.46122 
73 8.032500 20.46470 27.89300 2.388579 2.765991 6.225654 
74 40.53630 42.42310 25.42630 11.68108 13.73614 6.552683 
75 59.06320 0.00000 35.59640 14.75574 7.438640 10.63000 
76 67.27270 85.42660 86.76060 57.37783 66.64383 80.15707 
77 57.20090 77.58500 54.51760 37.43551 48.60324 32.60273 
78 35.01060 11.53670 26.31310 5.350936 3.039785 5.543896 
79 100.8763 98.83940 46.69830 79.57358 92.38470 32.08762 
80 104.3442 55.45550 22.75010 51.48232 40.81885 8.990822 
81 32.62530 79.42860 62.62700 31.73469 47.84507 42.02207 
82 62.96800 26.70170 23.36330 17.47533 12.04176 5.436825 
83 42.38350 31.61970 45.80530 12.60676 10.58613 18.49461 
84 63.73050 0.00000 27.57280 16.51368 8.433881 6.856054 
85 46.74900 63.49890 25.69600 21.70804 30.41431 9.733321 
86 59.45760 99.07750 57.28900 53.14695 78.46335 40.24349 
87 90.62790 41.74490 47.33260 42.09600 28.97279 21.60323 
88 55.59190 3.135700 0.00000 11.44729 5.950478 0.600359 
89 51.63540 60.55040 57.42370 27.08913 30.89993 32.75723 
90 15.52690 40.47440 49.86120 9.655134 12.01483 22.27724 
91 15.47070 16.59970 0.00000 1.417680 1.697482 0.261218 
92 56.97850 26.88180 47.17740 17.40458 11.68134 19.35391 
93 103.6540 0.00000 87.41630 54.68405 26.84899 72.63207 
94 50.83320 54.05170 87.44360 32.70535 29.40866 75.94198 
95 39.53340 6.899700 14.50670 5.823632 3.121980 1.577544 
96 27.55500 20.13270 24.75280 4.361011 3.673787 4.841692 
97 85.26750 39.05840 57.81320 38.93224 25.90336 32.25291 
98 16.47650 43.75960 44.24620 9.515832 12.99417 17.51111 
99 71.67120 58.49990 13.14650 31.48093 33.10837 5.903396 
100 31.54260 85.21530 85.43830 42.17880 58.58151 76.64109 
101 100.0000 100.0000 100.0000 94.45557 99.44400 108.8318 
102 0.00000 0.00000 0.00000 0.00000 0.00000 0.00000 
103 100.0000 0.00000 0.00000 40.82573 21.17110 2.131264 
104 0.00000 100.0000 0.00000 35.14976 70.05087 11.90746 
105 0.00000 0.00000 100.0000 18.15405 7.390000 94.64759 
106 0.00000 100.0000 100.0000 53.60913 78.52942 105.1828 
107 100.0000 0.00000 100.0000 59.06514 28.60275 96.78281 
108 100.0000 100.0000 0.00000 76.49656 91.75925 14.11764 
END_DATA
