assets/charts/pharmacist/rgb/i1pro/100x150/photocard600/photocard600.ti1
CTI1   

DESCRIPTOR "Argyll Calibration Target chart information 1"
ORIGINATOR "ChromIQ"
APPROX_WHITE_POINT "95.050000 100.000000 108.900000"
COLOR_REP "iRGB"
WHITE_COLOR_PATCHES "2"
BLACK_COLOR_PATCHES "2"
CREATED "Tue Sep 08 07:56:20 2026"

NUMBER_OF_FIELDS 7
BEGIN_DATA_FORMAT
SAMPLE_ID RGB_R RGB_G RGB_B XYZ_X XYZ_Y XYZ_Z
END_DATA_FORMAT

NUMBER_OF_SETS 600
BEGIN_DATA
1 0.0000 0.0000 0.0000 0.9505 1.0000 1.0890
2 100.0000 0.0000 0.0000 41.7781 22.0474 2.9997
3 0.0000 100.0000 0.0000 36.3529 71.8048 12.8898
4 0.0000 0.0000 100.0000 18.8200 8.1478 95.1885
5 0.0000 100.0000 100.0000 54.2224 78.9526 106.9893
6 100.0000 0.0000 100.0000 59.6476 29.1952 97.0992
7 100.0000 100.0000 0.0000 77.1805 92.8522 14.8005
8 100.0000 100.0000 100.0000 95.0500 100.0000 108.9000
9 16.6667 0.0000 0.0000 1.9162 1.4978 1.1342
10 33.3333 0.0000 0.0000 4.6593 2.9120 1.2626
11 50.0000 0.0000 0.0000 9.6893 5.5050 1.4980
12 66.6667 0.0000 0.0000 17.3623 9.4606 1.8571
13 83.3333 0.0000 0.0000 27.9733 14.9308 2.3536
14 0.0000 16.6667 0.0000 1.7879 2.6747 1.3681
15 0.0000 33.3333 0.0000 4.1665 7.4320 2.1610
16 0.0000 50.0000 0.0000 8.5281 16.1551 3.6149
17 0.0000 66.6667 0.0000 15.1815 29.4620 5.8327
18 0.0000 83.3333 0.0000 24.3825 47.8640 8.8997
19 0.0000 0.0000 16.6667 1.3732 1.1691 3.3147
20 0.0000 0.0000 33.3333 2.5738 1.6493 9.6372
21 0.0000 0.0000 50.0000 4.7753 2.5299 21.2302
22 0.0000 0.0000 66.6667 8.1336 3.8733 38.9149
23 0.0000 0.0000 83.3333 12.7779 5.7310 63.3712
24 100.0000 16.6667 0.0000 42.6155 23.7221 3.2788
25 100.0000 33.3333 0.0000 44.9941 28.4794 4.0717
26 100.0000 50.0000 0.0000 49.3557 37.2025 5.5256
27 100.0000 66.6667 0.0000 56.0091 50.5094 7.7434
28 100.0000 83.3333 0.0000 65.2101 68.9114 10.8104
29 100.0000 0.0000 16.6667 42.2008 22.2165 5.2254
30 100.0000 0.0000 33.3333 43.4014 22.6967 11.5479
31 100.0000 0.0000 50.0000 45.6029 23.5773 23.1409
32 100.0000 0.0000 66.6667 48.9612 24.9207 40.8256
33 100.0000 0.0000 83.3333 53.6055 26.7784 65.2819
34 16.6667 100.0000 0.0000 37.3186 72.3026 12.9350
35 33.3333 100.0000 0.0000 40.0617 73.7168 13.0634
36 50.0000 100.0000 0.0000 45.0917 76.3098 13.2988
37 66.6667 100.0000 0.0000 52.7647 80.2654 13.6579
38 83.3333 100.0000 0.0000 63.3757 85.7356 14.1544
39 0.0000 100.0000 16.6667 36.7756 71.9739 15.1155
40 0.0000 100.0000 33.3333 37.9762 72.4541 21.4380
41 0.0000 100.0000 50.0000 40.1777 73.3347 33.0310
42 0.0000 100.0000 66.6667 43.5360 74.6781 50.7157
43 0.0000 100.0000 83.3333 48.1803 76.5358 75.1720
44 0.0000 16.6667 100.0000 19.6574 9.8225 95.4676
45 0.0000 33.3333 100.0000 22.0360 14.5798 96.2605
46 0.0000 50.0000 100.0000 26.3976 23.3029 97.7144
47 0.0000 66.6667 100.0000 33.0510 36.6098 99.9322
48 0.0000 83.3333 100.0000 42.2520 55.0118 102.9992
49 16.6667 0.0000 100.0000 19.7857 8.6456 95.2337
50 33.3333 0.0000 100.0000 22.5288 10.0598 95.3621
51 50.0000 0.0000 100.0000 27.5588 12.6528 95.5975
52 66.6667 0.0000 100.0000 35.2318 16.6084 95.9566
53 83.3333 0.0000 100.0000 45.8428 22.0786 96.4531
54 100.0000 100.0000 16.6667 77.6032 93.0213 17.0262
55 100.0000 100.0000 33.3333 78.8038 93.5015 23.3487
56 100.0000 100.0000 50.0000 81.0053 94.3821 34.9417
57 100.0000 100.0000 66.6667 84.3636 95.7255 52.6264
58 100.0000 100.0000 83.3333 89.0079 97.5832 77.0827
59 16.6667 100.0000 100.0000 55.1881 79.4504 107.0345
60 33.3333 100.0000 100.0000 57.9312 80.8646 107.1629
61 50.0000 100.0000 100.0000 62.9612 83.4576 107.3983
62 66.6667 100.0000 100.0000 70.6342 87.4132 107.7574
63 83.3333 100.0000 100.0000 81.2452 92.8834 108.2539
64 100.0000 16.6667 100.0000 60.4850 30.8699 97.3783
65 100.0000 33.3333 100.0000 62.8636 35.6272 98.1712
66 100.0000 50.0000 100.0000 67.2252 44.3503 99.6251
67 100.0000 66.6667 100.0000 73.8786 57.6572 101.8429
68 100.0000 83.3333 100.0000 83.0796 76.0592 104.9099
69 0.0000 16.6667 16.6667 2.2105 2.8438 3.5938
70 0.0000 16.6667 33.3333 3.4111 3.3240 9.9163
71 0.0000 16.6667 50.0000 5.6127 4.2046 21.5093
72 0.0000 16.6667 66.6667 8.9710 5.5480 39.1940
73 0.0000 16.6667 83.3333 13.6152 7.4057 63.6503
74 0.0000 33.3333 16.6667 4.5892 7.6011 4.3867
75 0.0000 33.3333 33.3333 5.7898 8.0813 10.7092
76 0.0000 33.3333 50.0000 7.9913 8.9620 22.3022
77 0.0000 33.3333 66.6667 11.3497 10.3053 39.9869
78 0.0000 33.3333 83.3333 15.9939 12.1630 64.4432
79 0.0000 50.0000 16.6667 8.9507 16.3242 5.8405
80 0.0000 50.0000 33.3333 10.1514 16.8045 12.1630
81 0.0000 50.0000 50.0000 12.3529 17.6851 23.7560
82 0.0000 50.0000 66.6667 15.7112 19.0284 41.4408
83 0.0000 50.0000 83.3333 20.3555 20.8861 65.8970
84 0.0000 66.6667 16.6667 15.6041 29.6310 8.0583
85 0.0000 66.6667 33.3333 16.8048 30.1113 14.3808
86 0.0000 66.6667 50.0000 19.0063 30.9919 25.9738
87 0.0000 66.6667 66.6667 22.3646 32.3352 43.6586
88 0.0000 66.6667 83.3333 27.0089 34.1929 68.1148
89 0.0000 83.3333 16.6667 24.8051 48.0330 11.1253
90 0.0000 83.3333 33.3333 26.0058 48.5133 17.4478
91 0.0000 83.3333 50.0000 28.2073 49.3939 29.0408
92 0.0000 83.3333 66.6667 31.5656 50.7372 46.7256
93 0.0000 83.3333 83.3333 36.2099 52.5949 71.1818
94 100.0000 16.6667 16.6667 43.0381 23.8912 5.5045
95 100.0000 16.6667 33.3333 44.2387 24.3714 11.8270
96 100.0000 16.6667 50.0000 46.4403 25.2520 23.4200
97 100.0000 16.6667 66.6667 49.7986 26.5954 41.1047
98 100.0000 16.6667 83.3333 54.4428 28.4531 65.5610
99 100.0000 33.3333 16.6667 45.4168 28.6485 6.2974
100 100.0000 33.3333 33.3333 46.6174 29.1287 12.6199
101 100.0000 33.3333 50.0000 48.8189 30.0094 24.2129
102 100.0000 33.3333 66.6667 52.1773 31.3527 41.8976
103 100.0000 33.3333 83.3333 56.8215 33.2104 66.3539
104 100.0000 50.0000 16.6667 49.7783 37.3716 7.7512
105 100.0000 50.0000 33.3333 50.9790 37.8519 14.0737
106 100.0000 50.0000 50.0000 53.1805 38.7325 25.6667
107 100.0000 50.0000 66.6667 56.5388 40.0758 43.3515
108 100.0000 50.0000 83.3333 61.1831 41.9335 67.8077
109 100.0000 66.6667 16.6667 56.4317 50.6784 9.9690
110 100.0000 66.6667 33.3333 57.6324 51.1587 16.2915
111 100.0000 66.6667 50.0000 59.8339 52.0393 27.8845
112 100.0000 66.6667 66.6667 63.1922 53.3826 45.5693
113 100.0000 66.6667 83.3333 67.8365 55.2403 70.0255
114 100.0000 83.3333 16.6667 65.6327 69.0804 13.0360
115 100.0000 83.3333 33.3333 66.8334 69.5607 19.3585
116 100.0000 83.3333 50.0000 69.0349 70.4413 30.9515
117 100.0000 83.3333 66.6667 72.3932 71.7846 48.6363
118 100.0000 83.3333 83.3333 77.0375 73.6423 73.0925
119 16.6667 0.0000 16.6667 2.3388 1.6669 3.3599
120 16.6667 0.0000 33.3333 3.5395 2.1471 9.6824
121 16.6667 0.0000 50.0000 5.7410 3.0277 21.2754
122 16.6667 0.0000 66.6667 9.0993 4.3711 38.9601
123 16.6667 0.0000 83.3333 13.7436 6.2288 63.4164
124 33.3333 0.0000 16.6667 5.0820 3.0810 3.4882
125 33.3333 0.0000 33.3333 6.2826 3.5613 9.8107
126 33.3333 0.0000 50.0000 8.4842 4.4419 21.4037
127 33.3333 0.0000 66.6667 11.8425 5.7852 39.0885
128 33.3333 0.0000 83.3333 16.4867 7.6429 63.5447
129 50.0000 0.0000 16.6667 10.1119 5.6741 3.7236
130 50.0000 0.0000 33.3333 11.3126 6.1543 10.0461
131 50.0000 0.0000 50.0000 13.5141 7.0349 21.6391
132 50.0000 0.0000 66.6667 16.8724 8.3783 39.3239
133 50.0000 0.0000 83.3333 21.5167 10.2360 63.7801
134 66.6667 0.0000 16.6667 17.7849 9.6296 4.0827
135 66.6667 0.0000 33.3333 18.9856 10.1099 10.4052
136 66.6667 0.0000 50.0000 21.1871 10.9905 21.9982
137 66.6667 0.0000 66.6667 24.5454 12.3338 39.6830
138 66.6667 0.0000 83.3333 29.1897 14.1915 64.1392
139 83.3333 0.0000 16.6667 28.3960 15.0998 4.5793
140 83.3333 0.0000 33.3333 29.5966 15.5801 10.9018
141 83.3333 0.0000 50.0000 31.7981 16.4607 22.4948
142 83.3333 0.0000 66.6667 35.1564 17.8040 40.1796
143 83.3333 0.0000 83.3333 39.8007 19.6617 64.6358
144 16.6667 100.0000 16.6667 37.7412 72.4717 15.1607
145 16.6667 100.0000 33.3333 38.9419 72.9519 21.4832
146 16.6667 100.0000 50.0000 41.1434 73.8325 33.0762
147 16.6667 100.0000 66.6667 44.5017 75.1759 50.7609
148 16.6667 100.0000 83.3333 49.1460 77.0336 75.2172
149 33.3333 100.0000 16.6667 40.4844 73.8858 15.2890
150 33.3333 100.0000 33.3333 41.6850 74.3661 21.6115
151 33.3333 100.0000 50.0000 43.8866 75.2467 33.2045
152 33.3333 100.0000 66.6667 47.2449 76.5900 50.8893
153 33.3333 100.0000 83.3333 51.8891 78.4477 75.3455
154 50.0000 100.0000 16.6667 45.5143 76.4789 15.5244
155 50.0000 100.0000 33.3333 46.7150 76.9591 21.8469
156 50.0000 100.0000 50.0000 48.9165 77.8397 33.4399
157 50.0000 100.0000 66.6667 52.2748 79.1831 51.1247
158 50.0000 100.0000 83.3333 56.9191 81.0408 75.5809
159 66.6667 100.0000 16.6667 53.1873 80.4344 15.8835
160 66.6667 100.0000 33.3333 54.3880 80.9147 22.2060
161 66.6667 100.0000 50.0000 56.5895 81.7953 33.7990
162 66.6667 100.0000 66.6667 59.9478 83.1386 51.4838
163 66.6667 100.0000 83.3333 64.5921 84.9963 75.9400
164 83.3333 100.0000 16.6667 63.7984 85.9046 16.3801
165 83.3333 100.0000 33.3333 64.9990 86.3849 22.7026
166 83.3333 100.0000 50.0000 67.2005 87.2655 34.2956
167 83.3333 100.0000 66.6667 70.5588 88.6088 51.9804
168 83.3333 100.0000 83.3333 75.2031 90.4665 76.4366
169 16.6667 16.6667 0.0000 2.7535 3.1725 1.4133
170 16.6667 33.3333 0.0000 5.1322 7.9299 2.2062
171 16.6667 50.0000 0.0000 9.4937 16.6530 3.6600
172 16.6667 66.6667 0.0000 16.1471 29.9598 5.8779
173 16.6667 83.3333 0.0000 25.3482 48.3618 8.9449
174 33.3333 16.6667 0.0000 5.4967 4.5867 1.5417
175 33.3333 33.3333 0.0000 7.8754 9.3440 2.3346
176 33.3333 50.0000 0.0000 12.2369 18.0671 3.7884
177 33.3333 66.6667 0.0000 18.8903 31.3739 6.0062
178 33.3333 83.3333 0.0000 28.0913 49.7760 9.0732
179 50.0000 16.6667 0.0000 10.5266 7.1797 1.7771
180 50.0000 33.3333 0.0000 12.9053 11.9370 2.5700
181 50.0000 50.0000 0.0000 17.2669 20.6601 4.0238
182 50.0000 66.6667 0.0000 23.9203 33.9670 6.2416
183 50.0000 83.3333 0.0000 33.1213 52.3690 9.3086
184 66.6667 16.6667 0.0000 18.1996 11.1353 2.1362
185 66.6667 33.3333 0.0000 20.5783 15.8926 2.9291
186 66.6667 50.0000 0.0000 24.9399 24.6157 4.3829
187 66.6667 66.6667 0.0000 31.5933 37.9225 6.6007
188 66.6667 83.3333 0.0000 40.7943 56.3246 9.6677
189 83.3333 16.6667 0.0000 28.8106 16.6055 2.6328
190 83.3333 33.3333 0.0000 31.1893 21.3628 3.4257
191 83.3333 50.0000 0.0000 35.5509 30.0859 4.8795
192 83.3333 66.6667 0.0000 42.2043 43.3927 7.0973
193 83.3333 83.3333 0.0000 51.4053 61.7947 10.1643
194 16.6667 16.6667 100.0000 20.6230 10.3203 95.5128
195 16.6667 33.3333 100.0000 23.0017 15.0777 96.3057
196 16.6667 50.0000 100.0000 27.3632 23.8008 97.7595
197 16.6667 66.6667 100.0000 34.0166 37.1076 99.9774
198 16.6667 83.3333 100.0000 43.2177 55.5096 103.0444
199 33.3333 16.6667 100.0000 23.3662 11.7345 95.6412
200 33.3333 33.3333 100.0000 25.7449 16.4918 96.4341
201 33.3333 50.0000 100.0000 30.1064 25.2149 97.8879
202 33.3333 66.6667 100.0000 36.7598 38.5217 100.1057
203 33.3333 83.3333 100.0000 45.9608 56.9238 103.1727
204 50.0000 16.6667 100.0000 28.3961 14.3275 95.8766
205 50.0000 33.3333 100.0000 30.7748 19.0848 96.6695
206 50.0000 50.0000 100.0000 35.1364 27.8079 98.1233
207 50.0000 66.6667 100.0000 41.7898 41.1148 100.3411
208 50.0000 83.3333 100.0000 50.9908 59.5168 103.4081
209 66.6667 16.6667 100.0000 36.0691 18.2831 96.2357
210 66.6667 33.3333 100.0000 38.4478 23.0404 97.0286
211 66.6667 50.0000 100.0000 42.8094 31.7635 98.4824
212 66.6667 66.6667 100.0000 49.4628 45.0703 100.7002
213 66.6667 83.3333 100.0000 58.6638 63.4724 103.7672
214 83.3333 16.6667 100.0000 46.6801 23.7533 96.7323
215 83.3333 33.3333 100.0000 49.0588 28.5106 97.5252
216 83.3333 50.0000 100.0000 53.4204 37.2337 98.9790
217 83.3333 66.6667 100.0000 60.0738 50.5405 101.1968
218 83.3333 83.3333 100.0000 69.2748 68.9425 104.2638
219 8.3333 0.0000 0.0000 1.2619 1.1606 1.1036
220 0.0000 8.3333 0.0000 1.2206 1.5401 1.1790
221 0.0000 0.0000 8.3333 1.0868 1.0545 1.8068
222 91.6667 0.0000 0.0000 34.4617 18.2756 2.6573
223 100.0000 8.3333 0.0000 42.0482 22.5875 3.0897
224 100.0000 0.0000 8.3333 41.9144 22.1019 3.7175
225 8.3333 100.0000 0.0000 36.6643 71.9654 12.9044
226 0.0000 91.6667 0.0000 30.0087 59.1163 10.7751
227 0.0000 100.0000 8.3333 36.4892 71.8593 13.6076
228 8.3333 0.0000 100.0000 19.1314 8.3084 95.2031
229 0.0000 8.3333 100.0000 19.0901 8.6879 95.2785
230 0.0000 0.0000 91.6667 15.6177 6.8669 78.3256
231 8.3333 100.0000 100.0000 54.5338 79.1132 107.0039
232 0.0000 91.6667 100.0000 47.8782 66.2641 104.8746
233 0.0000 100.0000 91.6667 51.0201 77.6717 90.1264
234 91.6667 0.0000 100.0000 52.3312 25.4234 96.7568
235 100.0000 8.3333 100.0000 59.9177 29.7353 97.1892
236 100.0000 0.0000 91.6667 56.4453 27.9143 80.2363
237 91.6667 100.0000 0.0000 69.8641 89.0804 14.4581
238 100.0000 91.6667 0.0000 70.8363 80.1637 12.6858
239 100.0000 100.0000 8.3333 77.3168 92.9067 15.5183
240 91.6667 100.0000 100.0000 87.7336 96.2282 108.5576
241 100.0000 91.6667 100.0000 88.7058 87.3115 106.7853
242 100.0000 100.0000 91.6667 91.8477 98.7191 92.0371
243 0.0000 0.0000 2.0000 0.9782 1.0111 1.2347
244 5.0000 5.0000 5.0000 1.3209 1.3897 1.5133
245 10.0000 10.0000 10.0000 1.8936 1.9923 2.1696
246 15.0000 15.0000 15.0000 2.7955 2.9411 3.2028
247 20.0000 20.0000 20.0000 4.0656 4.2774 4.6581
248 25.0000 25.0000 25.0000 5.7379 6.0367 6.5740
249 30.0000 30.0000 30.0000 7.8422 8.2507 8.9850
250 35.0000 35.0000 35.0000 10.4058 10.9477 11.9220
251 40.0000 40.0000 40.0000 13.4533 14.1540 15.4137
252 45.0000 45.0000 45.0000 17.0081 17.8938 19.4864
253 50.0000 50.0000 50.0000 21.0917 22.1901 24.1650
254 55.0000 55.0000 55.0000 25.7244 27.0641 29.4728
255 60.0000 60.0000 60.0000 30.9256 32.5361 35.4318
256 65.0000 65.0000 65.0000 36.7136 38.6256 42.0633
257 70.0000 70.0000 70.0000 43.1060 45.3509 49.3871
258 75.0000 75.0000 75.0000 50.1195 52.7296 57.4226
259 80.0000 80.0000 80.0000 57.7704 60.7789 66.1882
260 85.0000 85.0000 85.0000 66.0740 69.5150 75.7019
261 90.0000 90.0000 90.0000 75.0456 78.9538 85.9807
262 95.0000 95.0000 95.0000 84.6996 89.1105 97.0414
263 98.0000 100.0000 100.0000 93.2170 99.0551 108.8142
264 4.6667 0.0000 0.0000 1.0992 1.0767 1.0960
265 2.3333 2.3333 0.0000 1.0882 1.1659 1.1138
266 0.0000 4.6667 0.0000 1.0795 1.2579 1.1320
267 0.0000 2.3333 2.3333 1.0467 1.1408 1.2803
268 0.0000 0.0000 4.6667 1.0156 1.0260 1.4318
269 2.3333 0.0000 2.3333 1.0565 1.0509 1.2624
270 9.6667 2.6667 2.6667 1.4489 1.3611 1.3258
271 7.3333 7.3333 0.3333 1.4408 1.5870 1.2006
272 2.6667 9.6667 2.6667 1.4084 1.7318 1.3994
273 0.3333 7.3333 7.3333 1.3004 1.5021 1.7642
274 2.6667 2.6667 9.6667 1.2778 1.2576 2.0125
275 7.3333 0.3333 7.3333 1.3336 1.1979 1.7037
276 14.6667 7.6667 7.6667 2.0810 1.9249 1.8425
277 12.3333 12.3333 5.3333 2.0961 2.3193 1.6806
278 7.6667 14.6667 7.6667 2.0155 2.5257 1.9620
279 5.3333 12.3333 12.3333 1.8713 2.1832 2.5832
280 7.6667 7.6667 14.6667 1.8038 1.7571 2.9557
281 12.3333 5.3333 12.3333 1.9244 1.6961 2.4864
282 19.6667 12.6667 12.6667 3.0416 2.8187 2.7039
283 17.3333 17.3333 10.3333 3.0749 3.4080 2.4298
284 12.6667 19.6667 12.6667 2.9472 3.6848 2.8761
285 10.3333 17.3333 17.3333 2.7340 3.2017 3.7986
286 12.6667 12.6667 19.6667 2.6420 2.5768 4.3085
287 17.3333 10.3333 17.3333 2.8146 2.4629 3.6517
288 24.6667 17.6667 17.6667 4.3743 4.0927 3.9683
289 22.3333 22.3333 15.3333 4.4284 4.8975 3.5669
290 17.6667 24.6667 17.6667 4.2482 5.2499 4.1983
291 15.3333 22.3333 22.3333 3.9585 4.6130 5.4536
292 17.6667 17.6667 24.6667 3.8404 3.7694 6.1123
293 22.3333 15.3333 22.3333 4.0696 3.5947 5.2511
294 29.6667 22.6667 22.6667 6.1127 5.7833 5.6768
295 27.3333 27.3333 20.3333 6.1897 6.8216 5.1354
296 22.6667 29.6667 22.6667 5.9523 7.2546 5.9692
297 20.3333 27.3333 27.3333 5.5797 6.4523 7.5848
298 22.6667 22.6667 29.6667 5.4339 5.3723 8.4028
299 27.3333 20.3333 27.3333 5.7238 5.1303 7.3220
300 34.6667 27.6667 27.6667 8.2865 7.9230 7.8656
301 32.3333 32.3333 25.3333 8.3882 9.2109 7.1729
302 27.6667 34.6667 27.6667 8.0896 9.7289 8.2245
303 25.3333 32.3333 32.3333 7.6281 8.7507 10.2251
304 27.6667 27.6667 34.6667 7.4533 7.4185 11.2116
305 32.3333 25.3333 32.3333 7.8078 7.1033 9.8976
306 39.6667 32.6667 32.6667 10.9226 10.5407 10.5670
307 37.3333 37.3333 30.3333 11.0508 12.0928 9.7131
308 32.6667 39.6667 32.6667 10.6872 12.7002 10.9962
309 30.3333 37.3333 37.3333 10.1316 11.5363 13.4043
310 32.6667 32.6667 39.6667 9.9262 9.9374 14.5680
311 37.3333 30.3333 37.3333 10.3488 9.5441 13.0083
312 44.6667 37.6667 37.6667 14.0457 13.6631 13.8107
313 42.3333 42.3333 35.3333 14.2019 15.4931 12.7863
314 37.6667 44.6667 37.6667 13.7698 16.1936 14.3136
315 35.3333 42.3333 42.3333 13.1152 14.8352 17.1500
316 37.6667 37.6667 44.6667 12.8782 12.9562 18.4990
317 42.3333 35.3333 42.3333 13.3720 12.4799 16.6818
318 49.6667 42.6667 42.6667 17.6788 17.3149 17.6239
319 47.3333 47.3333 40.3333 17.8645 19.4353 16.4205
320 42.6667 49.6667 42.6667 17.3606 20.2326 18.2039
321 40.3333 47.3333 47.3333 16.6025 18.6713 21.4879
322 42.6667 42.6667 49.6667 16.3325 16.4998 23.0297
323 47.3333 40.3333 47.3333 16.9007 15.9362 20.9442
324 54.6667 47.6667 47.6667 21.8433 21.5190 22.0322
325 52.3333 52.3333 45.3333 22.0598 23.9417 20.6419
326 47.6667 54.6667 47.6667 21.4813 24.8393 22.6922
327 45.3333 52.3333 52.3333 20.6153 23.0672 26.4421
328 47.6667 47.6667 54.6667 20.3113 20.5915 28.1839
329 52.3333 45.3333 52.3333 20.9567 19.9367 25.8198
330 59.6667 52.6667 52.6667 26.5595 26.2972 27.0596
331 57.3333 57.3333 50.3333 26.8081 29.0334 25.4748
332 52.6667 59.6667 52.6667 26.1520 30.0346 27.8024
333 50.3333 57.3333 57.3333 25.1743 28.0442 32.0353
334 52.6667 52.6667 59.6667 24.8351 25.2532 33.9840
335 57.3333 50.3333 57.3333 25.5604 24.5033 31.3315
336 64.6667 57.6667 57.6667 31.8466 31.6700 32.7286
337 62.3333 62.3333 55.3333 32.1284 34.7303 30.9423
338 57.6667 64.6667 57.6667 31.3921 35.8381 33.5571
339 55.3333 62.3333 62.3333 30.2988 33.6225 38.2893
340 57.6667 57.6667 64.6667 29.9234 30.5056 40.4512
341 62.3333 55.3333 62.3333 30.7311 29.6571 37.5011
342 69.6667 62.6667 62.6667 37.7228 37.6567 39.0607
343 67.3333 67.3333 60.3333 38.0391 41.0513 37.0662
344 62.6667 69.6667 62.6667 37.2199 42.2689 39.9775
345 60.3333 67.3333 67.3333 36.0074 39.8212 45.2246
346 62.6667 62.6667 69.6667 35.5947 36.3684 47.6059
347 67.3333 60.3333 67.3333 36.4875 35.4179 44.3494
348 74.6667 67.6667 67.6667 44.2056 44.2762 46.0765
349 72.3333 72.3333 65.3333 44.5574 48.0146 43.8674
350 67.6667 74.6667 67.6667 43.6529 49.3449 47.0840
351 65.3333 72.3333 72.3333 42.3177 46.6586 52.8609
352 67.6667 67.6667 74.6667 41.8669 42.8603 55.4676
353 72.3333 65.3333 72.3333 42.8470 41.8045 51.8960
354 79.6667 72.6667 72.6667 51.3117 51.5461 53.7956
355 77.3333 77.3333 70.3333 51.7001 55.6377 51.3657
356 72.6667 79.6667 72.6667 50.7080 57.0834 54.8962
357 70.3333 77.3333 77.3333 49.2467 54.1524 61.2171
358 72.6667 72.6667 79.6667 48.7568 49.9992 64.0549
359 77.3333 70.3333 77.3333 49.8265 48.8352 60.1602
360 84.6667 77.6667 77.6667 59.0573 59.4835 62.2367
361 82.3333 82.3333 75.3333 59.4831 63.9373 59.5801
362 77.6667 84.6667 77.6667 58.4011 65.5011 63.4327
363 75.3333 82.3333 82.3333 56.8107 62.3193 70.3114
364 77.6667 77.6667 84.6667 56.2808 57.8025 73.3858
365 82.3333 75.3333 82.3333 57.4422 56.5273 69.1601
366 89.6667 82.6667 82.6667 67.4576 68.1050 71.4179
367 87.3333 87.3333 80.3333 67.9220 72.9295 68.5291
368 82.6667 89.6667 82.6667 66.7479 74.6140 72.7117
369 80.3333 87.3333 87.3333 65.0252 71.1757 80.1613
370 82.6667 82.6667 89.6667 64.4544 66.2867 83.4776
371 87.3333 80.3333 87.3333 65.7097 64.8974 78.9134
372 94.6667 87.6667 87.6667 76.5279 77.4264 81.3569
373 92.3333 92.3333 85.3333 77.0317 82.6300 78.2303
374 87.6667 94.6667 87.6667 75.7634 84.4378 82.7505
375 85.3333 92.3333 92.3333 73.9054 80.7373 90.7839
376 87.6667 87.6667 94.6667 73.2928 75.4678 94.3472
377 92.3333 85.3333 92.3333 74.6442 73.9617 89.4371
378 99.6667 92.6667 92.6667 86.2824 87.4632 92.0703
379 97.3333 97.3333 90.3333 86.8265 93.0539 88.7007
380 92.6667 99.6667 92.6667 85.4620 94.9873 93.5659
381 90.3333 97.3333 97.3333 83.4658 91.0193 102.1954
382 92.6667 92.6667 99.6667 82.8107 85.3613 106.0109
383 97.3333 90.3333 97.3333 84.2600 83.7357 100.7477
384 100.0000 97.6667 97.6667 92.2659 95.9261 103.3655
385 100.0000 100.0000 95.3333 93.2113 99.2645 99.2178
386 97.6667 100.0000 97.6667 91.9824 98.5265 103.8824
387 95.3333 100.0000 100.0000 90.8491 97.8344 108.7034
388 97.6667 97.6667 100.0000 91.0661 95.1997 108.1834
389 100.0000 95.3333 100.0000 91.4073 92.7146 107.6858
390 100.0000 100.0000 100.0000 95.0500 100.0000 108.9000
391 0.0000 0.0000 0.0000 0.9505 1.0000 1.0890
392 75.5955 52.9712 28.0204 32.3928 29.8260 10.9730
393 59.3037 27.5389 64.2407 22.4260 14.5460 37.2553
394 40.0906 75.8782 68.7601 33.0812 44.8604 48.1860
395 51.9898 21.8482 22.3201 12.5755 8.9666 5.8354
396 82.6455 42.6084 83.2562 44.6538 30.1488 66.2751
397 18.4373 68.9220 18.0887 17.9242 32.4386 8.8345
398 44.6290 48.6047 72.7968 23.6593 22.2796 49.7865
399 30.3666 79.1843 21.7788 25.6015 44.6396 11.8584
400 73.3623 44.6755 59.9576 32.8889 25.6387 33.9507
401 13.0036 56.3477 71.2747 19.7366 24.3093 48.2777
402 81.1286 58.4565 46.1118 40.2545 36.7005 22.7488
403 12.5202 59.4177 54.9132 17.2645 25.2546 29.4846
404 51.8603 81.6041 52.3565 36.9872 52.2708 31.2374
405 50.7002 79.5937 23.9575 31.9265 48.2450 12.9592
406 21.0586 29.7921 55.8721 9.8662 8.8289 27.6506
407 29.4272 74.6760 55.5152 26.9478 41.0436 32.6136
408 76.5007 59.5106 12.1622 34.5719 34.7465 7.1150
409 72.7280 16.6644 68.7054 29.3842 16.0137 42.7416
410 43.1169 14.3879 37.3864 10.0157 6.3934 12.4497
411 84.3569 68.4219 27.9173 44.9345 45.9236 13.3751
412 39.4897 13.4866 75.6097 16.3156 8.6798 51.5961
413 78.3426 23.8037 30.7318 27.4826 16.9479 9.9728
414 36.1162 54.5266 65.0091 21.2695 24.2677 40.1169
415 60.4700 49.6150 13.9001 21.9400 22.8474 5.8084
416 38.4198 80.7456 50.6252 31.6901 48.7948 29.2879
417 10.9970 24.6384 75.4011 12.6253 8.5253 51.4537
418 22.1046 84.6328 66.5243 33.9977 53.2287 46.9003
419 61.1849 37.3482 54.9124 23.2886 18.0198 27.7698
420 85.6003 43.7474 38.1753 37.4980 28.0358 15.6615
421 26.4537 21.4127 79.1067 15.1286 9.0738 57.0478
422 61.5388 12.1418 37.8236 17.2963 9.9014 13.0092
423 71.2139 77.8809 43.6545 42.9398 52.1948 23.7374
424 86.9152 28.9907 57.6993 38.3061 23.2456 30.7960
425 31.3263 33.6714 69.9748 15.4984 12.4502 44.4581
426 16.7127 80.5944 11.2246 23.8713 45.0570 9.5115
427 56.2116 67.0806 35.5419 28.5046 36.4081 16.1875
428 59.4090 74.5166 86.7413 44.8549 49.2047 75.9336
429 37.1287 50.1944 24.4724 14.1029 19.0231 8.4443
430 71.4319 87.0673 58.7560 51.3864 64.7699 39.2333
431 75.2525 17.9732 84.7656 35.6957 18.9183 67.1347
432 52.9691 63.4916 15.9610 24.0190 31.8103 7.8700
433 56.9297 57.8322 79.2791 33.5158 32.0085 60.7756
434 41.6652 10.6253 23.7743 8.0780 5.1584 5.8344
435 41.0294 26.1342 7.7567 8.7636 7.9322 2.6603
436 18.9786 59.7426 87.3609 26.5025 29.2363 74.1457
437 86.0053 73.3072 15.6402 47.9211 51.2658 10.2927
438 79.9933 86.8573 30.6928 52.6947 65.7052 18.0365
439 14.3600 81.9166 46.5332 27.5137 47.7831 25.8913
440 58.0712 31.5159 10.5051 16.1157 13.0509 3.6296
441 67.8498 29.5464 84.9269 32.8725 19.7626 67.7231
442 72.2579 39.3829 26.4672 26.1510 20.6314 8.8840
443 81.8488 20.3715 19.8573 28.6992 17.0388 5.7814
444 28.7426 41.4653 12.8815 9.0381 12.6729 4.3292
445 13.0020 74.2217 62.4618 25.8679 39.9548 39.8928
446 60.6838 54.9176 31.4907 25.0189 27.0318 12.4165
447 7.9920 93.2301 23.4886 32.2415 61.8590 15.4047
448 22.1354 48.0282 28.8278 10.7447 16.2230 9.8397
449 46.8640 14.8402 58.1019 14.5363 8.4022 29.6042
450 14.8895 16.5435 68.8307 10.2779 6.1442 42.0069
451 12.2254 12.1613 39.7971 4.3495 3.2014 13.6467
452 54.2730 41.7140 86.1779 29.2891 21.7662 70.4674
453 29.5947 21.6407 62.2497 11.3934 7.6911 34.1846
454 43.0928 37.8622 67.1317 18.7882 15.5741 41.1968
