assets/charts/pharmacist/rgb/i1pro/100x150/photocard600/photocard600.ti2
CTI2   

DESCRIPTOR "Argyll Calibration Target chart information 2"
ORIGINATOR "Argyll printtarg"
CREATED "Tue Sep  8 08:06:37 2026"
TARGET_INSTRUMENT "GretagMacbeth i1 Pro"
APPROX_WHITE_POINT "95.050000 100.000000 108.900000"
COLOR_REP "iRGB"
PAPER_SIZE "100.0x150.0"
RANDOM_START "397"
STEPS_IN_PASS "15"
PASSES_IN_STRIPS2 "10,10,10,10"
STRIP_INDEX_PATTERN "A-Z, A-Z"
PATCH_INDEX_PATTERN "0-9,@-9,@-9;1-999"
INDEX_ORDER "STRIP_THEN_PATCH"

NUMBER_OF_FIELDS 8
BEGIN_DATA_FORMAT
SAMPLE_ID SAMPLE_LOC RGB_R RGB_G RGB_B XYZ_X XYZ_Y XYZ_Z 
END_DATA_FORMAT

NUMBER_OF_SETS 600
BEGIN_DATA
1 "M1" 0.00000 0.00000 0.00000 0.950500 1.000000 1.089000 
2 "O15" 100.0000 0.00000 0.00000 41.77810 22.04740 2.999700 
3 "J15" 0.00000 100.0000 0.00000 36.35290 71.80480 12.88980 
4 "E12" 0.00000 0.00000 100.0000 18.82000 8.147800 95.18850 
5 "AN8" 0.00000 100.0000 100.0000 54.22240 78.95260 106.9893 
6 "E8" 100.0000 0.00000 100.0000 59.64760 29.19520 97.09920 
7 "E6" 100.0000 100.0000 0.00000 77.18050 92.85220 14.80050 
8 "I10" 100.0000 100.0000 100.0000 95.05000 100.0000 108.9000 
9 "C1" 16.66743 0.00000 0.00000 1.916200 1.497800 1.134200 
10 "A7" 33.33333 0.00000 0.00000 4.659300 2.912000 1.262600 
11 "AB2" 50.00076 0.00000 0.00000 9.689300 5.505000 1.498000 
12 "T4" 66.66667 0.00000 0.00000 17.36230 9.460600 1.857100 
13 "Y8" 83.33257 0.00000 0.00000 27.97330 14.93080 2.353600 
14 "W12" 0.00000 16.66743 0.00000 1.787900 2.674700 1.368100 
15 "AI5" 0.00000 33.33333 0.00000 4.166500 7.432000 2.161000 
16 "A6" 0.00000 50.00076 0.00000 8.528100 16.15510 3.614900 
17 "AI8" 0.00000 66.66667 0.00000 15.18150 29.46200 5.832700 
18 "R13" 0.00000 83.33257 0.00000 24.38250 47.86400 8.899700 
19 "D15" 0.00000 0.00000 16.66743 1.373200 1.169100 3.314700 
20 "M2" 0.00000 0.00000 33.33333 2.573800 1.649300 9.637200 
21 "AD13" 0.00000 0.00000 50.00076 4.775300 2.529900 21.23020 
22 "F3" 0.00000 0.00000 66.66667 8.133600 3.873300 38.91490 
23 "AN15" 0.00000 0.00000 83.33257 12.77790 5.731000 63.37120 
24 "Q15" 100.0000 16.66743 0.00000 42.61550 23.72210 3.278800 
25 "Q2" 100.0000 33.33333 0.00000 44.99410 28.47940 4.071700 
26 "AN4" 100.0000 50.00076 0.00000 49.35570 37.20250 5.525600 
27 "AK13" 100.0000 66.66667 0.00000 56.00910 50.50940 7.743400 
28 "AN6" 100.0000 83.33257 0.00000 65.21010 68.91140 10.81040 
29 "F7" 100.0000 0.00000 16.66743 42.20080 22.21650 5.225400 
30 "AI12" 100.0000 0.00000 33.33333 43.40140 22.69670 11.54790 
31 "I11" 100.0000 0.00000 50.00076 45.60290 23.57730 23.14090 
32 "P11" 100.0000 0.00000 66.66667 48.96120 24.92070 40.82560 
33 "C15" 100.0000 0.00000 83.33257 53.60550 26.77840 65.28190 
34 "AJ7" 16.66743 100.0000 0.00000 37.31860 72.30260 12.93500 
35 "A13" 33.33333 100.0000 0.00000 40.06170 73.71680 13.06340 
36 "P8" 50.00076 100.0000 0.00000 45.09170 76.30980 13.29880 
37 "I9" 66.66667 100.0000 0.00000 52.76470 80.26540 13.65790 
38 "AH6" 83.33257 100.0000 0.00000 63.37570 85.73560 14.15440 
39 "Y12" 0.00000 100.0000 16.66743 36.77560 71.97390 15.11550 
40 "AJ5" 0.00000 100.0000 33.33333 37.97620 72.45410 21.43800 
41 "AI15" 0.00000 100.0000 50.00076 40.17770 73.33470 33.03100 
42 "B15" 0.00000 100.0000 66.66667 43.53600 74.67810 50.71570 
43 "K5" 0.00000 100.0000 83.33257 48.18030 76.53580 75.17200 
44 "G10" 0.00000 16.66743 100.0000 19.65740 9.822500 95.46760 
45 "T6" 0.00000 33.33333 100.0000 22.03600 14.57980 96.26050 
46 "W13" 0.00000 50.00076 100.0000 26.39760 23.30290 97.71440 
47 "AD4" 0.00000 66.66667 100.0000 33.05100 36.60980 99.93220 
48 "W10" 0.00000 83.33257 100.0000 42.25200 55.01180 102.9992 
49 "AL12" 16.66743 0.00000 100.0000 19.78570 8.645600 95.23370 
50 "AB12" 33.33333 0.00000 100.0000 22.52880 10.05980 95.36210 
51 "C11" 50.00076 0.00000 100.0000 27.55880 12.65280 95.59750 
52 "AJ12" 66.66667 0.00000 100.0000 35.23180 16.60840 95.95660 
53 "O4" 83.33257 0.00000 100.0000 45.84280 22.07860 96.45310 
54 "Z4" 100.0000 100.0000 16.66743 77.60320 93.02130 17.02620 
55 "AA13" 100.0000 100.0000 33.33333 78.80380 93.50150 23.34870 
56 "AE11" 100.0000 100.0000 50.00076 81.00530 94.38210 34.94170 
57 "AL6" 100.0000 100.0000 66.66667 84.36360 95.72550 52.62640 
58 "G13" 100.0000 100.0000 83.33257 89.00790 97.58320 77.08270 
59 "H6" 16.66743 100.0000 100.0000 55.18810 79.45040 107.0345 
60 "R9" 33.33333 100.0000 100.0000 57.93120 80.86460 107.1629 
61 "G11" 50.00076 100.0000 100.0000 62.96120 83.45760 107.3983 
62 "Y2" 66.66667 100.0000 100.0000 70.63420 87.41320 107.7574 
63 "AE9" 83.33257 100.0000 100.0000 81.24520 92.88340 108.2539 
64 "S12" 100.0000 16.66743 100.0000 60.48500 30.86990 97.37830 
65 "H14" 100.0000 33.33333 100.0000 62.86360 35.62720 98.17120 
66 "AE8" 100.0000 50.00076 100.0000 67.22520 44.35030 99.62510 
67 "AK7" 100.0000 66.66667 100.0000 73.87860 57.65720 101.8429 
68 "D4" 100.0000 83.33257 100.0000 83.07960 76.05920 104.9099 
69 "H15" 0.00000 16.66743 16.66743 2.210500 2.843800 3.593800 
70 "J7" 0.00000 16.66743 33.33333 3.411100 3.324000 9.916300 
71 "AF6" 0.00000 16.66743 50.00076 5.612700 4.204600 21.50930 
72 "AD2" 0.00000 16.66743 66.66667 8.971000 5.548000 39.19400 
73 "R3" 0.00000 16.66743 83.33257 13.61520 7.405700 63.65030 
74 "G5" 0.00000 33.33333 16.66743 4.589200 7.601100 4.386700 
75 "V7" 0.00000 33.33333 33.33333 5.789800 8.081300 10.70920 
76 "W1" 0.00000 33.33333 50.00076 7.991300 8.962000 22.30220 
77 "M8" 0.00000 33.33333 66.66667 11.34970 10.30530 39.98690 
78 "R11" 0.00000 33.33333 83.33257 15.99390 12.16300 64.44320 
79 "H1" 0.00000 50.00076 16.66743 8.950700 16.32420 5.840500 
80 "Y9" 0.00000 50.00076 33.33333 10.15140 16.80450 12.16300 
81 "F8" 0.00000 50.00076 50.00076 12.35290 17.68510 23.75600 
82 "Q14" 0.00000 50.00076 66.66667 15.71120 19.02840 41.44080 
83 "P14" 0.00000 50.00076 83.33257 20.35550 20.88610 65.89700 
84 "C2" 0.00000 66.66667 16.66743 15.60410 29.63100 8.058300 
85 "U1" 0.00000 66.66667 33.33333 16.80480 30.11130 14.38080 
86 "W5" 0.00000 66.66667 50.00076 19.00630 30.99190 25.97380 
87 "AB7" 0.00000 66.66667 66.66667 22.36460 32.33520 43.65860 
88 "AN12" 0.00000 66.66667 83.33257 27.00890 34.19290 68.11480 
89 "AN13" 0.00000 83.33257 16.66743 24.80510 48.03300 11.12530 
90 "A11" 0.00000 83.33257 33.33333 26.00580 48.51330 17.44780 
91 "W15" 0.00000 83.33257 50.00076 28.20730 49.39390 29.04080 
92 "P5" 0.00000 83.33257 66.66667 31.56560 50.73720 46.72560 
93 "J9" 0.00000 83.33257 83.33257 36.20990 52.59490 71.18180 
94 "O6" 100.0000 16.66743 16.66743 43.03810 23.89120 5.504500 
95 "AM6" 100.0000 16.66743 33.33333 44.23870 24.37140 11.82700 
96 "AM2" 100.0000 16.66743 50.00076 46.44030 25.25200 23.42000 
97 "AL8" 100.0000 16.66743 66.66667 49.79860 26.59540 41.10470 
98 "AL10" 100.0000 16.66743 83.33257 54.44280 28.45310 65.56100 
99 "X12" 100.0000 33.33333 16.66743 45.41680 28.64850 6.297400 
100 "F2" 100.0000 33.33333 33.33333 46.61740 29.12870 12.61990 
101 "F15" 100.0000 33.33333 50.00076 48.81890 30.00940 24.21290 
102 "B12" 100.0000 33.33333 66.66667 52.17730 31.35270 41.89760 
103 "X8" 100.0000 33.33333 83.33257 56.82150 33.21040 66.35390 
104 "AH15" 100.0000 50.00076 16.66743 49.77830 37.37160 7.751200 
105 "Z14" 100.0000 50.00076 33.33333 50.97900 37.85190 14.07370 
106 "P4" 100.0000 50.00076 50.00076 53.18050 38.73250 25.66670 
107 "AB9" 100.0000 50.00076 66.66667 56.53880 40.07580 43.35150 
108 "T13" 100.0000 50.00076 83.33257 61.18310 41.93350 67.80770 
109 "AG4" 100.0000 66.66667 16.66743 56.43170 50.67840 9.969000 
110 "E10" 100.0000 66.66667 33.33333 57.63240 51.15870 16.29150 
111 "AC8" 100.0000 66.66667 50.00076 59.83390 52.03930 27.88450 
112 "A9" 100.0000 66.66667 66.66667 63.19220 53.38260 45.56930 
113 "G12" 100.0000 66.66667 83.33257 67.83650 55.24030 70.02550 
114 "AI10" 100.0000 83.33257 16.66743 65.63270 69.08040 13.03600 
115 "M3" 100.0000 83.33257 33.33333 66.83340 69.56070 19.35850 
116 "AE7" 100.0000 83.33257 50.00076 69.03490 70.44130 30.95150 
117 "V9" 100.0000 83.33257 66.66667 72.39320 71.78460 48.63630 
118 "M12" 100.0000 83.33257 83.33257 77.03750 73.64230 73.09250 
119 "AK1" 16.66743 0.00000 16.66743 2.338800 1.666900 3.359900 
120 "AI6" 16.66743 0.00000 33.33333 3.539500 2.147100 9.682400 
121 "S8" 16.66743 0.00000 50.00076 5.741000 3.027700 21.27540 
122 "AK15" 16.66743 0.00000 66.66667 9.099300 4.371100 38.96010 
123 "W4" 16.66743 0.00000 83.33257 13.74360 6.228800 63.41640 
124 "A1" 33.33333 0.00000 16.66743 5.082000 3.081000 3.488200 
125 "AD11" 33.33333 0.00000 33.33333 6.282600 3.561300 9.810700 
126 "I3" 33.33333 0.00000 50.00076 8.484200 4.441900 21.40370 
127 "AI13" 33.33333 0.00000 66.66667 11.84250 5.785200 39.08850 
128 "C13" 33.33333 0.00000 83.33257 16.48670 7.642900 63.54470 
129 "X14" 50.00076 0.00000 16.66743 10.11190 5.674100 3.723600 
130 "T15" 50.00076 0.00000 33.33333 11.31260 6.154300 10.04610 
131 "AB14" 50.00076 0.00000 50.00076 13.51410 7.034900 21.63910 
132 "D11" 50.00076 0.00000 66.66667 16.87240 8.378300 39.32390 
133 "AF13" 50.00076 0.00000 83.33257 21.51670 10.23600 63.78010 
134 "G14" 66.66667 0.00000 16.66743 17.78490 9.629600 4.082700 
135 "F6" 66.66667 0.00000 33.33333 18.98560 10.10990 10.40520 
136 "Y3" 66.66667 0.00000 50.00076 21.18710 10.99050 21.99820 
137 "Z6" 66.66667 0.00000 66.66667 24.54540 12.33380 39.68300 
138 "O2" 66.66667 0.00000 83.33257 29.18970 14.19150 64.13920 
139 "U12" 83.33257 0.00000 16.66743 28.39600 15.09980 4.579300 
140 "Z7" 83.33257 0.00000 33.33333 29.59660 15.58010 10.90180 
141 "AF4" 83.33257 0.00000 50.00076 31.79810 16.46070 22.49480 
142 "M13" 83.33257 0.00000 66.66667 35.15640 17.80400 40.17960 
143 "T11" 83.33257 0.00000 83.33257 39.80070 19.66170 64.63580 
144 "P10" 16.66743 100.0000 16.66743 37.74120 72.47170 15.16070 
145 "AM9" 16.66743 100.0000 33.33333 38.94190 72.95190 21.48320 
146 "AL14" 16.66743 100.0000 50.00076 41.14340 73.83250 33.07620 
147 "U10" 16.66743 100.0000 66.66667 44.50170 75.17590 50.76090 
148 "I14" 16.66743 100.0000 83.33257 49.14600 77.03360 75.21720 
149 "AC11" 33.33333 100.0000 16.66743 40.48440 73.88580 15.28900 
150 "N12" 33.33333 100.0000 33.33333 41.68500 74.36610 21.61150 
151 "AB15" 33.33333 100.0000 50.00076 43.88660 75.24670 33.20450 
152 "AH9" 33.33333 100.0000 66.66667 47.24490 76.59000 50.88930 
153 "AG7" 33.33333 100.0000 83.33257 51.88910 78.44770 75.34550 
154 "U7" 50.00076 100.0000 16.66743 45.51430 76.47890 15.52440 
155 "R8" 50.00076 100.0000 33.33333 46.71500 76.95910 21.84690 
156 "E5" 50.00076 100.0000 50.00076 48.91650 77.83970 33.43990 
157 "D5" 50.00076 100.0000 66.66667 52.27480 79.18310 51.12470 
158 "M9" 50.00076 100.0000 83.33257 56.91910 81.04080 75.58090 
159 "AG9" 66.66667 100.0000 16.66743 53.18730 80.43440 15.88350 
160 "AF11" 66.66667 100.0000 33.33333 54.38800 80.91470 22.20600 
161 "B3" 66.66667 100.0000 50.00076 56.58950 81.79530 33.79900 
162 "V2" 66.66667 100.0000 66.66667 59.94780 83.13860 51.48380 
163 "K9" 66.66667 100.0000 83.33257 64.59210 84.99630 75.94000 
164 "O13" 83.33257 100.0000 16.66743 63.79840 85.90460 16.38010 
165 "L7" 83.33257 100.0000 33.33333 64.99900 86.38490 22.70260 
166 "V13" 83.33257 100.0000 50.00076 67.20050 87.26550 34.29560 
167 "P7" 83.33257 100.0000 66.66667 70.55880 88.60880 51.98040 
168 "H5" 83.33257 100.0000 83.33257 75.20310 90.46650 76.43660 
169 "J1" 16.66743 16.66743 0.00000 2.753500 3.172500 1.413300 
170 "AK6" 16.66743 33.33333 0.00000 5.132200 7.929900 2.206200 
171 "AE15" 16.66743 50.00076 0.00000 9.493700 16.65300 3.660000 
172 "AA6" 16.66743 66.66667 0.00000 16.14710 29.95980 5.877900 
173 "F11" 16.66743 83.33257 0.00000 25.34820 48.36180 8.944900 
174 "K3" 33.33333 16.66743 0.00000 5.496700 4.586700 1.541700 
175 "L8" 33.33333 33.33333 0.00000 7.875400 9.344000 2.334600 
176 "K7" 33.33333 50.00076 0.00000 12.23690 18.06710 3.788400 
177 "AH11" 33.33333 66.66667 0.00000 18.89030 31.37390 6.006200 
178 "V6" 33.33333 83.33257 0.00000 28.09130 49.77600 9.073200 
179 "W11" 50.00076 16.66743 0.00000 10.52660 7.179700 1.777100 
180 "R15" 50.00076 33.33333 0.00000 12.90530 11.93700 2.570000 
181 "S1" 50.00076 50.00076 0.00000 17.26690 20.66010 4.023800 
182 "K11" 50.00076 66.66667 0.00000 23.92030 33.96700 6.241600 
183 "E3" 50.00076 83.33257 0.00000 33.12130 52.36900 9.308600 
184 "Q9" 66.66667 16.66743 0.00000 18.19960 11.13530 2.136200 
185 "AN11" 66.66667 33.33333 0.00000 20.57830 15.89260 2.929100 
186 "Q4" 66.66667 50.00076 0.00000 24.93990 24.61570 4.382900 
187 "J13" 66.66667 66.66667 0.00000 31.59330 37.92250 6.600700 
188 "E1" 66.66667 83.33257 0.00000 40.79430 56.32460 9.667700 
189 "AG13" 83.33257 16.66743 0.00000 28.81060 16.60550 2.632800 
190 "Q13" 83.33257 33.33333 0.00000 31.18930 21.36280 3.425700 
191 "F9" 83.33257 50.00076 0.00000 35.55090 30.08590 4.879500 
192 "J8" 83.33257 66.66667 0.00000 42.20430 43.39270 7.097300 
193 "AC3" 83.33257 83.33257 0.00000 51.40530 61.79470 10.16430 
194 "AD15" 16.66743 16.66743 100.0000 20.62300 10.32030 95.51280 
195 "V15" 16.66743 33.33333 100.0000 23.00170 15.07770 96.30570 
196 "AC6" 16.66743 50.00076 100.0000 27.36320 23.80080 97.75950 
197 "AD8" 16.66743 66.66667 100.0000 34.01660 37.10760 99.97740 
198 "B6" 16.66743 83.33257 100.0000 43.21770 55.50960 103.0444 
199 "R1" 33.33333 16.66743 100.0000 23.36620 11.73450 95.64120 
200 "R6" 33.33333 33.33333 100.0000 25.74490 16.49180 96.43410 
201 "Y5" 33.33333 50.00076 100.0000 30.10640 25.21490 97.88790 
202 "Q8" 33.33333 66.66667 100.0000 36.75980 38.52170 100.1057 
203 "AM5" 33.33333 83.33257 100.0000 45.96080 56.92380 103.1727 
204 "AJ14" 50.00076 16.66743 100.0000 28.39610 14.32750 95.87660 
205 "AA15" 50.00076 33.33333 100.0000 30.77480 19.08480 96.66950 
206 "S6" 50.00076 50.00076 100.0000 35.13640 27.80790 98.12330 
207 "T2" 50.00076 66.66667 100.0000 41.78980 41.11480 100.3411 
208 "S4" 50.00076 83.33257 100.0000 50.99080 59.51680 103.4081 
209 "G2" 66.66667 16.66743 100.0000 36.06910 18.28310 96.23570 
210 "C4" 66.66667 33.33333 100.0000 38.44780 23.04040 97.02860 
211 "AG2" 66.66667 50.00076 100.0000 42.80940 31.76350 98.48240 
212 "B14" 66.66667 66.66667 100.0000 49.46280 45.07030 100.7002 
213 "AE4" 66.66667 83.33257 100.0000 58.66380 63.47240 103.7672 
214 "C6" 83.33257 16.66743 100.0000 46.68010 23.75330 96.73230 
215 "Y10" 83.33257 33.33333 100.0000 49.05880 28.51060 97.52520 
216 "M5" 83.33257 50.00076 100.0000 53.42040 37.23370 98.97900 
217 "D13" 83.33257 66.66667 100.0000 60.07380 50.54050 101.1968 
218 "AL7" 83.33257 83.33257 100.0000 69.27480 68.94250 104.2638 
219 "D6" 8.332952 0.00000 0.00000 1.261900 1.160600 1.103600 
220 "AI3" 0.00000 8.332952 0.00000 1.220600 1.540100 1.179000 
221 "H11" 0.00000 0.00000 8.332952 1.086800 1.054500 1.806800 
222 "B11" 91.66705 0.00000 0.00000 34.46170 18.27560 2.657300 
223 "I7" 100.0000 8.332952 0.00000 42.04820 22.58750 3.089700 
224 "N10" 100.0000 0.00000 8.332952 41.91440 22.10190 3.717500 
225 "AJ1" 8.332952 100.0000 0.00000 36.66430 71.96540 12.90440 
226 "L13" 0.00000 91.66705 0.00000 30.00870 59.11630 10.77510 
227 "AM15" 0.00000 100.0000 8.332952 36.48920 71.85930 13.60760 
228 "J4" 8.332952 0.00000 100.0000 19.13140 8.308400 95.20310 
229 "AM13" 0.00000 8.332952 100.0000 19.09010 8.687900 95.27850 
230 "AM11" 0.00000 0.00000 91.66705 15.61770 6.866900 78.32560 
231 "P3" 8.332952 100.0000 100.0000 54.53380 79.11320 107.0039 
232 "M11" 0.00000 91.66705 100.0000 47.87820 66.26410 104.8746 
233 "D14" 0.00000 100.0000 91.66705 51.02010 77.67170 90.12640 
234 "AF9" 91.66705 0.00000 100.0000 52.33120 25.42340 96.75680 
235 "X15" 100.0000 8.332952 100.0000 59.91770 29.73530 97.18920 
236 "X3" 100.0000 0.00000 91.66705 56.44530 27.91430 80.23630 
237 "A15" 91.66705 100.0000 0.00000 69.86410 89.08040 14.45810 
238 "O9" 100.0000 91.66705 0.00000 70.83630 80.16370 12.68580 
239 "Q6" 100.0000 100.0000 8.332952 77.31680 92.90670 15.51830 
240 "I12" 91.66705 100.0000 100.0000 87.73360 96.22820 108.5576 
241 "S2" 100.0000 91.66705 100.0000 88.70580 87.31150 106.7853 
242 "AN9" 100.0000 100.0000 91.66705 91.84770 98.71910 92.03710 
243 "B1" 0.00000 0.00000 2.000458 0.978200 1.011100 1.234700 
244 "Y7" 5.000381 5.000381 5.000381 1.320900 1.389700 1.513300 
245 "AL15" 10.00076 10.00076 10.00076 1.893600 1.992300 2.169600 
246 "Z15" 14.99962 14.99962 14.99962 2.795500 2.941100 3.202800 
247 "G15" 20.00000 20.00000 20.00000 4.065600 4.277400 4.658100 
248 "F1" 25.00038 25.00038 25.00038 5.737900 6.036700 6.574000 
249 "AG14" 29.99924 29.99924 29.99924 7.842200 8.250700 8.985000 
250 "C14" 34.99962 34.99962 34.99962 10.40580 10.94770 11.92200 
251 "A14" 40.00000 40.00000 40.00000 13.45330 14.15400 15.41370 
252 "AM14" 45.00038 45.00038 45.00038 17.00810 17.89380 19.48640 
253 "P9" 50.00076 50.00076 50.00076 21.09170 22.19010 24.16500 
254 "AM10" 54.99962 54.99962 54.99962 25.72440 27.06410 29.47280 
255 "AM12" 60.00000 60.00000 60.00000 30.92560 32.53610 35.43180 
256 "AF12" 65.00038 65.00038 65.00038 36.71360 38.62560 42.06330 
257 "AG10" 69.99924 69.99924 69.99924 43.10600 45.35090 49.38710 
258 "AM7" 74.99962 74.99962 74.99962 50.11950 52.72960 57.42260 
259 "AG5" 80.00000 80.00000 80.00000 57.77040 60.77890 66.18820 
260 "K12" 85.00038 85.00038 85.00038 66.07400 69.51500 75.70190 
261 "AB10" 90.00076 90.00076 90.00076 75.04560 78.95380 85.98070 
262 "P6" 94.99962 94.99962 94.99962 84.69960 89.11050 97.04140 
263 "V12" 97.99954 100.0000 100.0000 93.21700 99.05510 108.8142 
264 "D8" 4.666209 0.00000 0.00000 1.099200 1.076700 1.096000 
265 "AB13" 2.333104 2.333104 0.00000 1.088200 1.165900 1.113800 
266 "AE12" 0.00000 4.666209 0.00000 1.079500 1.257900 1.132000 
267 "AG8" 0.00000 2.333104 2.333104 1.046700 1.140800 1.280300 
268 "AI1" 0.00000 0.00000 4.666209 1.015600 1.026000 1.431800 
269 "I15" 2.333104 0.00000 2.333104 1.056500 1.050900 1.262400 
270 "M7" 9.666590 2.667277 2.667277 1.448900 1.361100 1.325800 
271 "L1" 7.333486 7.333486 0.332647 1.440800 1.587000 1.200600 
272 "O1" 2.667277 9.666590 2.667277 1.408400 1.731800 1.399400 
273 "AI7" 0.332647 7.333486 7.333486 1.300400 1.502100 1.764200 
274 "Y15" 2.667277 2.667277 9.666590 1.277800 1.257600 2.012500 
275 "V1" 7.333486 0.332647 7.333486 1.333600 1.197900 1.703700 
276 "AN1" 14.66697 7.666133 7.666133 2.081000 1.924900 1.842500 
277 "AH1" 12.33387 12.33387 5.333028 2.096100 2.319300 1.680600 
278 "X13" 7.666133 14.66697 7.666133 2.015500 2.525700 1.962000 
279 "AB5" 5.333028 12.33387 12.33387 1.871300 2.183200 2.583200 
280 "X1" 7.666133 7.666133 14.66697 1.803800 1.757100 2.955700 
281 "Y13" 12.33387 5.333028 12.33387 1.924400 1.696100 2.486400 
282 "J3" 19.66735 12.66651 12.66651 3.041600 2.818700 2.703900 
283 "AH8" 17.33272 17.33272 10.33341 3.074900 3.408000 2.429800 
284 "I4" 12.66651 19.66735 12.66651 2.947200 3.684800 2.876100 
285 "G3" 10.33341 17.33272 17.33272 2.734000 3.201700 3.798600 
286 "AB1" 12.66651 12.66651 19.66735 2.642000 2.576800 4.308500 
287 "U15" 17.33272 10.33341 17.33272 2.814600 2.462900 3.651700 
288 "AM1" 24.66621 17.66690 17.66690 4.374300 4.092700 3.968300 
289 "AE1" 22.33310 22.33310 15.33379 4.428400 4.897500 3.566900 
290 "AG1" 17.66690 24.66621 17.66690 4.248200 5.249900 4.198300 
291 "AJ15" 15.33379 22.33310 22.33310 3.958500 4.613000 5.453600 
292 "AF1" 17.66690 17.66690 24.66621 3.840400 3.769400 6.112300 
293 "E15" 22.33310 15.33379 22.33310 4.069600 3.594700 5.251100 
294 "AA1" 29.66659 22.66728 22.66728 6.112700 5.783300 5.676800 
295 "AA5" 27.33349 27.33349 20.33265 6.189700 6.821600 5.135400 
296 "Z13" 22.66728 29.66659 22.66728 5.952300 7.254600 5.969200 
297 "Q1" 20.33265 27.33349 27.33349 5.579700 6.452300 7.584800 
298 "K1" 22.66728 22.66728 29.66659 5.433900 5.372300 8.402800 
299 "B8" 27.33349 20.33265 27.33349 5.723800 5.130300 7.322000 
300 "M4" 34.66697 27.66613 27.66613 8.286500 7.923000 7.865600 
301 "Z5" 32.33387 32.33387 25.33303 8.388200 9.210900 7.172900 
302 "AL9" 27.66613 34.66697 27.66613 8.089600 9.728900 8.224500 
303 "U11" 25.33303 32.33387 32.33387 7.628100 8.750700 10.22510 
304 "AI11" 27.66613 27.66613 34.66697 7.453300 7.418500 11.21160 
305 "AK14" 32.33387 25.33303 32.33387 7.807800 7.103300 9.897600 
306 "B10" 39.66735 32.66651 32.66651 10.92260 10.54070 10.56700 
307 "O5" 37.33272 37.33272 30.33341 11.05080 12.09280 9.713100 
308 "AC12" 32.66651 39.66735 32.66651 10.68720 12.70020 10.99620 
309 "AI14" 30.33341 37.33272 37.33272 10.13160 11.53630 13.40430 
310 "U13" 32.66651 32.66651 39.66735 9.926200 9.937400 14.56800 
311 "AH10" 37.33272 30.33341 37.33272 10.34880 9.544100 13.00830 
312 "E4" 44.66621 37.66690 37.66690 14.04570 13.66310 13.81070 
313 "R7" 42.33310 42.33310 35.33379 14.20190 15.49310 12.78630 
314 "E13" 37.66690 44.66621 37.66690 13.76980 16.19360 14.31360 
315 "AA14" 35.33379 42.33310 42.33310 13.11520 14.83520 17.15000 
316 "Y11" 37.66690 37.66690 44.66621 12.87820 12.95620 18.49900 
317 "V14" 42.33310 35.33379 42.33310 13.37200 12.47990 16.68180 
318 "AF10" 49.66659 42.66728 42.66728 17.67880 17.31490 17.62390 
319 "T7" 47.33349 47.33349 40.33265 17.86450 19.43530 16.42050 
320 "L12" 42.66728 49.66659 42.66728 17.36060 20.23260 18.20390 
321 "AL11" 40.33265 47.33349 47.33349 16.60250 18.67130 21.48790 
322 "AJ2" 42.66728 42.66728 49.66659 16.33250 16.49980 23.02970 
323 "N11" 47.33349 40.33265 47.33349 16.90070 15.93620 20.94420 
324 "AJ13" 54.66697 47.66613 47.66613 21.84330 21.51900 22.03220 
325 "C5" 52.33387 52.33387 45.33303 22.05980 23.94170 20.64190 
326 "O3" 47.66613 54.66697 47.66613 21.48130 24.83930 22.69220 
327 "C12" 45.33303 52.33387 52.33387 20.61530 23.06720 26.44210 
328 "AL13" 47.66613 47.66613 54.66697 20.31130 20.59150 28.18390 
329 "O10" 52.33387 45.33303 52.33387 20.95670 19.93670 25.81980 
330 "AJ6" 59.66735 52.66651 52.66651 26.55950 26.29720 27.05960 
331 "AC10" 57.33272 57.33272 50.33341 26.80810 29.03340 25.47480 
332 "R2" 52.66651 59.66735 52.66651 26.15200 30.03460 27.80240 
333 "O14" 50.33341 57.33272 57.33272 25.17430 28.04420 32.03530 
334 "AJ4" 52.66651 52.66651 59.66735 24.83510 25.25320 33.98400 
335 "AN14" 57.33272 50.33341 57.33272 25.56040 24.50330 31.33150 
336 "N13" 64.66621 57.66690 57.66690 31.84660 31.67000 32.72860 
337 "W3" 62.33310 62.33310 55.33379 32.12840 34.73030 30.94230 
338 "AD14" 57.66690 64.66621 57.66690 31.39210 35.83810 33.55710 
339 "O7" 55.33379 62.33310 62.33310 30.29880 33.62250 38.28930 
340 "AA12" 57.66690 57.66690 64.66621 29.92340 30.50560 40.45120 
341 "A12" 62.33310 55.33379 62.33310 30.73110 29.65710 37.50110 
342 "V5" 69.66659 62.66728 62.66728 37.72280 37.65670 39.06070 
343 "R5" 67.33349 67.33349 60.33265 38.03910 41.05130 37.06620 
344 "AA3" 62.66728 69.66659 62.66728 37.21990 42.26890 39.97750 
345 "S9" 60.33265 67.33349 67.33349 36.00740 39.82120 45.22460 
346 "F4" 62.66728 62.66728 69.66659 35.59470 36.36840 47.60590 
347 "E2" 67.33349 60.33265 67.33349 36.48750 35.41790 44.34940 
348 "M14" 74.66697 67.66613 67.66613 44.20560 44.27620 46.07650 
349 "A3" 72.33387 72.33387 65.33303 44.55740 48.01460 43.86740 
350 "AA10" 67.66613 74.66697 67.66613 43.65290 49.34490 47.08400 
351 "T10" 65.33303 72.33387 72.33387 42.31770 46.65860 52.86090 
352 "Q12" 67.66613 67.66613 74.66697 41.86690 42.86030 55.46760 
353 "C3" 72.33387 65.33303 72.33387 42.84700 41.80450 51.89600 
354 "T5" 79.66735 72.66651 72.66651 51.31170 51.54610 53.79560 
355 "D10" 77.33272 77.33272 70.33341 51.70010 55.63770 51.36570 
356 "AH3" 72.66651 79.66735 72.66651 50.70800 57.08340 54.89620 
357 "Q10" 70.33341 77.33272 77.33272 49.24670 54.15240 61.21710 
358 "N4" 72.66651 72.66651 79.66735 48.75680 49.99920 64.05490 
359 "AF14" 77.33272 70.33341 77.33272 49.82650 48.83520 60.16020 
360 "O12" 84.66621 77.66690 77.66690 59.05730 59.48350 62.23670 
361 "H13" 82.33310 82.33310 75.33379 59.48310 63.93730 59.58010 
362 "T12" 77.66690 84.66621 77.66690 58.40110 65.50110 63.43270 
363 "Q3" 75.33379 82.33310 82.33310 56.81070 62.31930 70.31140 
364 "L10" 77.66690 77.66690 84.66621 56.28080 57.80250 73.38580 
365 "X9" 82.33310 75.33379 82.33310 57.44220 56.52730 69.16010 
