demo-projects/old/Demo-Report-Matrix-2026-08-11_112103/runs/run1/verifications/2026-08-08_100000/chart/Demo-Report-Matrix-verify.ti1
CTI1   

DESCRIPTOR "Argyll Calibration Target chart information 1"
ORIGINATOR "ChromIQ"
APPROX_WHITE_POINT "95.050000 100.000000 108.900000"
COLOR_REP "iRGB"
WHITE_COLOR_PATCHES "1"
BLACK_COLOR_PATCHES "5"
CREATED "Mon Aug 10 23:21:26 2026"

NUMBER_OF_FIELDS 7
BEGIN_DATA_FORMAT
SAMPLE_ID RGB_R RGB_G RGB_B XYZ_X XYZ_Y XYZ_Z
END_DATA_FORMAT

NUMBER_OF_SETS 108
BEGIN_DATA
1 107.7174 98.9028 86.0921 96.5698 100.0752 81.8865
2 107.7174 98.9028 86.0921 96.5698 100.0752 81.8865
3 107.7174 98.9028 86.0921 96.5698 100.0752 81.8865
4 107.7174 98.9028 86.0921 96.5698 100.0752 81.8865
5 0.0000 0.0000 0.0000 0.9505 1.0000 1.0890
6 0.0000 0.0000 0.0000 0.9505 1.0000 1.0890
7 0.0000 0.0000 0.0000 0.9505 1.0000 1.0890
8 0.0000 0.0000 0.0000 0.9505 1.0000 1.0890
9 104.1090 95.5897 83.2082 89.4403 92.6914 75.9063
10 100.5121 92.2872 80.3334 82.6522 85.6611 70.2103
11 96.9261 88.9945 77.4673 76.1970 78.9752 64.7916
12 93.3525 85.7134 74.6111 70.0704 72.6296 59.6466
13 89.7907 82.4430 71.7644 64.2638 66.6152 54.7684
14 86.2407 79.1836 68.9271 58.7701 60.9248 50.1507
15 82.7048 75.9370 66.1010 53.5849 55.5539 45.7903
16 79.1812 72.7018 63.2849 48.6984 50.4920 41.6790
17 75.6715 69.4792 60.4797 44.1048 45.7335 37.8117
18 72.1760 66.2698 57.6861 39.7970 41.2708 34.1829
19 68.6969 63.0754 54.9054 35.7694 37.0982 30.7877
20 65.2325 59.8944 52.1365 32.0119 33.2052 27.6179
21 61.7836 56.7278 49.3800 28.5174 29.5847 24.6676
22 58.3515 53.5765 46.6369 25.2790 26.2292 21.9310
23 54.9393 50.4436 43.9098 22.2909 23.1329 19.4036
24 51.5442 47.3264 41.1963 19.5420 20.2841 17.0758
25 48.1681 44.2265 38.4980 17.0250 17.6756 14.9419
26 44.8138 41.1466 35.8170 14.7331 15.3002 12.9962
27 41.4826 38.0881 33.1546 12.6579 13.1491 11.2317
28 38.1718 35.0481 30.5084 10.7883 11.2109 9.6392
29 34.8885 32.0335 27.8843 9.1188 9.4800 8.2144
30 31.6341 29.0455 25.2833 7.6399 7.9464 6.9493
31 28.4074 26.0828 22.7043 6.3407 6.5989 5.8348
32 25.2103 23.1473 20.1491 5.2117 5.4278 4.8634
33 22.0518 20.2472 17.6247 4.2452 4.4250 4.0285
34 18.9307 17.3816 15.1302 3.4294 3.5783 3.3205
35 15.8600 14.5622 12.6760 2.7555 2.8786 2.7323
36 12.8406 11.7899 10.2627 2.2110 2.3130 2.2534
37 9.8765 9.0683 7.8937 1.7839 1.8690 1.8740
38 6.9658 6.3958 5.5673 1.4609 1.5330 1.5832
39 13.4098 7.0624 87.8902 15.1604 7.1030 71.4184
40 14.1176 33.2449 58.7220 10.2986 9.9400 30.7794
41 106.2337 86.4309 25.6293 74.2050 76.4205 16.7902
42 35.5104 99.1640 70.7390 48.1056 75.9230 56.0170
43 23.9399 63.4826 70.8445 23.8508 30.8131 48.7311
44 96.8844 0.0000 55.8038 43.8000 22.5287 28.4383
45 90.9534 51.6725 40.4451 44.4419 35.2195 18.1406
46 77.8623 43.5812 86.0025 42.4900 29.3228 70.9237
47 73.4021 87.2227 46.1620 50.4721 64.7094 27.6559
48 15.6608 43.8218 30.3721 8.8647 13.3990 10.0986
49 59.5082 31.9405 38.6624 18.8792 14.3607 14.3076
50 75.6781 72.1412 87.0189 52.7180 51.3589 76.4262
51 77.3843 52.9429 67.2010 39.7212 32.8762 43.5207
52 62.2677 83.0037 71.9859 46.8068 58.1309 54.3566
53 26.7496 0.0000 31.5852 4.7786 2.8056 8.8537
54 72.8159 62.8287 38.0516 35.5402 37.1136 17.4404
55 25.5188 35.6185 87.7407 20.0875 14.8072 72.3775
56 8.8045 10.3226 54.4956 6.2718 3.7640 25.5101
57 82.4063 0.0000 27.1122 28.3691 15.0115 7.9442
58 23.7594 67.5736 33.6663 19.1515 31.9600 14.7901
59 40.2024 99.2042 86.5407 54.0765 78.5075 80.7500
60 74.5046 53.5219 49.3208 34.4668 30.8880 24.5551
61 21.8555 0.0000 11.3000 2.7676 1.9116 2.3081
62 64.3869 99.0145 35.6527 52.6251 78.8074 23.1632
63 91.5939 86.9849 86.5666 73.0990 75.0204 79.1200
64 22.2097 60.6198 55.2793 18.8924 26.8236 30.0605
65 82.5124 0.0000 12.5169 27.6348 14.7266 3.6791
66 101.1310 98.9030 72.3363 85.9746 95.0888 59.9120
67 40.5666 58.8562 75.5860 26.8503 29.3022 54.9864
68 47.6597 31.8733 18.9898 12.3012 11.1441 5.2627
69 65.7606 0.0000 56.1959 21.8029 11.1802 27.7996
70 56.8623 25.2051 87.7099 27.6153 15.9299 72.1422
71 92.3738 98.9847 81.6613 80.9403 92.2794 73.7206
72 58.6466 54.5288 58.1132 27.7742 27.7940 32.6614
73 8.0395 20.4583 27.8978 3.5999 4.0510 7.4631
74 40.5379 42.4243 25.4410 12.7993 14.9088 8.0814
75 59.0439 0.0000 35.6097 15.3661 8.2165 11.4770
76 67.2797 85.4168 86.7820 55.4310 64.3632 78.3740
77 57.2162 77.5796 54.5382 37.2407 48.7949 32.6110
78 34.9996 11.5555 26.3209 6.5057 4.4102 6.7300
79 100.8768 98.8467 46.7424 80.3858 92.7542 31.9511
80 104.3218 55.4945 22.8163 56.1729 43.4894 10.3667
81 32.6788 79.4157 62.6440 31.7985 47.3953 41.2265
82 62.9520 26.7332 23.3852 18.2619 12.8852 6.6526
83 42.3738 31.6208 45.8159 13.1344 11.1993 19.0252
84 63.7107 0.0000 27.5903 16.9005 9.0948 7.6056
85 46.7643 63.4967 25.7206 22.2542 30.8380 10.7653
86 59.4951 99.0685 57.3153 53.5218 78.9542 40.3493
87 90.6048 41.7821 47.3573 42.1498 29.5033 22.2516
88 55.5756 3.4737 0.0000 12.0416 6.8590 1.6353
89 51.6385 60.5459 57.4396 26.9983 30.9084 32.6018
90 15.5459 40.4634 49.8703 10.4262 12.6002 22.7638
91 15.4721 16.6006 0.0000 2.6273 3.0986 1.4057
92 56.9620 26.8981 47.1904 18.0134 12.4969 20.1063
93 103.6168 0.0000 87.4380 58.4000 29.0936 72.5744
94 50.8222 54.0382 87.4594 32.1610 28.8801 73.9544
95 39.5217 6.9617 14.5193 6.7805 4.2793 3.1494
96 27.5495 20.1352 24.7597 5.5480 5.0291 6.2999
97 85.2442 39.0894 57.8335 39.1213 26.7233 31.5640
98 16.5047 43.7502 44.2555 10.5305 14.0434 18.5249
99 71.6651 58.5116 13.2168 31.1776 32.3925 7.0313
100 31.5996 85.1972 85.4564 41.4208 56.9790 75.3689
101 100.0000 100.0000 100.0000 95.0500 100.0000 108.9000
102 0.0000 0.0000 0.0000 0.9505 1.0000 1.0890
103 100.0000 0.0000 0.0000 41.7781 22.0474 2.9997
104 0.0000 100.0000 0.0000 36.3529 71.8048 12.8898
105 0.0000 0.0000 100.0000 18.8200 8.1478 95.1885
106 0.0000 100.0000 100.0000 54.2224 78.9526 106.9893
107 100.0000 0.0000 100.0000 59.6476 29.1952 97.0992
108 100.0000 100.0000 0.0000 77.1805 92.8522 14.8005
END_DATA
CTI1   

DESCRIPTOR "Argyll Calibration Target chart information 1"
ORIGINATOR "ChromIQ"
DENSITY_EXTREME_VALUES "8"
CREATED "Mon Aug 10 23:21:26 2026"

NUMBER_OF_FIELDS 7
BEGIN_DATA_FORMAT
INDEX RGB_R RGB_G RGB_B XYZ_X XYZ_Y XYZ_Z
END_DATA_FORMAT

NUMBER_OF_SETS 8
BEGIN_DATA
0 100.0000 100.0000 100.0000 95.0500 100.0000 108.9000
1 0.0000 100.0000 100.0000 54.2224 78.9526 106.9893
2 100.0000 0.0000 100.0000 59.6476 29.1952 97.0992
3 0.0000 0.0000 100.0000 18.8200 8.1478 95.1885
4 100.0000 100.0000 0.0000 77.1805 92.8522 14.8005
5 0.0000 100.0000 0.0000 36.3529 71.8048 12.8898
6 100.0000 0.0000 0.0000 41.7781 22.0474 2.9997
7 0.0000 0.0000 0.0000 0.9505 1.0000 1.0890
END_DATA
CTI1   

DESCRIPTOR "Argyll Calibration Target chart information 1"
ORIGINATOR "ChromIQ"
DEVICE_COMBINATION_VALUES "9"
CREATED "Mon Aug 10 23:21:26 2026"

NUMBER_OF_FIELDS 7
BEGIN_DATA_FORMAT
INDEX RGB_R RGB_G RGB_B XYZ_X XYZ_Y XYZ_Z
END_DATA_FORMAT

NUMBER_OF_SETS 9
BEGIN_DATA
0 100.0000 100.0000 100.0000 95.0500 100.0000 108.9000
1 0.0000 100.0000 100.0000 54.2224 78.9526 106.9893
2 100.0000 0.0000 100.0000 59.6476 29.1952 97.0992
3 0.0000 0.0000 100.0000 18.8200 8.1478 95.1885
4 100.0000 100.0000 0.0000 77.1805 92.8522 14.8005
5 0.0000 100.0000 0.0000 36.3529 71.8048 12.8898
6 100.0000 0.0000 0.0000 41.7781 22.0474 2.9997
7 0.0000 0.0000 0.0000 0.9505 1.0000 1.0890
8 50.0000 50.0000 50.0000 21.0917 22.1901 24.1650
END_DATA
