demo-projects/old/Demo-Report-Matrix-2026-08-11_112103/runs/run1/verifications/2026-08-08_100000/chart/Demo-Report-Matrix-verify-reference.ti3
CTI3   

DESCRIPTOR "ChromIQ colorimetric verification reference"
ORIGINATOR "ChromIQ"
CREATED "Mon Aug 10 23:21:26 2026"
DEVICE_CLASS "OUTPUT"
COLOR_REP "RGB_XYZ"
CHROMIQ_SET_VERSION "PROVISIONAL-r1"
CHROMIQ_INTENT "absolute"
CHROMIQ_MARGIN "safe"
CHROMIQ_MASTER_TOTAL "5960"
CHROMIQ_IN_GAMUT "5601"
CHROMIQ_REQUESTED "100"
CHROMIQ_CORNER_IDS "101 102 103 104 105 106 107 108"

NUMBER_OF_FIELDS 10
BEGIN_DATA_FORMAT
SAMPLE_ID RGB_R RGB_G RGB_B XYZ_X XYZ_Y XYZ_Z LAB_L LAB_A LAB_B
END_DATA_FORMAT

NUMBER_OF_SETS 108
BEGIN_DATA
1 107.7174 98.9028 86.0921 96.4193 99.9996 82.5376 99.9998 -0.0040 -0.0137
2 107.7174 98.9028 86.0921 96.4193 99.9996 82.5376 99.9998 -0.0040 -0.0137
3 107.7174 98.9028 86.0921 96.4193 99.9996 82.5376 99.9998 -0.0040 -0.0137
4 107.7174 98.9028 86.0921 96.4193 99.9996 82.5376 99.9998 -0.0040 -0.0137
5 0.0000 0.0000 0.0000 0.0000 0.0000 0.0000 0.0000 0.0000 0.0000
6 0.0000 0.0000 0.0000 0.0000 0.0000 0.0000 0.0000 0.0000 0.0000
7 0.0000 0.0000 0.0000 0.0000 0.0000 0.0000 0.0000 0.0000 0.0000
8 0.0000 0.0000 0.0000 0.0000 0.0000 0.0000 0.0000 0.0000 0.0000
9 104.1090 95.5897 83.2082 89.4940 92.8172 76.6094 97.1534 -0.0039 -0.0133
10 100.5121 92.2872 80.3334 82.8689 85.9461 70.9381 94.2893 -0.0038 -0.0130
11 96.9261 88.9945 77.4673 76.5381 79.3801 65.5187 91.4060 -0.0037 -0.0127
12 93.3525 85.7134 74.6111 70.5000 73.1179 60.3500 88.5039 -0.0036 -0.0123
13 89.7907 82.4430 71.7644 64.7489 67.1531 55.4268 85.5812 -0.0035 -0.0120
14 86.2407 79.1836 68.9271 59.2802 61.4814 50.7455 82.6369 -0.0034 -0.0116
15 82.7048 75.9370 66.1010 54.0925 56.1011 46.3047 79.6713 -0.0033 -0.0113
16 79.1812 72.7018 63.2849 49.1785 51.0046 42.0981 76.6818 -0.0032 -0.0109
17 75.6715 69.4792 60.4797 44.5352 46.1889 38.1233 73.6679 -0.0031 -0.0106
18 72.1760 66.2698 57.6861 40.1581 41.6493 34.3765 70.6285 -0.0030 -0.0102
19 68.6969 63.0754 54.9054 36.0445 37.3829 30.8551 67.5633 -0.0029 -0.0098
20 65.2325 59.8944 52.1365 32.1868 33.3820 27.5528 64.4690 -0.0028 -0.0095
21 61.7836 56.7278 49.3800 28.5808 29.6421 24.4659 61.3441 -0.0027 -0.0091
22 58.3515 53.5765 46.6369 25.2219 26.1584 21.5906 58.1871 -0.0025 -0.0088
23 54.9393 50.4436 43.9098 22.1072 22.9281 18.9244 54.9982 -0.0025 -0.0084
24 51.5442 47.3264 41.1963 19.2279 19.9419 16.4597 51.7715 -0.0024 -0.0080
25 48.1681 44.2265 38.4980 16.5797 17.1953 14.1927 48.5052 -0.0022 -0.0076
26 44.8138 41.1466 35.8170 14.1580 14.6837 12.1196 45.1979 -0.0021 -0.0072
27 41.4826 38.0881 33.1546 11.9570 12.4010 10.2355 41.8464 -0.0020 -0.0068
28 38.1718 35.0481 30.5084 9.9678 10.3379 8.5327 38.4423 -0.0019 -0.0064
29 34.8885 32.0335 27.8843 8.1876 8.4916 7.0088 34.9864 -0.0018 -0.0060
30 31.6341 29.0455 25.2833 6.6089 6.8543 5.6574 31.4729 -0.0016 -0.0056
31 28.4074 26.0828 22.7043 5.2230 5.4169 4.4710 27.8910 -0.0015 -0.0052
32 25.2103 23.1473 20.1491 4.0224 4.1718 3.4433 24.2315 -0.0014 -0.0047
33 22.0518 20.2472 17.6247 3.0014 3.1128 2.5693 20.4902 -0.0012 -0.0043
34 18.9307 17.3816 15.1302 2.1495 2.2293 1.8400 16.6475 -0.0011 -0.0039
35 15.8600 14.5622 12.6760 1.4595 1.5137 1.2494 12.6948 -0.0010 -0.0034
36 12.8406 11.7899 10.2627 0.9195 0.9537 0.7872 8.5995 -0.0009 -0.0029
37 9.8765 9.0683 7.8937 0.5179 0.5371 0.4433 4.8517 -0.0005 -0.0017
38 6.9658 6.3958 5.5673 0.2413 0.2502 0.2065 2.2605 -0.0002 -0.0008
39 13.4098 7.0624 87.8902 14.3121 6.0630 71.4351 29.5708 68.3095 -112.0397
40 14.1176 33.2449 58.7220 9.4498 9.0128 30.6576 36.0089 6.3493 -54.1060
41 106.2337 86.4309 25.6293 73.8974 76.5242 16.0455 90.1022 0.2296 67.0679
42 35.5104 99.1640 70.7390 47.8811 75.6603 56.4958 89.7014 -59.6665 5.9729
43 23.9399 63.4826 70.8445 23.5768 30.7951 49.1084 62.3343 -24.9873 -33.1671
44 96.8844 0.0000 55.8038 43.3224 21.6346 28.3531 53.6371 82.7959 -20.0157
45 90.9534 51.6725 40.4451 44.3987 35.1674 17.6527 65.8788 33.1757 21.5572
46 77.8623 43.5812 86.0025 42.6864 29.2456 71.2604 60.9978 49.1857 -57.6996
47 73.4021 87.2227 46.1620 50.7826 65.0567 27.5078 84.5129 -29.4610 34.6246
48 15.6608 43.8218 30.3721 7.9326 12.6405 9.0118 42.2165 -33.4713 4.7761
49 59.5082 31.9405 38.6624 18.4437 13.6483 13.5209 43.7243 30.6573 -6.4675
50 75.6781 72.1412 87.0189 53.2749 51.9439 76.9162 77.2473 8.3569 -34.5943
51 77.3843 52.9429 67.2010 40.0034 33.0068 43.9038 64.1664 27.3705 -23.8421
52 62.2677 83.0037 71.9859 47.2336 58.5907 54.9284 81.0661 -24.2382 -7.2701
53 26.7496 0.0000 31.5852 3.7601 1.7857 7.7269 14.3201 38.8648 -38.5430
54 72.8159 62.8287 38.0516 35.6940 37.3347 16.8777 67.5274 -1.0191 26.1762
55 25.5188 35.6185 87.7407 19.4563 14.0886 72.4794 44.3597 33.0969 -87.4660
56 8.8045 10.3226 54.4956 5.2651 2.5635 25.1818 18.2035 42.2621 -75.6776
57 82.4063 0.0000 27.1122 27.8714 14.1185 6.7951 44.4025 70.2407 17.1311
58 23.7594 67.5736 33.6663 18.6160 31.8411 13.9753 63.2114 -52.4443 25.9187
59 40.2024 99.2042 86.5407 53.9675 78.3381 81.1817 90.9340 -48.8671 -14.5432
60 74.5046 53.5219 49.3208 34.6031 30.9384 24.3702 62.4556 17.1463 2.0814
61 21.8555 0.0000 11.3000 1.6261 0.8153 0.8773 7.3649 27.5116 -3.6921
62 64.3869 99.0145 35.6527 52.5910 78.6588 22.5745 91.0797 -53.0285 54.7883
63 91.5939 86.9849 86.5666 73.5689 75.5347 79.7211 89.6429 1.5304 -15.5691
64 22.2097 60.6198 55.2793 18.4546 26.6619 30.0119 58.6601 -33.6646 -14.0357
65 82.5124 0.0000 12.5169 27.0875 13.7957 2.3534 43.9385 69.1116 42.2374
66 101.1310 98.9030 72.3363 86.0285 95.0748 60.6102 98.0634 -10.3053 16.2110
67 40.5666 58.8562 75.5860 26.7765 29.3303 55.4078 61.0721 -5.9982 -42.2491
68 47.6597 31.8733 18.9898 11.5487 10.2546 3.9131 38.2955 12.4329 21.2221
69 65.7606 0.0000 56.1959 21.5607 10.5303 27.6660 38.7779 67.3700 -44.4943
70 56.8623 25.2051 87.7099 27.3630 15.2582 72.2651 45.9859 61.3932 -84.4732
71 92.3738 98.9847 81.6613 81.2239 92.3797 74.3979 96.9753 -14.7481 1.5754
72 58.6466 54.5288 58.1132 27.8375 27.8092 32.7490 59.7159 4.1002 -16.4296
73 8.0395 20.4583 27.8978 2.3895 2.7549 6.1837 19.0341 -5.2359 -23.9151
74 40.5379 42.4243 25.4410 12.0987 14.2519 6.8903 44.5920 -10.8553 17.0536
75 59.0439 0.0000 35.6097 14.8464 7.3996 10.5441 32.6999 58.0766 -16.7693
76 67.2797 85.4168 86.7820 55.9381 64.8772 78.8873 84.4204 -15.8361 -23.8816
77 57.2162 77.5796 54.5382 37.4704 49.1541 32.7043 75.5471 -29.7273 10.9324
78 34.9996 11.5555 26.3209 5.4405 3.1801 5.4278 20.7511 33.3653 -17.3690
79 100.8768 98.8467 46.7424 80.2501 92.6246 31.9042 97.0750 -17.0727 49.2575
80 104.3218 55.4945 22.8163 55.7378 43.3409 9.4086 71.7858 38.1254 54.3746
81 32.6788 79.4157 62.6440 31.6805 47.5564 41.5235 74.5442 -45.2586 -2.9659
82 62.9520 26.7332 23.3852 17.7113 12.0348 5.3910 41.2714 37.3652 18.1937
83 42.3738 31.6208 45.8159 12.4666 10.3451 18.4652 38.4548 18.1107 -27.5334
84 63.7107 0.0000 27.5903 16.3695 8.2496 6.4288 34.4973 59.1970 1.6457
85 46.7643 63.4967 25.7206 21.9722 30.8132 9.7403 62.3496 -32.3136 36.9787
86 59.4951 99.0685 57.3153 53.6108 78.8655 40.5572 91.1734 -50.8091 26.9488
87 90.6048 41.7821 47.3573 42.0184 29.1940 21.9627 60.9525 47.3829 4.0284
88 55.5756 3.4737 0.0000 11.4070 5.9432 0.5624 29.2686 50.3297 39.8485
89 51.6385 60.5459 57.4396 27.0249 31.0062 32.6875 62.5129 -11.2031 -11.5152
90 15.5459 40.4634 49.8703 9.6051 11.8282 22.3717 40.9417 -13.6568 -31.2665
91 15.4721 16.6006 0.0000 1.3867 1.7578 0.2154 14.1610 -8.4131 20.3499
92 56.9620 26.8981 47.1904 17.5565 11.6904 19.6172 40.7197 38.9123 -26.1026
93 103.6168 0.0000 87.4380 57.9118 28.3102 72.8276 60.1680 93.5485 -60.5165
94 50.8222 54.0382 87.4594 32.2147 28.9191 74.2427 60.7102 16.2992 -60.8163
95 39.5217 6.9617 14.5193 5.7754 3.1173 1.7047 20.5075 38.2718 8.0674
96 27.5495 20.1352 24.7597 4.3839 3.7600 4.9568 22.8616 10.9487 -11.3240
97 85.2442 39.0894 57.8335 39.0977 26.4066 31.6232 58.4210 49.2994 -16.9583
98 16.5047 43.7502 44.2555 9.7116 13.3421 17.9372 43.2742 -22.8573 -18.0553
99 71.6651 58.5116 13.2168 31.1479 32.4455 5.9065 63.7094 -0.5009 54.3903
100 31.5996 85.1972 85.4564 41.3649 57.1674 75.8174 80.2737 -37.8738 -28.4416
101 100.0000 100.0000 100.0000 96.4250 100.0000 82.5339 100.0000 0.0053 -0.0104
102 0.0000 0.0000 0.0000 0.0000 0.0000 0.0000 0.0000 0.0000 0.0000
103 100.0000 0.0000 0.0000 41.8366 21.2600 1.4627 53.2329 80.1093 67.2201
104 0.0000 100.0000 0.0000 36.2773 71.5200 9.0340 87.7370 -86.1846 83.1812
105 0.0000 0.0000 100.0000 18.3111 7.2200 72.0372 32.3026 79.1967 -107.8637
106 0.0000 100.0000 100.0000 54.5884 78.7400 81.0712 91.1165 -48.0796 -14.1381
107 100.0000 0.0000 100.0000 60.1477 28.4800 73.4999 60.3199 98.2542 -60.8430
108 100.0000 100.0000 0.0000 78.1139 92.7800 10.4967 97.1382 -21.5559 94.4825
END_DATA
