demo-projects/Demo-Report-Matrix/runs/run1/verifications/2026-07-01_100000/Demo-Report-Matrix-verify.ti3
CTI3   
KEYWORD "CHROMIQ_VERIFICATION"
CHROMIQ_VERIFICATION "true"

DESCRIPTOR "Argyll Calibration Target chart information 3"
ORIGINATOR "Argyll fakeread"
CREATED "Tue Aug 11 11:21:04 2026"
DEVICE_CLASS "DISPLAY"
COLOR_REP "iRGB_XYZ"

KEYWORD "CHROMIQ_MEASURED"
CHROMIQ_MEASURED "2026-07-01T10:00:00"
TARGET_INSTRUMENT "X-Rite ColorMunki"
NUMBER_OF_FIELDS 7
BEGIN_DATA_FORMAT
SAMPLE_ID RGB_R RGB_G RGB_B XYZ_X XYZ_Y XYZ_Z 
END_DATA_FORMAT

NUMBER_OF_SETS 105
BEGIN_DATA
1 100.0000 100.0000 100.0000 94.96303 99.94717 108.5475 
2 100.0000 100.0000 100.0000 94.94763 99.74999 108.6977 
3 100.0000 100.0000 100.0000 94.79166 99.88583 107.2719 
4 100.0000 100.0000 100.0000 95.01467 99.88373 108.7205 
5 0.00000 0.00000 0.00000 0.000328563 0.000655564 0.000111471 
6 0.00000 0.00000 0.00000 1.74217e-06 9.01226e-07 9.12926e-08 
7 0.00000 0.00000 0.00000 0.0000328558 0.0000655553 0.0000111470 
8 0.00000 0.00000 0.00000 0.00196681 0.00103529 0.000106531 
9 100.0000 100.0000 0.00000 76.49201 92.03364 14.19177 
10 0.00000 0.00000 100.0000 18.07839 7.337871 94.37242 
11 100.0000 0.00000 0.00000 40.95357 21.18614 2.146192 
12 0.00000 100.0000 100.0000 53.14433 77.27947 106.3430 
13 0.00000 100.0000 0.00000 35.36154 70.55487 11.99709 
14 100.0000 0.00000 100.0000 58.80339 28.40377 96.56247 
15 0.00000 38.69451 100.0000 22.61046 16.35659 95.98374 
16 0.00000 61.01825 0.00000 12.48827 24.91637 4.239250 
17 0.00000 0.00000 49.66734 3.870428 1.571246 20.20384 
18 100.0000 0.00000 49.59690 44.83526 22.75061 22.91798 
19 100.0000 51.96322 100.0000 67.64621 45.43109 99.46509 
20 100.0000 51.02120 0.00000 49.12818 37.10153 4.847528 
21 49.79587 0.00000 0.00000 9.013338 4.662614 0.472314 
22 100.0000 100.0000 50.20307 80.88664 94.24193 34.68386 
23 0.00000 100.0000 50.70625 39.69054 72.72630 33.31890 
24 49.48561 100.0000 100.0000 62.63779 82.48648 106.8980 
25 51.72588 100.0000 0.00000 45.24586 76.24017 12.62610 
26 50.05958 0.00000 100.0000 27.17575 12.05097 94.52524 
27 0.00000 47.79621 60.34591 13.25091 16.89644 33.80079 
28 100.0000 59.17416 43.63085 55.14527 44.79120 21.93495 
29 47.31399 48.98978 0.00000 15.52278 19.17858 2.977363 
30 52.09288 0.00000 45.52943 13.08746 6.407892 17.52631 
31 55.39583 47.66229 100.0000 36.62022 27.92654 97.55691 
32 49.20125 100.0000 50.84061 48.40715 77.41434 34.18312 
33 48.29114 47.33520 50.18713 19.76875 19.94667 24.35662 
34 0.00000 30.94905 0.00000 2.797598 5.581858 0.949134 
35 100.0000 21.19106 79.12555 53.51754 28.43342 59.79578 
36 33.94804 70.69041 100.0000 38.40513 42.46575 100.2933 
37 74.96124 25.82053 0.00000 23.82587 15.05016 1.777437 
38 0.00000 77.61705 71.72771 29.97054 45.67351 53.54691 
39 24.97790 0.00000 23.41364 3.060071 1.497013 4.149593 
40 76.31808 100.0000 28.35106 59.50804 82.92537 18.89789 
41 0.00000 77.00365 31.43299 21.89780 41.21468 15.03537 
42 75.41143 77.79628 100.0000 61.43812 60.10306 102.6109 
43 100.0000 23.29829 20.42453 43.22073 24.40469 5.580996 
44 100.0000 80.02238 22.27702 64.22984 66.14148 13.28166 
45 75.35445 100.0000 76.01304 67.62410 86.61461 65.04595 
46 75.31505 74.81469 0.00000 41.07375 48.39041 7.420788 
47 100.0000 79.49395 78.19811 73.34145 68.71969 64.27113 
48 26.41218 100.0000 75.99234 47.85849 76.47871 64.38873 
49 28.19308 28.22301 100.0000 23.02438 13.30985 95.37250 
50 76.81359 0.00000 23.55016 23.97542 12.31181 5.464101 
51 75.25932 0.00000 74.69026 31.97525 15.46777 51.46373 
52 29.89921 74.23536 0.00000 21.44170 38.45538 6.439147 
53 25.50439 100.0000 24.78846 38.76543 72.79051 16.80074 
54 77.21225 23.71451 100.0000 43.02596 22.48560 95.20406 
55 0.00000 21.07405 72.23364 10.20607 6.038785 47.45296 
56 26.28049 0.00000 71.93547 11.05058 4.734161 46.14432 
57 0.00000 19.89483 30.07019 2.373759 2.660892 7.178831 
58 26.28079 33.45692 23.52814 6.608299 8.540177 5.682802 
59 66.56754 70.38587 52.30860 38.06694 44.39616 29.52700 
60 75.09479 52.62129 65.01886 37.69182 31.70335 39.69725 
61 26.64973 49.33561 81.42125 21.52785 21.43880 61.81777 
62 45.91179 68.61670 63.70484 30.23739 38.04804 42.11964 
63 71.11740 50.49568 34.71935 29.72499 27.12284 13.10814 
64 54.43736 27.35888 62.61652 19.75835 12.65557 35.20069 
65 34.69612 74.79966 32.60823 25.16789 41.70362 14.78998 
66 74.85889 20.44437 50.18860 27.22684 15.34818 23.09062 
67 47.85106 20.11464 33.14580 11.17170 7.284045 9.613530 
68 27.20651 32.63652 48.27367 9.329385 9.047063 20.76808 
69 27.58870 24.69734 0.00000 4.192770 4.652612 0.701792 
70 0.00000 69.14068 100.0000 33.76705 38.65403 99.65513 
71 20.53684 59.80271 49.57175 17.02262 25.76875 24.01577 
72 0.00000 46.98630 28.11508 7.942440 14.02876 8.278884 
73 73.54294 75.32966 75.96305 50.65779 53.90594 59.10471 
74 63.36650 75.70063 29.24590 35.91794 46.89761 14.20394 
75 100.0000 50.88622 71.33775 57.71854 41.15054 50.40833 
76 23.55356 85.77019 53.26247 31.56257 53.02563 32.23984 
77 100.0000 29.41094 48.41781 47.08727 27.65756 22.12266 
78 72.19800 51.56213 8.666635 29.09064 27.57737 4.437110 
79 21.36322 53.66478 11.70929 10.65635 18.86098 3.892678 
80 12.24937 81.96187 10.32227 23.81820 46.67244 8.670382 
81 50.32410 91.80251 71.76533 47.25690 67.14950 55.83075 
82 48.45094 95.04594 23.03440 40.93316 68.29404 15.17511 
83 47.91670 54.94911 27.45694 19.77539 24.96105 9.719677 
84 3.781525 53.33689 81.63552 20.52926 22.18270 64.38830 
85 76.14076 97.71765 95.89858 73.86479 87.27784 98.56120 
86 74.72769 92.97172 51.48222 56.62650 74.92195 33.03910 
87 91.51768 77.11623 49.84954 57.00193 58.02887 28.88130 
88 55.99479 23.67844 88.16304 26.48180 14.51296 71.12746 
89 76.02370 54.61404 92.04182 47.95214 37.73868 84.79733 
90 52.92777 23.07148 11.01567 11.91981 8.286341 1.830084 
91 2.113597 97.73685 76.72762 44.51355 72.68673 64.52568 
92 77.95688 25.26049 74.12841 35.42027 19.79853 49.37814 
93 5.158119 95.50651 28.71841 33.04698 64.05605 16.68887 
94 4.213096 24.16053 51.05457 5.864167 5.070731 22.10488 
95 51.24030 47.80404 76.36550 27.14355 23.08844 56.32817 
96 97.40498 100.0000 75.01152 84.46063 94.87679 64.16008 
97 49.19419 5.350316 74.01136 18.39943 8.554984 49.81578 
98 91.32533 51.59153 22.20459 43.12745 34.51844 8.193259 
99 74.48121 24.34677 26.05584 24.57734 14.98765 6.972096 
100 94.19953 74.22767 93.65841 69.31024 60.54233 90.60692 
101 23.32810 75.54038 80.93191 32.71953 44.42278 67.04643 
102 56.07175 76.90790 5.268606 31.38028 45.65526 7.556037 
103 27.55381 8.135545 46.48987 5.915320 2.870314 17.98056 
104 27.88054 25.86915 72.11177 13.54694 8.776567 48.39933 
105 51.80627 80.99682 89.24284 46.66816 55.47209 82.90777 
END_DATA
