demo-projects/old/Demo-Report-Matrix-2026-08-11_112103/runs/run1/verifications/2026-07-01_100000/Demo-Report-Matrix-verify.ti3
CTI3   
KEYWORD "CHROMIQ_VERIFICATION"
CHROMIQ_VERIFICATION "true"

DESCRIPTOR "Argyll Calibration Target chart information 3"
ORIGINATOR "Argyll fakeread"
CREATED "Mon Aug 10 23:21:26 2026"
DEVICE_CLASS "DISPLAY"
COLOR_REP "iRGB_XYZ"

KEYWORD "CHROMIQ_MEASURED"
CHROMIQ_MEASURED "2026-07-01T10:00:00"
TARGET_INSTRUMENT "X-Rite ColorMunki"
NUMBER_OF_FIELDS 7
BEGIN_DATA_FORMAT
SAMPLE_ID RGB_R RGB_G RGB_B XYZ_X XYZ_Y XYZ_Z 
END_DATA_FORMAT

NUMBER_OF_SETS 105
BEGIN_DATA
1 100.0000 100.0000 100.0000 94.97055 99.95981 108.3184 
2 100.0000 100.0000 100.0000 94.96255 99.94438 108.8459 
3 100.0000 100.0000 100.0000 94.99285 99.96891 108.4346 
4 100.0000 100.0000 100.0000 94.42972 99.66838 108.8184 
5 0.00000 0.00000 0.00000 0.0000314570 0.0000627327 0.0000106559 
6 0.00000 0.00000 0.00000 0.000443417 0.000759611 0.000532940 
7 0.00000 0.00000 0.00000 5.21112e-06 0.0000103925 1.76446e-06 
8 0.00000 0.00000 0.00000 4.18540e-06 2.16797e-06 2.16317e-07 
9 100.0000 100.0000 0.00000 76.90956 92.59637 14.23016 
10 0.00000 0.00000 100.0000 18.16405 7.406016 94.62341 
11 100.0000 0.00000 0.00000 41.17268 21.32680 2.129572 
12 0.00000 100.0000 100.0000 53.76144 78.55768 106.1844 
13 0.00000 100.0000 0.00000 35.73785 71.27013 12.10042 
14 100.0000 0.00000 100.0000 59.15878 28.64011 96.74207 
15 0.00000 38.69451 100.0000 22.59814 16.24766 96.12454 
16 0.00000 61.01825 0.00000 11.92854 23.78868 4.038904 
17 0.00000 0.00000 49.66734 3.859741 1.573659 20.10498 
18 100.0000 0.00000 49.59690 44.93821 22.85080 22.26732 
19 100.0000 51.96322 100.0000 67.74500 45.50183 99.59847 
20 100.0000 51.02120 0.00000 48.90602 37.85567 4.962057 
21 49.79587 0.00000 0.00000 8.857811 4.588202 0.457865 
22 100.0000 100.0000 50.20307 80.60402 94.08118 34.47816 
23 0.00000 100.0000 50.70625 39.86235 72.95163 33.58915 
24 49.48561 100.0000 100.0000 62.92411 83.34899 107.1900 
25 51.72588 100.0000 0.00000 44.87412 75.25468 12.43227 
26 50.05958 0.00000 100.0000 27.34320 12.16374 94.98707 
27 0.00000 47.79621 60.34591 13.33048 16.94479 34.10879 
28 100.0000 59.17416 43.63085 55.36342 44.94435 21.31109 
29 47.31399 48.98978 0.00000 15.48323 19.35427 3.002977 
30 52.09288 0.00000 45.52943 12.89481 6.312556 17.81829 
31 55.39583 47.66229 100.0000 36.77745 27.33677 97.58509 
32 49.20125 100.0000 50.84061 48.24459 77.31546 32.99552 
33 48.29114 47.33520 50.18713 19.35928 20.11658 23.56829 
34 0.00000 30.94905 0.00000 2.816022 5.615960 0.953494 
35 100.0000 21.19106 79.12555 53.30044 28.17223 59.47285 
36 33.94804 70.69041 100.0000 38.58974 42.20334 100.3856 
37 74.96124 25.82053 0.00000 23.88484 15.13978 1.772548 
38 0.00000 77.61705 71.72771 29.32095 44.45983 52.94786 
39 24.97790 0.00000 23.41364 2.988674 1.461684 4.235510 
40 76.31808 100.0000 28.35106 59.61261 83.22802 19.32921 
41 0.00000 77.00365 31.43299 21.44778 40.51402 14.19739 
42 75.41143 77.79628 100.0000 61.15004 59.82961 101.7874 
43 100.0000 23.29829 20.42453 43.24357 24.54385 5.633410 
44 100.0000 80.02238 22.27702 63.79669 65.38528 13.04520 
45 75.35445 100.0000 76.01304 66.84611 85.42016 64.91074 
46 75.31505 74.81469 0.00000 41.45429 49.60067 7.609212 
47 100.0000 79.49395 78.19811 73.44536 69.11591 63.93325 
48 26.41218 100.0000 75.99234 47.63108 75.69916 64.34768 
49 28.19308 28.22301 100.0000 22.89453 13.01342 95.48146 
50 76.81359 0.00000 23.55016 23.58940 12.14015 4.903347 
51 75.25932 0.00000 74.69026 31.79667 15.39222 52.05619 
52 29.89921 74.23536 0.00000 21.64055 38.82093 6.484616 
53 25.50439 100.0000 24.78846 38.63439 72.67996 16.48410 
54 77.21225 23.71451 100.0000 42.89690 22.54058 96.35323 
55 0.00000 21.07405 72.23364 10.09700 6.006403 46.79810 
56 26.28049 0.00000 71.93547 10.73043 4.622164 44.33619 
57 0.00000 19.89483 30.07019 2.432884 2.819979 7.056181 
58 26.28079 33.45692 23.52814 6.212840 7.951666 5.475968 
59 66.56754 70.38587 52.30860 38.16666 43.54290 29.35051 
60 75.09479 52.62129 65.01886 38.16957 31.75215 41.63820 
61 26.64973 49.33561 81.42125 21.48793 20.98973 63.15888 
62 45.91179 68.61670 63.70484 29.23052 37.01316 40.09577 
63 71.11740 50.49568 34.71935 29.71245 27.40302 13.03570 
64 54.43736 27.35888 62.61652 19.21458 12.29418 35.83766 
65 34.69612 74.79966 32.60823 24.55815 40.45529 14.44834 
66 74.85889 20.44437 50.18860 26.26342 14.77503 22.18129 
67 47.85106 20.11464 33.14580 10.83027 6.954718 9.229642 
68 27.20651 32.63652 48.27367 9.162889 8.747910 20.40345 
69 27.58870 24.69734 0.00000 4.109539 4.690985 0.710571 
70 0.00000 69.14068 100.0000 33.97520 38.93801 99.97700 
71 20.53684 59.80271 49.57175 16.46640 25.03898 23.97629 
72 0.00000 46.98630 28.11508 7.802177 13.84934 7.892903 
73 73.54294 75.32966 75.96305 50.06001 52.39590 60.13374 
74 63.36650 75.70063 29.24590 35.75422 47.31033 14.06983 
75 100.0000 50.88622 71.33775 57.85405 41.08764 50.79955 
76 23.55356 85.77019 53.26247 31.29531 53.00668 31.29184 
77 100.0000 29.41094 48.41781 47.23282 27.59709 22.23947 
78 72.19800 51.56213 8.666635 28.37928 26.66576 4.192181 
79 21.36322 53.66478 11.70929 10.58005 19.00943 3.927213 
80 12.24937 81.96187 10.32227 24.08176 47.28759 8.682507 
81 50.32410 91.80251 71.76533 47.62560 67.60280 56.16612 
82 48.45094 95.04594 23.03440 40.76155 67.74264 15.25518 
83 47.91670 54.94911 27.45694 18.57565 23.31004 9.428161 
84 3.781525 53.33689 81.63552 20.69117 23.08327 62.56790 
85 76.14076 97.71765 95.89858 73.61651 87.08524 97.97875 
86 74.72769 92.97172 51.48222 56.45534 73.85766 34.42697 
87 91.51768 77.11623 49.84954 57.97496 59.30683 29.97093 
88 55.99479 23.67844 88.16304 26.72589 14.66302 72.69357 
89 76.02370 54.61404 92.04182 47.81543 37.00913 84.10019 
90 52.92777 23.07148 11.01567 11.79863 8.253253 1.778400 
91 2.113597 97.73685 76.72762 43.97055 71.77826 63.64472 
92 77.95688 25.26049 74.12841 34.78432 19.59081 51.16558 
93 5.158119 95.50651 28.71841 33.97311 65.85133 17.13196 
94 4.213096 24.16053 51.05457 5.739492 4.828403 22.11112 
95 51.24030 47.80404 76.36550 27.16227 23.51555 55.72339 
96 97.40498 100.0000 75.01152 84.34403 95.37004 64.99557 
97 49.19419 5.350316 74.01136 18.18827 8.484596 49.23225 
98 91.32533 51.59153 22.20459 43.52826 34.93068 8.487730 
99 74.48121 24.34677 26.05584 23.97893 14.76617 6.505683 
100 94.19953 74.22767 93.65841 70.55641 62.11221 90.35792 
101 23.32810 75.54038 80.93191 32.52779 44.12739 65.85483 
102 56.07175 76.90790 5.268606 31.69751 46.08492 7.514563 
103 27.55381 8.135545 46.48987 5.909724 2.889518 17.80039 
104 27.88054 25.86915 72.11177 13.09692 8.639034 46.49360 
105 51.80627 80.99682 89.24284 46.82875 56.35711 82.96538 
END_DATA
