demo-projects/old/Demo-Report-Matrix-2026-08-10_231948/runs/run1/verifications/2026-07-10_100000/Demo-Report-Matrix-verify.ti3
CTI3   
KEYWORD "CHROMIQ_VERIFICATION"
CHROMIQ_VERIFICATION "true"

DESCRIPTOR "Argyll Calibration Target chart information 3"
ORIGINATOR "Argyll fakeread"
CREATED "Mon Aug 10 23:17:26 2026"
DEVICE_CLASS "DISPLAY"
COLOR_REP "iRGB_XYZ"

KEYWORD "CHROMIQ_MEASURED"
CHROMIQ_MEASURED "2026-07-10T10:00:00"
TARGET_INSTRUMENT "X-Rite ColorMunki"
NUMBER_OF_FIELDS 7
BEGIN_DATA_FORMAT
SAMPLE_ID RGB_R RGB_G RGB_B XYZ_X XYZ_Y XYZ_Z 
END_DATA_FORMAT

NUMBER_OF_SETS 105
BEGIN_DATA
1 100.0000 100.0000 100.0000 94.91639 99.73072 108.7365 
2 100.0000 100.0000 100.0000 94.63591 99.78453 108.7607 
3 100.0000 100.0000 100.0000 92.70450 98.78327 108.6597 
4 100.0000 100.0000 100.0000 94.02903 98.05695 108.1439 
5 0.00000 0.00000 0.00000 0.00398671 0.00331477 0.00526020 
6 0.00000 0.00000 0.00000 0.00124052 0.00107460 0.00470609 
7 0.00000 0.00000 0.00000 0.000106467 0.000212201 0.0000362291 
8 0.00000 0.00000 0.00000 0.00304167 0.00253804 0.00142433 
9 100.0000 100.0000 0.00000 76.58505 91.99923 14.22345 
10 0.00000 0.00000 100.0000 18.14765 7.363647 94.45582 
11 100.0000 0.00000 0.00000 41.12821 21.33112 2.152718 
12 0.00000 100.0000 100.0000 53.92999 78.68214 106.6320 
13 0.00000 100.0000 0.00000 35.56977 70.89443 12.10534 
14 100.0000 0.00000 100.0000 59.26920 28.68152 96.60627 
15 0.00000 38.69451 100.0000 22.37553 16.35508 94.16381 
16 0.00000 61.01825 0.00000 11.69306 23.30540 3.979912 
17 0.00000 0.00000 49.66734 3.971632 1.611545 20.67165 
18 100.0000 0.00000 49.59690 45.12574 22.94262 22.99166 
19 100.0000 51.96322 100.0000 66.99952 45.01184 96.40867 
20 100.0000 51.02120 0.00000 48.99469 37.00900 4.832599 
21 49.79587 0.00000 0.00000 9.669600 5.012951 0.505744 
22 100.0000 100.0000 50.20307 79.57506 91.71967 34.36075 
23 0.00000 100.0000 50.70625 40.45518 73.21455 36.49798 
24 49.48561 100.0000 100.0000 61.20846 79.73892 105.4534 
25 51.72588 100.0000 0.00000 45.71887 76.46969 12.69582 
26 50.05958 0.00000 100.0000 26.87036 11.92761 92.99023 
27 0.00000 47.79621 60.34591 12.98484 15.88741 35.04263 
28 100.0000 59.17416 43.63085 55.30594 45.58045 21.05051 
29 47.31399 48.98978 0.00000 15.27777 18.16909 2.800423 
30 52.09288 0.00000 45.52943 13.75534 6.756152 17.86141 
31 55.39583 47.66229 100.0000 36.68372 28.36414 95.72004 
32 49.20125 100.0000 50.84061 49.34559 77.88521 34.13727 
33 48.29114 47.33520 50.18713 19.43530 20.56364 23.05301 
34 0.00000 30.94905 0.00000 2.823760 5.628100 0.960884 
35 100.0000 21.19106 79.12555 52.80625 28.12242 57.56950 
36 33.94804 70.69041 100.0000 38.78945 42.62501 100.3316 
37 74.96124 25.82053 0.00000 25.15029 16.35060 1.962518 
38 0.00000 77.61705 71.72771 29.48895 45.07074 52.03120 
39 24.97790 0.00000 23.41364 2.945540 1.443652 4.109783 
40 76.31808 100.0000 28.35106 59.28614 83.34545 20.61707 
41 0.00000 77.00365 31.43299 21.79716 41.52348 13.30406 
42 75.41143 77.79628 100.0000 60.91360 59.55906 102.2084 
43 100.0000 23.29829 20.42453 42.77799 24.28261 5.711445 
44 100.0000 80.02238 22.27702 64.70092 67.08553 13.94022 
45 75.35445 100.0000 76.01304 66.41685 83.49456 65.78875 
46 75.31505 74.81469 0.00000 41.45818 50.12450 7.759508 
47 100.0000 79.49395 78.19811 73.28498 68.39373 65.28404 
48 26.41218 100.0000 75.99234 47.06162 75.62809 61.65639 
49 28.19308 28.22301 100.0000 23.43149 13.76288 95.44689 
50 76.81359 0.00000 23.55016 23.72751 12.20511 5.627328 
51 75.25932 0.00000 74.69026 31.48327 15.30161 48.29030 
52 29.89921 74.23536 0.00000 22.34860 39.88365 6.694911 
53 25.50439 100.0000 24.78846 38.80907 72.77706 17.38960 
54 77.21225 23.71451 100.0000 42.78725 22.38588 96.18350 
55 0.00000 21.07405 72.23364 10.22137 6.099764 47.21777 
56 26.28049 0.00000 71.93547 11.05808 4.732207 46.33800 
57 0.00000 19.89483 30.07019 2.495343 2.906397 7.183975 
58 26.28079 33.45692 23.52814 6.561018 8.889559 5.453777 
59 66.56754 70.38587 52.30860 38.77584 44.18296 29.01365 
60 75.09479 52.62129 65.01886 37.96711 31.91073 39.22506 
61 26.64973 49.33561 81.42125 21.47963 20.14199 65.22049 
62 45.91179 68.61670 63.70484 30.82528 38.68313 39.96772 
63 71.11740 50.49568 34.71935 30.00061 26.55556 12.93019 
64 54.43736 27.35888 62.61652 20.33641 12.95180 34.86460 
65 34.69612 74.79966 32.60823 24.45865 40.43232 14.88120 
66 74.85889 20.44437 50.18860 27.41914 15.46090 22.37179 
67 47.85106 20.11464 33.14580 10.97018 6.762485 9.147173 
68 27.20651 32.63652 48.27367 9.072319 8.545895 19.53804 
69 27.58870 24.69734 0.00000 4.241876 4.732090 0.717776 
70 0.00000 69.14068 100.0000 33.98571 38.93085 99.84528 
71 20.53684 59.80271 49.57175 16.83817 25.30874 23.99782 
72 0.00000 46.98630 28.11508 7.985789 14.00197 8.585133 
73 73.54294 75.32966 75.96305 50.82353 54.54669 57.20907 
74 63.36650 75.70063 29.24590 36.87026 47.82724 14.12656 
75 100.0000 50.88622 71.33775 58.07735 41.48311 50.79502 
76 23.55356 85.77019 53.26247 31.58943 52.47310 33.99988 
77 100.0000 29.41094 48.41781 45.88554 26.84776 22.07543 
78 72.19800 51.56213 8.666635 29.13196 27.69229 4.475810 
79 21.36322 53.66478 11.70929 10.06024 17.64880 3.840235 
80 12.24937 81.96187 10.32227 24.11776 47.11019 8.631214 
81 50.32410 91.80251 71.76533 47.12419 66.37281 55.80948 
82 48.45094 95.04594 23.03440 41.55153 68.96268 15.15470 
83 47.91670 54.94911 27.45694 19.44616 25.57153 9.269817 
84 3.781525 53.33689 81.63552 21.44192 23.82900 65.12076 
85 76.14076 97.71765 95.89858 72.35577 84.90925 100.0932 
86 74.72769 92.97172 51.48222 56.62228 73.02827 32.86419 
87 91.51768 77.11623 49.84954 55.91083 56.59197 27.21916 
88 55.99479 23.67844 88.16304 27.13585 14.86663 72.21032 
89 76.02370 54.61404 92.04182 49.03835 38.46006 84.26110 
90 52.92777 23.07148 11.01567 11.65177 7.852750 1.630214 
91 2.113597 97.73685 76.72762 44.94752 73.44271 64.71299 
92 77.95688 25.26049 74.12841 35.52489 20.01038 53.06446 
93 5.158119 95.50651 28.71841 34.95610 67.36573 18.22306 
94 4.213096 24.16053 51.05457 5.433823 4.421747 21.32858 
95 51.24030 47.80404 76.36550 25.82383 22.50289 54.13637 
96 97.40498 100.0000 75.01152 84.59339 95.52474 64.94893 
97 49.19419 5.350316 74.01136 17.38837 8.057142 48.41984 
98 91.32533 51.59153 22.20459 41.48194 32.98434 7.643325 
99 74.48121 24.34677 26.05584 24.75627 15.22584 6.683372 
100 94.19953 74.22767 93.65841 70.49424 61.69053 89.44133 
101 23.32810 75.54038 80.93191 32.14073 44.14651 64.54489 
102 56.07175 76.90790 5.268606 32.37228 46.56109 7.635954 
103 27.55381 8.135545 46.48987 5.926216 2.884793 18.44255 
104 27.88054 25.86915 72.11177 13.57889 8.490385 48.79633 
105 51.80627 80.99682 89.24284 46.50599 56.49132 82.32265 
END_DATA
