assets/charts/knut/rgb/colormunki/cm_a4_374p_1page_portrait_w10_0mm_very_slow_reading_speed/chart.ti1
CTI1   

DESCRIPTOR "Argyll Calibration Target chart information 1"
ORIGINATOR "ChromIQ"
APPROX_WHITE_POINT "95.050000 100.000000 108.900000"
COLOR_REP "iRGB"
WHITE_COLOR_PATCHES "1"
BLACK_COLOR_PATCHES "1"
CREATED "Sun Aug 16 16:13:09 2026"

NUMBER_OF_FIELDS 7
BEGIN_DATA_FORMAT
SAMPLE_ID RGB_R RGB_G RGB_B XYZ_X XYZ_Y XYZ_Z
END_DATA_FORMAT

NUMBER_OF_SETS 374
BEGIN_DATA
1 0.0000 0.0000 0.0000 0.9505 1.0000 1.0890
2 0.0000 0.0000 20.0000 1.5421 1.2366 4.2041
3 0.0000 0.0000 40.0000 3.3248 1.9497 13.5918
4 0.0000 0.0000 60.0000 6.6428 3.2769 31.0641
5 0.0000 0.0000 80.0000 11.7406 5.3160 57.9089
6 0.0000 0.0000 100.0000 18.8200 8.1478 95.1885
7 0.0000 20.0000 0.0000 2.1225 3.3440 1.4797
8 0.0000 20.0000 20.0000 2.7141 3.5806 4.5948
9 0.0000 20.0000 40.0000 4.4968 4.2937 13.9825
10 0.0000 20.0000 60.0000 7.8148 5.6209 31.4548
11 0.0000 20.0000 80.0000 12.9126 7.6600 58.2995
12 0.0000 20.0000 100.0000 19.9920 10.4918 95.5792
13 0.0000 40.0000 0.0000 5.6544 10.4077 2.6570
14 0.0000 40.0000 20.0000 6.2459 10.6443 5.7721
15 0.0000 40.0000 40.0000 8.0286 11.3574 15.1598
16 0.0000 40.0000 60.0000 11.3466 12.6846 32.6320
17 0.0000 40.0000 80.0000 16.4445 14.7238 59.4768
18 0.0000 40.0000 100.0000 23.5239 17.5555 96.7565
19 0.0000 60.0000 0.0000 12.2278 23.5546 4.8481
20 0.0000 60.0000 20.0000 12.8194 23.7913 7.9632
21 0.0000 60.0000 40.0000 14.6021 24.5044 17.3509
22 0.0000 60.0000 60.0000 17.9201 25.8315 34.8232
23 0.0000 60.0000 80.0000 23.0179 27.8707 61.6680
24 0.0000 60.0000 100.0000 30.0973 30.7024 98.9476
25 0.0000 80.0000 0.0000 22.3274 43.7539 8.2146
26 0.0000 80.0000 20.0000 22.9190 43.9905 11.3298
27 0.0000 80.0000 40.0000 24.7017 44.7036 20.7175
28 0.0000 80.0000 60.0000 28.0197 46.0308 38.1897
29 0.0000 80.0000 80.0000 33.1175 48.0699 65.0345
30 0.0000 80.0000 100.0000 40.1969 50.9017 102.3141
31 0.0000 100.0000 0.0000 36.3529 71.8048 12.8898
32 0.0000 100.0000 20.0000 36.9445 72.0414 16.0049
33 0.0000 100.0000 40.0000 38.7272 72.7545 25.3926
34 0.0000 100.0000 60.0000 42.0452 74.0817 42.8649
35 0.0000 100.0000 80.0000 47.1430 76.1208 69.7097
36 0.0000 100.0000 100.0000 54.2224 78.9526 106.9893
37 20.0000 0.0000 0.0000 2.3021 1.6968 1.1523
38 20.0000 0.0000 20.0000 2.8937 1.9334 4.2674
39 20.0000 0.0000 40.0000 4.6764 2.6465 13.6551
40 20.0000 0.0000 60.0000 7.9944 3.9737 31.1273
41 20.0000 0.0000 80.0000 13.0922 6.0128 57.9721
42 20.0000 0.0000 100.0000 20.1716 8.8446 95.2518
43 20.0000 20.0000 0.0000 3.4741 4.0407 1.5429
44 20.0000 20.0000 20.0000 4.0656 4.2774 4.6581
45 20.0000 20.0000 40.0000 5.8484 4.9905 14.0458
46 20.0000 20.0000 60.0000 9.1663 6.3177 31.5180
47 20.0000 20.0000 80.0000 14.2642 8.3568 58.3628
48 20.0000 20.0000 100.0000 21.3436 11.1885 95.6424
49 20.0000 40.0000 0.0000 7.0059 11.1045 2.7202
50 20.0000 40.0000 20.0000 7.5975 11.3411 5.8353
51 20.0000 40.0000 40.0000 9.3802 12.0542 15.2230
52 20.0000 40.0000 60.0000 12.6982 13.3814 32.6953
53 20.0000 40.0000 80.0000 17.7960 15.4205 59.5401
54 20.0000 40.0000 100.0000 24.8754 18.2523 96.8197
55 20.0000 60.0000 0.0000 13.5794 24.2514 4.9114
56 20.0000 60.0000 20.0000 14.1710 24.4880 8.0265
57 20.0000 60.0000 40.0000 15.9537 25.2011 17.4142
58 20.0000 60.0000 60.0000 19.2717 26.5283 34.8865
59 20.0000 60.0000 80.0000 24.3695 28.5674 61.7312
60 20.0000 60.0000 100.0000 31.4489 31.3992 99.0109
61 20.0000 80.0000 0.0000 23.6790 44.4506 8.2779
62 20.0000 80.0000 20.0000 24.2706 44.6873 11.3930
63 20.0000 80.0000 40.0000 26.0533 45.4004 20.7807
64 20.0000 80.0000 60.0000 29.3713 46.7276 38.2530
65 20.0000 80.0000 80.0000 34.4691 48.7667 65.0977
66 20.0000 80.0000 100.0000 41.5485 51.5984 102.3774
67 20.0000 100.0000 0.0000 37.7045 72.5016 12.9531
68 20.0000 100.0000 20.0000 38.2961 72.7382 16.0682
69 20.0000 100.0000 40.0000 40.0788 73.4513 25.4559
70 20.0000 100.0000 60.0000 43.3968 74.7785 42.9281
71 20.0000 100.0000 80.0000 48.4946 76.8176 69.7729
72 20.0000 100.0000 100.0000 55.5740 79.6494 107.0526
73 40.0000 0.0000 0.0000 6.3752 3.7965 1.3429
74 40.0000 0.0000 20.0000 6.9668 4.0332 4.4580
75 40.0000 0.0000 40.0000 8.7495 4.7462 13.8457
76 40.0000 0.0000 60.0000 12.0675 6.0734 31.3180
77 40.0000 0.0000 80.0000 17.1653 8.1126 58.1627
78 40.0000 0.0000 100.0000 24.2447 10.9443 95.4424
79 40.0000 20.0000 0.0000 7.5472 6.1405 1.7335
80 40.0000 20.0000 20.0000 8.1387 6.3771 4.8487
81 40.0000 20.0000 40.0000 9.9215 7.0902 14.2364
82 40.0000 20.0000 60.0000 13.2395 8.4174 31.7086
83 40.0000 20.0000 80.0000 18.3373 10.4565 58.5534
84 40.0000 20.0000 100.0000 25.4167 13.2883 95.8330
85 40.0000 40.0000 0.0000 11.0791 13.2042 2.9108
86 40.0000 40.0000 20.0000 11.6706 13.4409 6.0260
87 40.0000 40.0000 40.0000 13.4533 14.1540 15.4137
88 40.0000 40.0000 60.0000 16.7713 15.4812 32.8859
89 40.0000 40.0000 80.0000 21.8691 17.5203 59.7307
90 40.0000 40.0000 100.0000 28.9486 20.3520 97.0103
91 40.0000 60.0000 0.0000 17.6525 26.3512 5.1020
92 40.0000 60.0000 20.0000 18.2441 26.5878 8.2171
93 40.0000 60.0000 40.0000 20.0268 27.3009 17.6048
94 40.0000 60.0000 60.0000 23.3448 28.6281 35.0771
95 40.0000 60.0000 80.0000 28.4426 30.6672 61.9218
96 40.0000 60.0000 100.0000 35.5220 33.4990 99.2015
97 40.0000 80.0000 0.0000 27.7521 46.5504 8.4685
98 40.0000 80.0000 20.0000 28.3437 46.7870 11.5837
99 40.0000 80.0000 40.0000 30.1264 47.5001 20.9714
100 40.0000 80.0000 60.0000 33.4444 48.8273 38.4436
101 40.0000 80.0000 80.0000 38.5422 50.8664 65.2884
102 40.0000 80.0000 100.0000 45.6216 53.6982 102.5680
103 40.0000 100.0000 0.0000 41.7776 74.6013 13.1437
104 40.0000 100.0000 20.0000 42.3692 74.8380 16.2588
105 40.0000 100.0000 40.0000 44.1519 75.5510 25.6465
106 40.0000 100.0000 60.0000 47.4699 76.8782 43.1188
107 40.0000 100.0000 80.0000 52.5677 78.9174 69.9635
108 40.0000 100.0000 100.0000 59.6471 81.7491 107.2432
109 60.0000 0.0000 0.0000 13.9560 7.7046 1.6976
110 60.0000 0.0000 20.0000 14.5476 7.9412 4.8128
111 60.0000 0.0000 40.0000 16.3303 8.6543 14.2005
112 60.0000 0.0000 60.0000 19.6483 9.9815 31.6727
113 60.0000 0.0000 80.0000 24.7461 12.0206 58.5175
114 60.0000 0.0000 100.0000 31.8255 14.8524 95.7971
115 60.0000 20.0000 0.0000 15.1280 10.0486 2.0883
116 60.0000 20.0000 20.0000 15.7196 10.2852 5.2035
117 60.0000 20.0000 40.0000 17.5023 10.9983 14.5912
118 60.0000 20.0000 60.0000 20.8203 12.3255 32.0634
119 60.0000 20.0000 80.0000 25.9181 14.3646 58.9082
120 60.0000 20.0000 100.0000 32.9975 17.1964 96.1878
121 60.0000 40.0000 0.0000 18.6599 17.1123 3.2656
122 60.0000 40.0000 20.0000 19.2514 17.3489 6.3807
123 60.0000 40.0000 40.0000 21.0341 18.0620 15.7684
124 60.0000 40.0000 60.0000 24.3521 19.3892 33.2407
125 60.0000 40.0000 80.0000 29.4500 21.4283 60.0855
126 60.0000 40.0000 100.0000 36.5294 24.2601 97.3651
127 60.0000 60.0000 0.0000 25.2333 30.2592 5.4568
128 60.0000 60.0000 20.0000 25.8249 30.4958 8.5719
129 60.0000 60.0000 40.0000 27.6076 31.2089 17.9596
130 60.0000 60.0000 60.0000 30.9256 32.5361 35.4318
131 60.0000 60.0000 80.0000 36.0234 34.5753 62.2766
132 60.0000 60.0000 100.0000 43.1028 37.4070 99.5563
133 60.0000 80.0000 0.0000 35.3329 50.4585 8.8233
134 60.0000 80.0000 20.0000 35.9245 50.6951 11.9384
135 60.0000 80.0000 40.0000 37.7072 51.4082 21.3261
136 60.0000 80.0000 60.0000 41.0252 52.7354 38.7984
137 60.0000 80.0000 80.0000 46.1230 54.7745 65.6431
138 60.0000 80.0000 100.0000 53.2024 57.6063 102.9228
139 60.0000 100.0000 0.0000 49.3584 78.5094 13.4984
140 60.0000 100.0000 20.0000 49.9500 78.7460 16.6136
141 60.0000 100.0000 40.0000 51.7327 79.4591 26.0013
142 60.0000 100.0000 60.0000 55.0507 80.7863 43.4735
143 60.0000 100.0000 80.0000 60.1485 82.8254 70.3183
144 60.0000 100.0000 100.0000 67.2279 85.6572 107.5979
145 80.0000 0.0000 0.0000 25.6033 13.7090 2.2427
146 80.0000 0.0000 20.0000 26.1949 13.9456 5.3579
147 80.0000 0.0000 40.0000 27.9776 14.6587 14.7456
148 80.0000 0.0000 60.0000 31.2956 15.9859 32.2178
149 80.0000 0.0000 80.0000 36.3934 18.0250 59.0626
150 80.0000 0.0000 100.0000 43.4728 20.8568 96.3422
151 80.0000 20.0000 0.0000 26.7753 16.0530 2.6334
152 80.0000 20.0000 20.0000 27.3669 16.2896 5.7485
153 80.0000 20.0000 40.0000 29.1496 17.0027 15.1362
154 80.0000 20.0000 60.0000 32.4676 18.3299 32.6085
155 80.0000 20.0000 80.0000 37.5654 20.3690 59.4532
156 80.0000 20.0000 100.0000 44.6448 23.2008 96.7329
157 80.0000 40.0000 0.0000 30.3072 23.1167 3.8107
158 80.0000 40.0000 20.0000 30.8987 23.3533 6.9258
159 80.0000 40.0000 40.0000 32.6815 24.0664 16.3135
160 80.0000 40.0000 60.0000 35.9995 25.3936 33.7858
161 80.0000 40.0000 80.0000 41.0973 27.4327 60.6305
162 80.0000 40.0000 100.0000 48.1767 30.2645 97.9102
163 80.0000 60.0000 0.0000 36.8806 36.2636 6.0018
164 80.0000 60.0000 20.0000 37.4722 36.5003 9.1170
165 80.0000 60.0000 40.0000 39.2549 37.2134 18.5047
166 80.0000 60.0000 60.0000 42.5729 38.5405 35.9769
167 80.0000 60.0000 80.0000 47.6707 40.5797 62.8217
168 80.0000 60.0000 100.0000 54.7501 43.4114 100.1013
169 80.0000 80.0000 0.0000 46.9803 56.4629 9.3684
170 80.0000 80.0000 20.0000 47.5718 56.6995 12.4835
171 80.0000 80.0000 40.0000 49.3545 57.4126 21.8712
172 80.0000 80.0000 60.0000 52.6725 58.7398 39.3435
173 80.0000 80.0000 80.0000 57.7704 60.7789 66.1882
174 80.0000 80.0000 100.0000 64.8498 63.6107 103.4679
175 80.0000 100.0000 0.0000 61.0057 84.5138 14.0435
176 80.0000 100.0000 20.0000 61.5973 84.7504 17.1587
177 80.0000 100.0000 40.0000 63.3800 85.4635 26.5464
178 80.0000 100.0000 60.0000 66.6980 86.7907 44.0186
179 80.0000 100.0000 80.0000 71.7958 88.8298 70.8634
180 80.0000 100.0000 100.0000 78.8752 91.6616 108.1430
181 100.0000 0.0000 0.0000 41.7781 22.0474 2.9997
182 100.0000 0.0000 20.0000 42.3697 22.2840 6.1148
183 100.0000 0.0000 40.0000 44.1524 22.9971 15.5025
184 100.0000 0.0000 60.0000 47.4704 24.3243 32.9748
185 100.0000 0.0000 80.0000 52.5682 26.3634 59.8196
186 100.0000 0.0000 100.0000 59.6476 29.1952 97.0992
187 100.0000 20.0000 0.0000 42.9501 24.3914 3.3904
188 100.0000 20.0000 20.0000 43.5417 24.6280 6.5055
189 100.0000 20.0000 40.0000 45.3244 25.3411 15.8932
190 100.0000 20.0000 60.0000 48.6424 26.6683 33.3655
191 100.0000 20.0000 80.0000 53.7402 28.7074 60.2102
192 100.0000 20.0000 100.0000 60.8196 31.5392 97.4899
193 100.0000 40.0000 0.0000 46.4820 31.4551 4.5677
194 100.0000 40.0000 20.0000 47.0735 31.6917 7.6828
195 100.0000 40.0000 40.0000 48.8562 32.4048 17.0705
196 100.0000 40.0000 60.0000 52.1742 33.7320 34.5427
197 100.0000 40.0000 80.0000 57.2721 35.7712 61.3875
198 100.0000 40.0000 100.0000 64.3515 38.6029 98.6672
199 100.0000 60.0000 0.0000 53.0554 44.6020 6.7588
200 100.0000 60.0000 20.0000 53.6470 44.8387 9.8739
201 100.0000 60.0000 40.0000 55.4297 45.5518 19.2616
202 100.0000 60.0000 60.0000 58.7477 46.8789 36.7339
203 100.0000 60.0000 80.0000 63.8455 48.9181 63.5787
204 100.0000 60.0000 100.0000 70.9249 51.7498 100.8583
205 100.0000 80.0000 0.0000 63.1550 64.8013 10.1253
206 100.0000 80.0000 20.0000 63.7466 65.0379 13.2405
207 100.0000 80.0000 40.0000 65.5293 65.7510 22.6282
208 100.0000 80.0000 60.0000 68.8473 67.0782 40.1004
209 100.0000 80.0000 80.0000 73.9451 69.1173 66.9452
210 100.0000 80.0000 100.0000 81.0245 71.9491 104.2248
211 100.0000 100.0000 0.0000 77.1805 92.8522 14.8005
212 100.0000 100.0000 20.0000 77.7721 93.0888 17.9156
213 100.0000 100.0000 40.0000 79.5548 93.8019 27.3033
214 100.0000 100.0000 60.0000 82.8728 95.1291 44.7756
215 100.0000 100.0000 80.0000 87.9706 97.1682 71.6204
216 100.0000 100.0000 100.0000 95.0500 100.0000 108.9000
217 10.0000 0.0000 0.0000 1.3597 1.2110 1.1082
218 30.0000 0.0000 0.0000 3.9407 2.5415 1.2289
219 50.0000 0.0000 0.0000 9.6893 5.5050 1.4980
220 70.0000 0.0000 0.0000 19.2408 10.4290 1.9450
221 90.0000 0.0000 0.0000 33.0987 17.5730 2.5935
222 0.0000 10.0000 0.0000 1.3053 1.7097 1.2073
223 0.0000 30.0000 0.0000 3.5433 6.1857 1.9533
224 0.0000 50.0000 0.0000 8.5281 16.1551 3.6149
225 0.0000 70.0000 0.0000 16.8104 32.7197 6.3756
226 0.0000 90.0000 0.0000 28.8268 56.7526 10.3811
227 0.0000 0.0000 10.0000 1.1296 1.0716 2.0321
228 0.0000 0.0000 30.0000 2.2592 1.5235 7.9807
229 0.0000 0.0000 50.0000 4.7753 2.5299 21.2302
230 0.0000 0.0000 70.0000 8.9558 4.2021 43.2445
231 0.0000 0.0000 90.0000 15.0212 6.6283 75.1841
232 100.0000 10.0000 0.0000 42.1329 22.7571 3.1180
233 100.0000 30.0000 0.0000 44.3709 27.2331 3.8640
234 100.0000 50.0000 0.0000 49.3557 37.2025 5.5256
235 100.0000 70.0000 0.0000 57.6380 53.7671 8.2863
236 100.0000 90.0000 0.0000 69.6544 77.8000 12.2918
237 100.0000 0.0000 10.0000 41.9572 22.1190 3.9428
238 100.0000 0.0000 30.0000 43.0868 22.5709 9.8914
239 100.0000 0.0000 50.0000 45.6029 23.5773 23.1409
240 100.0000 0.0000 70.0000 49.7834 25.2495 45.1552
241 100.0000 0.0000 90.0000 55.8488 27.6757 77.0948
242 10.0000 100.0000 0.0000 36.7621 72.0158 12.9090
243 30.0000 100.0000 0.0000 39.3431 73.3463 13.0297
244 50.0000 100.0000 0.0000 45.0917 76.3098 13.2988
245 70.0000 100.0000 0.0000 54.6432 81.2338 13.7458
246 90.0000 100.0000 0.0000 68.5011 88.3778 14.3943
247 0.0000 100.0000 10.0000 36.5320 71.8764 13.8329
248 0.0000 100.0000 30.0000 37.6616 72.3283 19.7815
249 0.0000 100.0000 50.0000 40.1777 73.3347 33.0310
250 0.0000 100.0000 70.0000 44.3582 75.0069 55.0453
251 0.0000 100.0000 90.0000 50.4236 77.4331 86.9849
252 0.0000 10.0000 100.0000 19.1748 8.8575 95.3068
253 0.0000 30.0000 100.0000 21.4128 13.3335 96.0528
254 0.0000 50.0000 100.0000 26.3976 23.3029 97.7144
255 0.0000 70.0000 100.0000 34.6799 39.8675 100.4751
256 0.0000 90.0000 100.0000 46.6963 63.9004 104.4806
257 10.0000 0.0000 100.0000 19.2292 8.3588 95.2077
258 30.0000 0.0000 100.0000 21.8102 9.6893 95.3284
259 50.0000 0.0000 100.0000 27.5588 12.6528 95.5975
260 70.0000 0.0000 100.0000 37.1103 17.5768 96.0445
261 90.0000 0.0000 100.0000 50.9682 24.7208 96.6930
262 100.0000 100.0000 10.0000 77.3596 92.9238 15.7436
263 100.0000 100.0000 30.0000 78.4892 93.3757 21.6922
264 100.0000 100.0000 50.0000 81.0053 94.3821 34.9417
265 100.0000 100.0000 70.0000 85.1858 96.0543 56.9560
266 100.0000 100.0000 90.0000 91.2512 98.4805 88.8956
267 10.0000 100.0000 100.0000 54.6316 79.1636 107.0085
268 30.0000 100.0000 100.0000 57.2126 80.4941 107.1292
269 50.0000 100.0000 100.0000 62.9612 83.4576 107.3983
270 70.0000 100.0000 100.0000 72.5127 88.3816 107.8453
271 90.0000 100.0000 100.0000 86.3706 95.5256 108.4938
272 100.0000 10.0000 100.0000 60.0024 29.9049 97.2175
273 100.0000 30.0000 100.0000 62.2404 34.3809 97.9635
274 100.0000 50.0000 100.0000 67.2252 44.3503 99.6251
275 100.0000 70.0000 100.0000 75.5075 60.9149 102.3858
276 100.0000 90.0000 100.0000 87.5239 84.9478 106.3913
277 0.0000 0.0000 2.0000 0.9782 1.0111 1.2347
278 7.6923 7.6923 7.6923 1.5910 1.6739 1.8229
279 15.3846 15.3846 15.3846 2.8796 3.0296 3.2992
280 23.0769 23.0769 23.0769 5.0452 5.3079 5.7803
281 30.7692 30.7692 30.7692 8.2061 8.6335 9.4018
282 38.4615 38.4615 38.4615 12.4626 13.1117 14.2786
283 46.1538 46.1538 46.1538 17.9028 18.8351 20.5114
284 53.8462 53.8462 53.8462 24.6055 25.8869 28.1909
285 61.5385 61.5385 61.5385 32.6432 34.3432 37.3997
286 69.2308 69.2308 69.2308 42.0825 44.2741 48.2145
287 76.9231 76.9231 76.9231 52.9859 55.7453 60.7066
288 84.6154 84.6154 84.6154 65.4118 68.8183 74.9431
289 92.3077 92.3077 92.3077 79.4156 83.5514 90.9875
290 98.0000 100.0000 100.0000 93.2170 99.0551 108.8142
291 2.6667 0.0000 0.0000 1.0348 1.0434 1.0929
292 0.1786 2.4880 0.0000 1.0243 1.1393 1.1120
293 0.0000 2.6667 2.0000 1.0512 1.1572 1.2590
294 2.0000 1.3333 1.3333 1.0687 1.1130 1.2012
295 0.0000 0.0000 4.0809 1.0070 1.0226 1.3863
296 2.7475 0.0000 2.7475 1.0753 1.0600 1.2932
297 10.3590 6.3590 6.3590 1.6636 1.6338 1.6675
298 9.0256 9.0256 5.0256 1.6750 1.8161 1.5791
299 6.3590 10.3590 6.3590 1.6348 1.8984 1.7200
300 5.0256 9.0256 9.0256 1.5690 1.7519 2.0048
301 6.3590 6.3590 10.3590 1.5415 1.5599 2.1577
302 9.0256 5.0256 9.0256 1.5941 1.5221 1.9592
303 18.0513 14.0513 14.0513 2.9995 2.9398 2.9944
304 16.7179 16.7179 12.7179 3.0275 3.2902 2.8050
305 14.0513 18.0513 14.0513 2.9461 3.4302 3.0919
306 12.7179 16.7179 16.7179 2.8206 3.1649 3.6359
307 14.0513 14.0513 18.0513 2.7733 2.8029 3.9030
308 16.7179 12.7179 16.7179 2.8695 2.7164 3.5468
309 25.7436 21.7436 21.7436 5.2182 5.1591 5.3009
310 24.4103 24.4103 20.4103 5.2659 5.7050 4.9914
311 21.7436 25.7436 21.7436 5.1363 5.9106 5.4503
312 20.4103 24.4103 24.4103 4.9411 5.5083 6.2959
313 21.7436 21.7436 25.7436 4.8714 4.9491 6.6933
314 24.4103 20.4103 24.4103 5.0178 4.8043 6.1559
315 33.4359 29.4359 29.4359 8.4373 8.4180 8.7272
316 32.1026 32.1026 28.1026 8.5074 9.1822 8.2825
317 29.4359 33.4359 29.4359 8.3237 9.4600 8.9343
318 28.1026 32.1026 32.1026 8.0507 8.9057 10.1162
319 29.4359 29.4359 33.4359 7.9566 8.1269 10.6578
320 32.1026 28.1026 32.1026 8.1586 7.9160 9.9195
321 41.1282 37.1282 37.1282 12.7566 12.8231 13.3910
322 39.7949 39.7949 35.7949 12.8511 13.8251 12.7979
323 37.1282 41.1282 37.1282 12.6085 14.1809 13.6609
324 35.7949 39.7949 39.7949 12.2506 13.4616 15.2092
325 37.1282 37.1282 41.1282 12.1300 12.4438 15.9068
326 39.7949 35.7949 39.7949 12.3925 12.1602 14.9505
327 48.8205 44.8205 44.8205 18.2634 18.4677 19.3950
328 47.4872 47.4872 43.4872 18.3844 19.7250 18.6422
329 44.8205 48.8205 44.8205 18.0784 20.1640 19.7322
330 43.4872 47.4872 47.4872 17.6295 19.2679 21.6737
331 44.8205 44.8205 48.8205 17.4807 17.9938 22.5380
332 47.4872 43.4872 47.4872 17.8079 17.6318 21.3484
333 56.5128 52.5128 52.5128 25.0366 25.4355 26.8314
334 55.1795 55.1795 51.1795 25.1858 26.9639 25.9084
335 52.5128 56.5128 52.5128 24.8125 27.4910 27.2399
336 51.1795 55.1795 55.1795 24.2668 26.4075 29.5988
337 52.5128 52.5128 56.5128 24.0882 24.8613 30.6397
338 55.1795 51.1795 55.1795 24.4840 24.4157 29.2029
339 64.2051 60.2051 60.2051 33.1481 33.8030 35.7840
340 62.8718 62.8718 58.8718 33.3272 35.6170 34.6814
341 60.2051 64.2051 60.2051 32.8828 36.2365 36.2677
342 58.8718 62.8718 62.8718 32.2352 34.9559 39.0663
343 60.2051 60.2051 64.2051 32.0253 33.1233 40.2927
344 62.8718 58.8718 62.8718 32.4932 32.5892 38.5959
345 71.8974 67.8974 67.8974 42.6646 43.6409 46.3303
346 70.5641 70.5641 66.5641 42.8749 45.7539 45.0393
347 67.8974 71.8974 67.8974 42.3561 46.4700 46.8927
348 66.5641 70.5641 70.5641 41.6017 44.9831 50.1517
349 67.8974 67.8974 71.8974 41.3592 42.8506 51.5720
350 70.5641 66.5641 70.5641 41.9026 42.2238 49.6033
351 79.5897 75.5897 75.5897 53.6480 55.0149 58.5426
352 78.2564 78.2564 74.2564 53.8910 57.4396 57.0550
353 75.5897 79.5897 75.5897 53.2946 58.2561 59.1869
354 74.2564 78.2564 78.2564 52.4290 56.5545 62.9258
355 75.5897 75.5897 79.5897 52.1525 54.1095 64.5479
356 78.2564 74.2564 78.2564 52.7745 53.3858 62.2959
357 87.2821 83.2821 83.2821 66.1569 67.9869 72.4885
358 85.9487 85.9487 81.9487 66.4339 70.7352 70.7965
359 83.2821 87.2821 83.2821 65.7569 71.6559 73.2178
360 81.9487 85.9487 85.9487 64.7758 69.7313 77.4549
361 83.2821 83.2821 87.2821 64.4641 66.9620 79.2863
362 85.9487 81.9487 85.9487 65.1676 66.1376 76.7406
363 94.9744 90.9744 90.9744 80.2465 82.6154 88.2322
364 93.6410 93.6410 89.6410 80.5587 85.6986 86.3284
365 90.9744 94.9744 90.9744 79.7982 86.7268 89.0494
366 89.6410 93.6410 93.6410 78.6975 84.5718 93.8019
367 90.9744 90.9744 94.9744 78.3495 81.4669 95.8497
368 93.6410 89.6410 93.6410 79.1373 80.5381 93.0002
369 98.8453 97.5120 97.5120 91.0202 95.1119 102.9549
370 100.0000 100.0000 97.3333 93.9851 99.5740 103.2923
371 97.2525 98.5858 98.6667 90.8790 96.2369 105.5777
372 95.3333 100.0000 100.0000 90.8491 97.8344 108.7034
373 98.6667 96.6667 100.0000 91.1971 94.1164 107.9674
374 100.0000 95.9191 98.5858 91.2824 93.3761 104.8350
END_DATA
CTI1   

DESCRIPTOR "Argyll Calibration Target chart information 1"
ORIGINATOR "ChromIQ"
DENSITY_EXTREME_VALUES "8"
CREATED "Sun Aug 16 16:13:09 2026"

NUMBER_OF_FIELDS 7
BEGIN_DATA_FORMAT
INDEX RGB_R RGB_G RGB_B XYZ_X XYZ_Y XYZ_Z
END_DATA_FORMAT

NUMBER_OF_SETS 8
BEGIN_DATA
0 100.0000 100.0000 100.0000 95.0500 100.0000 108.9000
1 0.0000 100.0000 100.0000 54.2224 78.9526 106.9893
2 100.0000 0.0000 100.0000 59.6476 29.1952 97.0992
3 0.0000 0.0000 100.0000 18.8200 8.1478 95.1885
4 100.0000 100.0000 0.0000 77.1805 92.8522 14.8005
5 0.0000 100.0000 0.0000 36.3529 71.8048 12.8898
6 100.0000 0.0000 0.0000 41.7781 22.0474 2.9997
7 0.0000 0.0000 0.0000 0.9505 1.0000 1.0890
END_DATA
CTI1   

DESCRIPTOR "Argyll Calibration Target chart information 1"
ORIGINATOR "ChromIQ"
DEVICE_COMBINATION_VALUES "9"
CREATED "Sun Aug 16 16:13:09 2026"

NUMBER_OF_FIELDS 7
BEGIN_DATA_FORMAT
INDEX RGB_R RGB_G RGB_B XYZ_X XYZ_Y XYZ_Z
END_DATA_FORMAT

NUMBER_OF_SETS 9
BEGIN_DATA
0 100.0000 100.0000 100.0000 95.0500 100.0000 108.9000
1 0.0000 100.0000 100.0000 54.2224 78.9526 106.9893
2 100.0000 0.0000 100.0000 59.6476 29.1952 97.0992
3 0.0000 0.0000 100.0000 18.8200 8.1478 95.1885
4 100.0000 100.0000 0.0000 77.1805 92.8522 14.8005
5 0.0000 100.0000 0.0000 36.3529 71.8048 12.8898
6 100.0000 0.0000 0.0000 41.7781 22.0474 2.9997
7 0.0000 0.0000 0.0000 0.9505 1.0000 1.0890
8 50.0000 50.0000 50.0000 21.0917 22.1901 24.1650
END_DATA
