demo-projects/old/Demo-Report-Matrix-2026-08-11_112103/runs/run1/verifications/2026-08-01_100000/Demo-Report-Matrix-verify.ti3
CTI3   
KEYWORD "CHROMIQ_VERIFICATION"
CHROMIQ_VERIFICATION "true"

DESCRIPTOR "Argyll Calibration Target chart information 3"
ORIGINATOR "Argyll fakeread"
CREATED "Mon Aug 10 23:21:27 2026"
DEVICE_CLASS "DISPLAY"
COLOR_REP "iRGB_XYZ"

KEYWORD "CHROMIQ_MEASURED"
CHROMIQ_MEASURED "2026-08-01T10:00:00"
TARGET_INSTRUMENT "X-Rite ColorMunki"
NUMBER_OF_FIELDS 7
BEGIN_DATA_FORMAT
SAMPLE_ID RGB_R RGB_G RGB_B XYZ_X XYZ_Y XYZ_Z 
END_DATA_FORMAT

NUMBER_OF_SETS 108
BEGIN_DATA
1 107.7174 98.90280 86.09210 89.42361 96.57398 82.87354 
2 107.7174 98.90280 86.09210 89.28131 96.51022 82.14989 
3 107.7174 98.90280 86.09210 88.60921 95.48868 80.94354 
4 107.7174 98.90280 86.09210 89.31031 96.20152 83.28500 
5 0.00000 0.00000 0.00000 0.00000 0.00000 0.00000 
6 0.00000 0.00000 0.00000 0.000273648 0.000186662 0.0000423784 
7 0.00000 0.00000 0.00000 3.33505e-06 1.72750e-06 1.72368e-07 
8 0.00000 0.00000 0.00000 3.18894e-06 1.65182e-06 1.64816e-07 
9 104.1090 95.58970 83.20820 86.07485 91.92762 75.50129 
10 100.5121 92.28720 80.33340 82.15986 85.23919 70.73975 
11 96.92610 88.99450 77.46730 76.62936 79.47219 65.69722 
12 93.35250 85.71340 74.61110 69.17720 71.73710 60.24607 
13 89.79070 82.44300 71.76440 64.33881 66.35912 54.98395 
14 86.24070 79.18360 68.92710 59.27673 61.52077 50.19077 
15 82.70480 75.93700 66.10100 54.22890 56.14071 47.14514 
16 79.18120 72.70180 63.28490 49.16090 51.30275 42.33984 
17 75.67150 69.47920 60.47970 44.73909 46.01853 37.99490 
18 72.17600 66.26980 57.68610 40.15112 41.62453 34.06462 
19 68.69690 63.07540 54.90540 35.74019 37.03549 30.82604 
20 65.23250 59.89440 52.13650 31.71861 33.01511 26.60615 
21 61.78360 56.72780 49.38000 28.45324 29.28437 24.14714 
22 58.35150 53.57650 46.63690 25.58264 26.54543 21.79612 
23 54.93930 50.44360 43.90980 22.13675 22.84100 18.99394 
24 51.54420 47.32640 41.19630 19.05780 19.76343 16.54914 
25 48.16810 44.22650 38.49800 16.53075 17.31920 14.11289 
26 44.81380 41.14660 35.81700 14.31560 14.94840 12.58960 
27 41.48260 38.08810 33.15460 11.97318 12.29471 10.30788 
28 38.17180 35.04810 30.50840 9.894940 10.23322 8.887752 
29 34.88850 32.03350 27.88430 8.439406 9.016755 7.171271 
30 31.63410 29.04550 25.28330 6.689327 6.870530 5.509023 
31 28.40740 26.08280 22.70430 5.055254 5.297814 4.420958 
32 25.21030 23.14730 20.14910 4.030645 4.215881 3.392620 
33 22.05180 20.24720 17.62470 2.967031 3.011130 2.740764 
34 18.93070 17.38160 15.13020 2.121960 2.190427 1.915645 
35 15.86000 14.56220 12.67600 1.502332 1.606453 1.257437 
36 12.84060 11.78990 10.26270 0.875203 0.853107 0.737202 
37 9.876500 9.068300 7.893700 0.559910 0.574331 0.488346 
38 6.965800 6.395800 5.567300 0.270191 0.280275 0.206739 
39 13.40980 7.062400 87.89020 14.02999 5.945625 70.02436 
40 14.11760 33.24490 58.72200 9.302519 8.888049 30.22493 
41 106.2337 86.43090 25.62930 68.01394 73.39031 15.71764 
42 35.51040 99.16400 70.73900 47.61046 75.12798 56.15442 
43 23.93990 63.48260 70.84450 23.39672 30.71678 48.71134 
44 96.88440 0.00000 55.80380 43.39921 21.93320 27.81998 
45 90.95340 51.67250 40.44510 44.43309 35.16156 17.48204 
46 77.86230 43.58120 86.00250 43.01354 29.56436 71.71899 
47 73.40210 87.22270 46.16200 50.58508 64.76546 27.28786 
48 15.66080 43.82180 30.37210 7.954993 12.67140 8.898255 
49 59.50820 31.94050 38.66240 18.67360 13.84145 13.15498 
50 75.67810 72.14120 87.01890 53.52523 51.70941 76.78535 
51 77.38430 52.94290 67.20100 40.40652 33.24603 44.03837 
52 62.26770 83.00370 71.98590 47.21489 58.79069 54.94098 
53 26.74960 0.00000 31.58520 3.787727 1.796799 7.920973 
54 72.81590 62.82870 38.05160 35.85827 37.56428 17.11849 
55 25.51880 35.61850 87.74070 19.56924 14.36726 72.32434 
56 8.804500 10.32260 54.49560 5.098924 2.484616 24.30312 
57 82.40630 0.00000 27.11220 27.65922 14.20993 6.910297 
58 23.75940 67.57360 33.66630 18.63380 32.02793 13.78528 
59 40.20240 99.20420 86.54070 53.89645 78.07183 81.42166 
60 74.50460 53.52190 49.32080 34.40695 30.84947 24.38572 
61 21.85550 0.00000 11.30000 1.544957 0.784701 0.807652 
62 64.38690 99.01450 35.65270 52.94422 79.10381 22.53054 
63 91.59390 86.98490 86.56660 73.18323 74.73381 79.96289 
64 22.20970 60.61980 55.27930 18.07063 26.29852 28.89546 
65 82.51240 0.00000 12.51690 27.20312 14.07047 2.362784 
66 101.1310 98.90300 72.33630 84.62216 93.73892 60.55451 
67 40.56660 58.85620 75.58600 26.72355 29.24941 56.11589 
68 47.65970 31.87330 18.98980 11.45552 10.11631 3.921515 
69 65.76060 0.00000 56.19590 21.72878 10.68062 27.99381 
70 56.86230 25.20510 87.70990 27.21888 15.10437 71.74393 
71 92.37380 98.98470 81.66130 80.95484 91.46949 73.77531 
72 58.64660 54.52880 58.11320 28.07272 28.15566 32.48303 
73 8.039500 20.45830 27.89780 2.489787 2.987421 6.072018 
74 40.53790 42.42430 25.44100 12.00491 14.21739 6.852281 
75 59.04390 0.00000 35.60970 15.02864 7.578889 10.40149 
76 67.27970 85.41680 86.78200 55.87792 64.74610 79.17340 
77 57.21620 77.57960 54.53820 37.12893 48.89942 32.84360 
78 34.99960 11.55550 26.32090 5.448088 3.188452 5.551495 
79 100.8768 98.84670 46.74240 78.87699 91.20413 31.21613 
80 104.3218 55.49450 22.81630 51.70175 41.18934 9.180628 
81 32.67880 79.41570 62.64400 31.96442 47.96444 41.93817 
82 62.95200 26.73320 23.38520 18.15384 12.20837 5.335924 
83 42.37380 31.62080 45.81590 12.68404 10.42769 18.76365 
84 63.71070 0.00000 27.59030 16.49406 8.420396 6.617247 
85 46.76430 63.49670 25.72060 21.82902 30.61959 9.759063 
86 59.49510 99.06850 57.31530 53.64583 79.12697 40.13378 
87 90.60480 41.78210 47.35730 42.12819 29.48839 22.14019 
88 55.57560 3.473700 0.00000 11.31223 5.890325 0.591532 
89 51.63850 60.54590 57.43960 27.23326 31.38033 32.25390 
90 15.54590 40.46340 49.87030 9.572242 11.58020 22.85234 
91 15.47210 16.60060 0.00000 1.458655 1.883072 0.294560 
92 56.96200 26.89810 47.19040 17.53334 11.81771 19.47800 
93 103.6168 0.00000 87.43800 54.83871 26.89837 73.32258 
94 50.82220 54.03820 87.45940 32.31297 28.77996 75.24676 
95 39.52170 6.961700 14.51930 6.064127 3.275741 1.792884 
96 27.54950 20.13520 24.75970 4.344573 3.758943 5.015772 
97 85.24420 39.08940 57.83350 39.68709 26.75030 31.95804 
98 16.50470 43.75020 44.25550 9.689452 13.34800 17.77751 
99 71.66510 58.51160 13.21680 31.28620 32.29960 5.849526 
100 31.59960 85.19720 85.45640 40.75101 56.72579 74.41754 
101 100.0000 100.0000 100.0000 94.97611 99.96208 108.3474 
102 0.00000 0.00000 0.00000 0.000124807 0.000144019 0.000362635 
103 100.0000 0.00000 0.00000 41.17235 21.32661 2.128025 
104 0.00000 100.0000 0.00000 35.73726 71.26978 12.10238 
105 0.00000 0.00000 100.0000 18.16427 7.406456 94.62348 
106 0.00000 100.0000 100.0000 53.88323 78.66787 106.6333 
107 100.0000 0.00000 100.0000 59.33603 28.73193 96.75123 
108 100.0000 100.0000 0.00000 76.03593 91.69945 14.09808 
END_DATA
