demo-projects/old/Demo-Report-Matrix-2026-08-10_231948/runs/run1/verifications/2026-08-08_100000/Demo-Report-Matrix-verify.ti3
CTI3   
KEYWORD "CHROMIQ_VERIFICATION"
CHROMIQ_VERIFICATION "true"

DESCRIPTOR "Argyll Calibration Target chart information 3"
ORIGINATOR "Argyll fakeread"
CREATED "Mon Aug 10 23:17:26 2026"
DEVICE_CLASS "DISPLAY"
COLOR_REP "iRGB_XYZ"

KEYWORD "CHROMIQ_MEASURED"
CHROMIQ_MEASURED "2026-08-08T10:00:00"
TARGET_INSTRUMENT "X-Rite ColorMunki"
NUMBER_OF_FIELDS 7
BEGIN_DATA_FORMAT
SAMPLE_ID RGB_R RGB_G RGB_B XYZ_X XYZ_Y XYZ_Z 
END_DATA_FORMAT

NUMBER_OF_SETS 108
BEGIN_DATA
1 107.7547 98.88450 86.10550 89.20879 96.01439 83.32087 
2 107.7547 98.88450 86.10550 89.81380 96.87114 84.59662 
3 107.7547 98.88450 86.10550 90.06437 97.97638 82.82532 
4 107.7547 98.88450 86.10550 87.99538 94.06536 81.46936 
5 0.00000 0.00000 0.00000 0.00515835 0.00428894 0.00680610 
6 0.00000 0.00000 0.00000 0.00160509 0.00139041 0.00608915 
7 0.00000 0.00000 0.00000 0.000137756 0.000274564 0.0000468763 
8 0.00000 0.00000 0.00000 0.00393557 0.00328393 0.00184292 
9 104.1450 95.57200 83.22100 85.75668 90.32993 78.48091 
10 100.5470 92.27010 80.34590 81.96966 84.87081 70.79073 
11 96.95970 88.97810 77.47930 78.00941 82.42125 65.19674 
12 93.38480 85.69750 74.62270 71.47779 74.16136 62.41157 
13 89.82180 82.42780 71.77550 64.17121 66.55149 56.34250 
14 86.27060 79.16890 68.93780 59.12747 59.50105 50.42535 
15 82.73340 75.92290 66.11130 52.84704 55.85112 45.03745 
16 79.20870 72.68830 63.29470 48.62115 49.77867 42.58787 
17 75.69770 69.46640 60.48910 43.99185 44.85998 38.21007 
18 72.20110 66.25760 57.69500 40.76970 41.43368 34.91951 
19 68.72070 63.06370 54.91390 35.75607 36.78046 29.09457 
20 65.25510 59.88340 52.14450 32.39049 32.78790 28.39891 
21 61.80500 56.71730 49.38760 29.77461 30.43601 24.68530 
22 58.37170 53.56660 46.64410 25.05684 25.09763 20.91498 
23 54.95840 50.43430 43.91660 22.96339 23.81624 21.84988 
24 51.56210 47.31760 41.20270 18.90983 18.54402 15.79445 
25 48.18480 44.21830 38.50390 16.94016 17.99616 12.99714 
26 44.82930 41.13900 35.82250 13.73090 13.96241 11.36129 
27 41.49700 38.08100 33.15970 11.69649 11.70947 10.93138 
28 38.18500 35.04170 30.51320 9.972432 10.64341 8.262733 
29 34.90060 32.02760 27.88860 8.026223 7.858066 6.666531 
30 31.64510 29.04010 25.28720 6.771622 6.591659 5.832246 
31 28.41720 26.07790 22.70780 5.460266 6.064132 4.219094 
32 25.21900 23.14300 20.15220 4.553161 4.677053 3.500302 
33 22.05940 20.24350 17.62740 3.049142 3.415733 2.372635 
34 18.93730 17.37840 15.13250 2.103156 2.269634 1.717390 
35 15.86550 14.55950 12.67790 1.479659 1.649551 1.078765 
36 12.84510 11.78770 10.26430 0.975847 0.960095 0.927206 
37 9.879900 9.066600 7.894900 0.781620 0.884476 0.539639 
38 6.968200 6.394600 5.568200 0.271711 0.293692 0.176685 
39 13.05040 7.592500 87.95840 14.52414 6.245397 71.70911 
40 13.97150 33.27320 58.76180 10.15276 9.527777 34.06000 
41 106.3005 86.39160 25.46570 68.31085 74.38219 14.85715 
42 35.41340 99.15450 70.74310 47.50871 74.79665 56.06560 
43 23.81210 63.49250 70.88050 23.62208 30.77652 49.83993 
44 96.94400 0.00000 55.82790 44.55673 22.49823 30.05798 
45 91.01040 51.64230 40.42830 43.69366 33.49663 17.99399 
46 77.87420 43.60830 86.05570 42.71360 29.67070 70.53544 
47 73.42840 87.20000 46.12250 50.68519 64.58212 27.81910 
48 15.61980 43.81720 30.37250 7.547406 12.26317 8.095975 
49 59.54010 31.92900 38.67350 19.71836 14.71666 15.54920 
50 75.67850 72.14660 87.06070 53.74564 52.54302 79.24230 
51 77.41170 52.94010 67.23040 39.97570 33.19093 41.20085 
52 62.25810 82.99690 72.00360 48.55706 60.29937 55.28739 
53 26.75260 0.715500 31.60750 3.914702 1.846344 8.676634 
54 72.85430 62.80720 38.02660 35.49632 37.16082 17.34678 
55 25.36050 35.68920 87.80430 19.34171 14.14948 73.07772 
56 8.595800 10.44360 54.53750 5.197936 2.376860 25.35964 
57 82.46470 0.00000 27.10130 27.73829 14.26768 6.788783 
58 23.71810 67.56160 33.63940 19.75354 34.37746 14.53986 
59 40.09180 99.20250 86.56750 54.46150 78.76740 80.24463 
60 74.54130 53.50650 49.32670 34.85333 31.13681 22.96390 
61 21.86960 0.00000 11.30390 1.800288 0.909764 1.170174 
62 64.40150 98.98890 35.55550 54.29043 80.05856 22.14360 
63 91.61370 86.97700 86.59450 74.28333 74.54432 79.22811 
64 22.12270 60.62050 55.29910 18.81269 26.96346 29.65988 
65 82.57360 0.00000 12.44610 26.86118 13.90300 2.416903 
66 101.1700 98.87970 72.32890 85.22808 95.09413 60.47209 
67 40.51250 58.87090 75.62830 26.12492 27.64371 55.01795 
68 47.68940 31.85720 18.96990 11.85211 10.07498 3.579496 
69 65.78910 0.00000 56.23140 21.94679 10.78210 28.38631 
70 56.83820 25.29870 87.77270 27.18509 15.08568 73.06568 
71 92.39490 98.96920 81.67210 82.03060 92.55782 73.64895 
72 58.65710 54.52610 58.13540 27.12410 27.26471 33.69778 
73 7.981400 20.46600 27.91460 2.421727 3.003373 5.421199 
74 40.55470 42.41290 25.42740 12.78069 14.68904 7.142954 
75 59.07940 0.00000 35.62630 14.82989 7.467872 10.89124 
76 67.26030 85.41730 86.81640 56.17990 63.73521 81.87351 
77 57.21880 77.56680 54.53500 36.32786 48.01757 32.34887 
78 35.01690 11.55470 26.33470 5.663078 3.331883 5.642356 
79 100.9289 98.81370 46.67190 77.73609 88.81160 31.41441 
80 104.3940 55.44960 22.71350 51.88325 41.67896 9.147632 
81 32.60750 79.41060 62.65620 31.17866 46.51010 41.04807 
82 62.99430 26.70620 23.37140 18.04319 12.27999 5.349077 
83 42.37970 31.62680 45.84080 12.52834 11.20683 17.94194 
84 63.75380 0.00000 27.59390 16.28129 8.314360 6.842861 
85 46.77940 63.47970 25.66860 21.29367 29.86661 9.911065 
86 59.48700 99.04990 57.29020 53.46478 77.77303 39.56758 
87 90.66010 41.75440 47.36150 40.33678 27.36265 20.01765 
88 55.61710 3.228000 0.00000 11.79576 6.152789 0.624230 
89 51.63680 60.54240 57.45810 28.56818 32.69717 33.46085 
90 15.44940 40.47360 49.89820 9.041753 10.86658 21.60307 
91 15.48110 16.59440 0.00000 1.529296 1.985337 0.312859 
92 56.98610 26.89940 47.21500 17.91458 11.96742 21.04847 
93 103.6626 0.00000 87.49280 55.19525 27.03615 75.37838 
94 50.77730 54.06770 87.51450 31.08877 27.46874 72.17256 
95 39.54910 6.922400 14.51590 5.319892 2.855049 1.513994 
96 27.55830 20.13440 24.77040 4.568679 4.004316 5.105693 
97 85.28930 39.07600 57.85610 37.59944 25.57343 30.75209 
98 16.43190 43.75360 44.27510 8.949873 12.17477 17.07135 
99 71.71070 58.48450 13.05530 31.92170 33.16084 5.989972 
100 31.45630 85.20320 85.49370 40.90094 56.15877 75.08686 
101 100.0000 100.0000 100.0000 93.56502 99.28039 106.3711 
102 0.00000 0.00000 0.00000 0.00339104 0.00177009 0.000179705 
103 100.0000 0.00000 0.00000 40.18419 20.83188 2.103810 
104 0.00000 100.0000 0.00000 34.82175 69.39966 11.85805 
105 0.00000 0.00000 100.0000 18.14879 7.365915 94.45621 
106 0.00000 100.0000 100.0000 53.66466 78.15339 106.5417 
107 100.0000 0.00000 100.0000 58.07423 28.16655 91.86583 
108 100.0000 100.0000 0.00000 76.90383 92.63632 14.32664 
END_DATA
