demo-projects/old/Demo-Report-Matrix-2026-08-10_231948/runs/run1/verifications/2026-06-01_100000/Demo-Report-Matrix-verify.ti3
CTI3   
KEYWORD "CHROMIQ_VERIFICATION"
CHROMIQ_VERIFICATION "true"

DESCRIPTOR "Argyll Calibration Target chart information 3"
ORIGINATOR "Argyll fakeread"
CREATED "Mon Aug 10 23:17:26 2026"
DEVICE_CLASS "DISPLAY"
COLOR_REP "iRGB_XYZ"

KEYWORD "CHROMIQ_MEASURED"
CHROMIQ_MEASURED "2026-06-01T10:00:00"
TARGET_INSTRUMENT "X-Rite ColorMunki"
NUMBER_OF_FIELDS 7
BEGIN_DATA_FORMAT
SAMPLE_ID RGB_R RGB_G RGB_B XYZ_X XYZ_Y XYZ_Z 
END_DATA_FORMAT

NUMBER_OF_SETS 105
BEGIN_DATA
1 100.0000 100.0000 100.0000 94.83518 99.57942 108.8349 
2 100.0000 100.0000 100.0000 94.39631 99.66526 108.8746 
3 100.0000 100.0000 100.0000 91.41324 98.12707 108.7348 
4 100.0000 100.0000 100.0000 93.45957 96.97635 107.9197 
5 0.00000 0.00000 0.00000 0.108140 0.101807 0.133550 
6 0.00000 0.00000 0.00000 0.0439959 0.0523818 0.124458 
7 0.00000 0.00000 0.00000 0.0124585 0.0249168 0.00415249 
8 0.00000 0.00000 0.00000 0.0933076 0.0895719 0.0734677 
9 100.0000 100.0000 0.00000 76.52345 91.79499 13.81429 
10 0.00000 0.00000 100.0000 18.04868 7.219054 95.05403 
11 100.0000 0.00000 0.00000 41.32020 21.42807 1.959730 
12 0.00000 100.0000 100.0000 53.81828 78.74148 106.9731 
13 0.00000 100.0000 0.00000 35.44118 70.85994 11.88096 
14 100.0000 0.00000 100.0000 59.28696 28.48329 96.98646 
15 0.00000 38.69451 100.0000 22.07190 16.14552 93.68160 
16 0.00000 61.01825 0.00000 11.17302 22.32798 3.779444 
17 0.00000 0.00000 49.66734 3.879713 1.552551 20.39857 
18 100.0000 0.00000 49.59690 45.16445 22.83461 22.60972 
19 100.0000 51.96322 100.0000 66.37252 44.08882 94.92533 
20 100.0000 51.02120 0.00000 48.76772 36.29271 4.535584 
21 49.79587 0.00000 0.00000 9.823143 5.081533 0.478036 
22 100.0000 100.0000 50.20307 78.81634 90.38621 33.06115 
23 0.00000 100.0000 50.70625 40.57084 73.44153 37.26289 
24 49.48561 100.0000 100.0000 60.00782 77.71325 104.8349 
25 51.72588 100.0000 0.00000 45.56970 76.57579 12.37832 
26 50.05958 0.00000 100.0000 26.38647 11.58506 92.43566 
27 0.00000 47.79621 60.34591 12.57435 15.16405 34.97586 
28 100.0000 59.17416 43.63085 54.95297 45.13834 20.29120 
29 47.31399 48.98978 0.00000 14.83427 17.33021 2.563362 
30 52.09288 0.00000 45.52943 13.73351 6.702866 17.73420 
31 55.39583 47.66229 100.0000 36.18923 28.23226 95.13256 
32 49.20125 100.0000 50.84061 49.33924 78.05751 33.40395 
33 48.29114 47.33520 50.18713 19.01237 20.42035 22.20222 
34 0.00000 30.94905 0.00000 2.893946 5.787866 0.964573 
35 100.0000 21.19106 79.12555 52.58979 28.14405 55.96407 
36 33.94804 70.69041 100.0000 38.32975 41.75791 100.6515 
37 74.96124 25.82053 0.00000 25.58435 16.92470 1.958558 
38 0.00000 77.61705 71.72771 28.97835 44.59776 50.74505 
39 24.97790 0.00000 23.41364 3.250273 1.652658 4.455066 
40 76.31808 100.0000 28.35106 58.70423 83.17057 21.02388 
41 0.00000 77.00365 31.43299 21.53370 41.25533 12.76378 
42 75.41143 77.79628 100.0000 60.02920 58.29859 102.1559 
43 100.0000 23.29829 20.42453 42.84262 24.35740 5.929328 
44 100.0000 80.02238 22.27702 64.97854 67.35172 14.13964 
45 75.35445 100.0000 76.01304 64.97303 81.44086 65.05855 
46 75.31505 74.81469 0.00000 40.89379 49.67034 7.432328 
47 100.0000 79.49395 78.19811 72.73861 67.38001 64.49100 
48 26.41218 100.0000 75.99234 46.44621 75.24991 59.50126 
49 28.19308 28.22301 100.0000 23.68666 14.06121 96.07760 
50 76.81359 0.00000 23.55016 23.36176 11.96625 5.993470 
51 75.25932 0.00000 74.69026 30.80754 14.91010 46.10838 
52 29.89921 74.23536 0.00000 22.40677 39.87091 6.522368 
53 25.50439 100.0000 24.78846 38.98523 73.05567 17.70494 
54 77.21225 23.71451 100.0000 42.30625 22.13793 96.65594 
55 0.00000 21.07405 72.23364 10.16417 6.255946 46.77608 
56 26.28049 0.00000 71.93547 10.93831 4.637393 45.76927 
57 0.00000 19.89483 30.07019 2.704299 3.300856 7.399965 
58 26.28079 33.45692 23.52814 6.880016 9.425871 5.840867 
59 66.56754 70.38587 52.30860 38.35217 43.50427 28.02133 
60 75.09479 52.62129 65.01886 37.23508 31.20257 37.42725 
61 26.64973 49.33561 81.42125 21.19509 19.30125 65.79843 
62 45.91179 68.61670 63.70484 30.51001 38.19119 38.53099 
63 71.11740 50.49568 34.71935 29.78849 25.84845 12.66856 
64 54.43736 27.35888 62.61652 20.35771 13.06154 33.97310 
65 34.69612 74.79966 32.60823 24.03215 39.73339 14.74517 
66 74.85889 20.44437 50.18860 27.28890 15.54163 21.84604 
67 47.85106 20.11464 33.14580 10.96780 6.786797 9.193602 
68 27.20651 32.63652 48.27367 9.052076 8.449746 18.80393 
69 27.58870 24.69734 0.00000 4.488648 5.031264 0.800632 
70 0.00000 69.14068 100.0000 33.44983 38.02122 100.1873 
71 20.53684 59.80271 49.57175 16.56522 24.71571 23.26539 
72 0.00000 46.98630 28.11508 7.850676 13.67390 8.867601 
73 73.54294 75.32966 75.96305 50.15688 54.15555 55.03710 
74 63.36650 75.70063 29.24590 36.66626 47.30753 14.08524 
75 100.0000 50.88622 71.33775 57.78227 41.07782 50.12081 
76 23.55356 85.77019 53.26247 31.06902 51.30648 33.89738 
77 100.0000 29.41094 48.41781 45.18420 26.40396 21.41049 
78 72.19800 51.56213 8.666635 28.83350 27.29964 4.597623 
79 21.36322 53.66478 11.70929 9.727653 16.68988 3.967039 
80 12.24937 81.96187 10.32227 24.20393 47.02335 8.727975 
81 50.32410 91.80251 71.76533 46.18424 65.25282 54.52267 
82 48.45094 95.04594 23.03440 41.45354 69.02314 15.14955 
83 47.91670 54.94911 27.45694 19.29905 25.80725 9.295423 
84 3.781525 53.33689 81.63552 21.38827 23.78203 65.20191 
85 76.14076 97.71765 95.89858 71.29708 83.81797 100.5872 
86 74.72769 92.97172 51.48222 55.97842 72.07155 31.66016 
87 91.51768 77.11623 49.84954 54.17729 54.25429 25.47113 
88 55.99479 23.67844 88.16304 26.86915 14.84953 71.55128 
89 76.02370 54.61404 92.04182 49.14650 38.39288 84.48225 
90 52.92777 23.07148 11.01567 11.52070 7.794447 1.863716 
91 2.113597 97.73685 76.72762 45.09575 74.21175 63.91647 
92 77.95688 25.26049 74.12841 35.26141 19.94892 53.37120 
93 5.158119 95.50651 28.71841 35.72513 68.69741 18.66060 
94 4.213096 24.16053 51.05457 5.337031 4.407972 20.52864 
95 51.24030 47.80404 76.36550 24.79351 21.59948 52.73723 
96 97.40498 100.0000 75.01152 84.52183 95.55762 64.00421 
97 49.19419 5.350316 74.01136 16.70291 7.797718 47.23190 
98 91.32533 51.59153 22.20459 40.51511 31.73979 7.442468 
99 74.48121 24.34677 26.05584 24.82051 15.39102 6.839311 
100 94.19953 74.22767 93.65841 69.90927 60.48204 88.70924 
101 23.32810 75.54038 80.93191 31.47922 43.42927 62.89498 
102 56.07175 76.90790 5.268606 32.04201 45.95824 7.529536 
103 27.55381 8.135545 46.48987 6.011534 3.072649 18.44490 
104 27.88054 25.86915 72.11177 13.69080 8.534384 49.05847 
105 51.80627 80.99682 89.24284 45.77294 56.01354 82.03961 
END_DATA
