demo-projects/old/Demo-Report-Matrix-2026-08-10_232125/runs/run1/verifications/2026-07-10_100000/Demo-Report-Matrix-verify.ti3
CTI3   
KEYWORD "CHROMIQ_VERIFICATION"
CHROMIQ_VERIFICATION "true"

DESCRIPTOR "Argyll Calibration Target chart information 3"
ORIGINATOR "Argyll fakeread"
CREATED "Mon Aug 10 23:19:49 2026"
DEVICE_CLASS "DISPLAY"
COLOR_REP "iRGB_XYZ"

KEYWORD "CHROMIQ_MEASURED"
CHROMIQ_MEASURED "2026-07-10T10:00:00"
TARGET_INSTRUMENT "X-Rite ColorMunki"
NUMBER_OF_FIELDS 7
BEGIN_DATA_FORMAT
SAMPLE_ID RGB_R RGB_G RGB_B XYZ_X XYZ_Y XYZ_Z 
END_DATA_FORMAT

NUMBER_OF_SETS 105
BEGIN_DATA
1 100.0000 100.0000 100.0000 94.94223 99.92984 108.9026 
2 100.0000 100.0000 100.0000 94.58215 99.01286 108.7418 
3 100.0000 100.0000 100.0000 94.75881 99.83472 108.8930 
4 100.0000 100.0000 100.0000 95.07745 99.99996 108.9096 
5 0.00000 0.00000 0.00000 0.000501848 0.00100015 0.000170002 
6 0.00000 0.00000 0.00000 0.000266435 0.000110606 0.00128797 
7 0.00000 0.00000 0.00000 0.0000994121 0.0000515524 5.18970e-06 
8 0.00000 0.00000 0.00000 0.00217671 0.00109182 0.00333838 
9 100.0000 100.0000 0.00000 76.92520 92.61355 14.26264 
10 0.00000 0.00000 100.0000 18.15241 7.386720 94.64704 
11 100.0000 0.00000 0.00000 41.16571 21.34740 2.149012 
12 0.00000 100.0000 100.0000 53.32570 77.48461 106.5621 
13 0.00000 100.0000 0.00000 35.76091 71.26689 12.11370 
14 100.0000 0.00000 100.0000 58.91510 28.52489 96.77496 
15 0.00000 38.69451 100.0000 22.47827 16.00566 96.11201 
16 0.00000 61.01825 0.00000 11.04464 22.01119 3.741403 
17 0.00000 0.00000 49.66734 4.057137 1.650915 21.15373 
18 100.0000 0.00000 49.59690 43.72767 22.25244 21.86177 
19 100.0000 51.96322 100.0000 67.58568 45.21079 99.59671 
20 100.0000 51.02120 0.00000 48.54141 37.51982 4.933885 
21 49.79587 0.00000 0.00000 8.332614 4.327244 0.436197 
22 100.0000 100.0000 50.20307 80.13286 92.97407 33.89163 
23 0.00000 100.0000 50.70625 38.81732 70.80029 33.31419 
24 49.48561 100.0000 100.0000 62.16378 81.35584 106.8851 
25 51.72588 100.0000 0.00000 45.94222 76.54664 12.64523 
26 50.05958 0.00000 100.0000 27.02345 11.98676 95.11009 
27 0.00000 47.79621 60.34591 13.57552 16.92983 35.72275 
28 100.0000 59.17416 43.63085 55.52165 44.74749 23.02826 
29 47.31399 48.98978 0.00000 16.71465 20.93491 3.256973 
30 52.09288 0.00000 45.52943 12.89169 6.321162 17.50562 
31 55.39583 47.66229 100.0000 36.29429 26.89350 96.99858 
32 49.20125 100.0000 50.84061 48.95066 77.62352 35.14061 
33 48.29114 47.33520 50.18713 19.91949 20.07471 23.48976 
34 0.00000 30.94905 0.00000 2.819979 5.619987 0.955381 
35 100.0000 21.19106 79.12555 54.11288 28.64581 63.41623 
36 33.94804 70.69041 100.0000 39.44211 43.86843 100.7031 
37 74.96124 25.82053 0.00000 23.99331 15.11250 1.771518 
38 0.00000 77.61705 71.72771 29.98004 46.29888 51.49789 
39 24.97790 0.00000 23.41364 2.722589 1.316776 4.537733 
40 76.31808 100.0000 28.35106 58.86514 81.35501 19.67592 
41 0.00000 77.00365 31.43299 20.45440 38.38194 14.25172 
42 75.41143 77.79628 100.0000 60.80838 59.18426 102.5233 
43 100.0000 23.29829 20.42453 42.77077 24.23925 5.622772 
44 100.0000 80.02238 22.27702 63.04523 65.73068 13.10398 
45 75.35445 100.0000 76.01304 68.13677 86.75996 63.99319 
46 75.31505 74.81469 0.00000 40.77836 49.02732 7.547565 
47 100.0000 79.49395 78.19811 73.49002 69.52015 66.35421 
48 26.41218 100.0000 75.99234 47.52311 76.26037 63.86030 
49 28.19308 28.22301 100.0000 22.31898 12.57059 95.45212 
50 76.81359 0.00000 23.55016 24.15890 12.44003 5.334244 
51 75.25932 0.00000 74.69026 32.07985 15.56849 51.20834 
52 29.89921 74.23536 0.00000 21.62281 38.87026 6.504127 
53 25.50439 100.0000 24.78846 37.95370 71.60406 15.88265 
54 77.21225 23.71451 100.0000 43.05620 22.54481 95.76721 
55 0.00000 21.07405 72.23364 10.51150 5.953135 49.65614 
56 26.28049 0.00000 71.93547 10.67042 4.553405 45.86053 
57 0.00000 19.89483 30.07019 2.137324 2.268521 6.844226 
58 26.28079 33.45692 23.52814 6.234795 8.040236 5.641788 
59 66.56754 70.38587 52.30860 37.44671 43.99909 28.98447 
60 75.09479 52.62129 65.01886 38.67094 32.85713 41.15925 
61 26.64973 49.33561 81.42125 21.79557 21.15013 62.88870 
62 45.91179 68.61670 63.70484 29.52238 37.05540 40.39555 
63 71.11740 50.49568 34.71935 29.17124 26.82719 13.28032 
64 54.43736 27.35888 62.61652 18.79571 12.23447 34.32196 
65 34.69612 74.79966 32.60823 25.70765 42.75421 14.75696 
66 74.85889 20.44437 50.18860 26.42051 14.73985 22.44504 
67 47.85106 20.11464 33.14580 10.48313 7.192721 8.818371 
68 27.20651 32.63652 48.27367 8.980814 8.708454 20.27536 
69 27.58870 24.69734 0.00000 4.573932 4.707626 0.696708 
70 0.00000 69.14068 100.0000 34.04633 39.25865 99.41779 
71 20.53684 59.80271 49.57175 16.18117 24.08191 23.37174 
72 0.00000 46.98630 28.11508 8.243817 14.45434 8.857235 
73 73.54294 75.32966 75.96305 49.84694 53.21939 59.76537 
74 63.36650 75.70063 29.24590 34.37327 45.16560 12.90356 
75 100.0000 50.88622 71.33775 56.53255 39.01898 50.13863 
76 23.55356 85.77019 53.26247 33.85198 56.81216 34.27595 
77 100.0000 29.41094 48.41781 47.12061 27.31570 22.30062 
78 72.19800 51.56213 8.666635 27.67146 25.60852 4.157850 
79 21.36322 53.66478 11.70929 11.01008 19.31154 4.163964 
80 12.24937 81.96187 10.32227 22.94286 44.99499 8.186362 
81 50.32410 91.80251 71.76533 47.53005 68.01234 57.53260 
82 48.45094 95.04594 23.03440 41.49083 69.77672 15.40575 
83 47.91670 54.94911 27.45694 19.46057 24.84982 9.446933 
84 3.781525 53.33689 81.63552 20.90103 22.25369 66.56729 
85 76.14076 97.71765 95.89858 72.40882 84.94364 99.43269 
86 74.72769 92.97172 51.48222 55.42071 72.91777 33.07203 
87 91.51768 77.11623 49.84954 57.89229 58.34408 28.40241 
88 55.99479 23.67844 88.16304 26.39161 14.12422 71.00888 
89 76.02370 54.61404 92.04182 47.60656 36.78547 83.68961 
90 52.92777 23.07148 11.01567 11.63840 8.316163 1.766424 
91 2.113597 97.73685 76.72762 43.50194 70.30481 64.99213 
92 77.95688 25.26049 74.12841 34.55954 19.60665 50.11981 
93 5.158119 95.50651 28.71841 34.53212 66.78008 17.42096 
94 4.213096 24.16053 51.05457 6.295551 5.330452 24.12589 
95 51.24030 47.80404 76.36550 26.28136 22.56245 53.44880 
96 97.40498 100.0000 75.01152 83.88815 94.12482 63.65276 
97 49.19419 5.350316 74.01136 18.48360 8.521391 51.44011 
98 91.32533 51.59153 22.20459 43.06354 34.04349 7.710274 
99 74.48121 24.34677 26.05584 24.38707 15.30326 6.242081 
100 94.19953 74.22767 93.65841 72.01933 64.75321 91.99408 
101 23.32810 75.54038 80.93191 32.18648 43.61576 66.56819 
102 56.07175 76.90790 5.268606 30.70080 45.37473 7.452389 
103 27.55381 8.135545 46.48987 5.688153 2.778632 17.10442 
104 27.88054 25.86915 72.11177 12.92297 8.077401 47.94728 
105 51.80627 80.99682 89.24284 47.47083 58.24199 83.47099 
END_DATA
