demo-projects/old/Demo-Report-Matrix-2026-08-10_232125/runs/run1/verifications/2026-05-01_100000/Demo-Report-Matrix-verify.ti3
CTI3   
KEYWORD "CHROMIQ_VERIFICATION"
CHROMIQ_VERIFICATION "true"

DESCRIPTOR "Argyll Calibration Target chart information 3"
ORIGINATOR "Argyll fakeread"
CREATED "Mon Aug 10 23:19:49 2026"
DEVICE_CLASS "DISPLAY"
COLOR_REP "iRGB_XYZ"

KEYWORD "CHROMIQ_MEASURED"
CHROMIQ_MEASURED "2026-05-01T10:00:00"
TARGET_INSTRUMENT "X-Rite ColorMunki"
NUMBER_OF_FIELDS 7
BEGIN_DATA_FORMAT
SAMPLE_ID RGB_R RGB_G RGB_B XYZ_X XYZ_Y XYZ_Z 
END_DATA_FORMAT

NUMBER_OF_SETS 105
BEGIN_DATA
1 100.0000 100.0000 100.0000 94.99250 99.97269 108.9025 
2 100.0000 100.0000 100.0000 94.85202 99.61309 108.8405 
3 100.0000 100.0000 100.0000 94.92072 99.93567 108.8992 
4 100.0000 100.0000 100.0000 95.04547 100.0000 108.9050 
5 0.00000 0.00000 0.00000 0.00632924 0.0126584 0.00210958 
6 0.00000 0.00000 0.00000 0.00470352 0.00206113 0.0166560 
7 0.00000 0.00000 0.00000 0.00326504 0.00168360 0.000153000 
8 0.00000 0.00000 0.00000 0.0177262 0.0108403 0.0263712 
9 100.0000 100.0000 0.00000 76.99679 92.78095 13.85099 
10 0.00000 0.00000 100.0000 18.05242 7.226543 95.05528 
11 100.0000 0.00000 0.00000 41.23828 21.26423 1.932425 
12 0.00000 100.0000 100.0000 53.57823 78.27786 106.8963 
13 0.00000 100.0000 0.00000 35.76951 71.52239 11.91909 
14 100.0000 0.00000 100.0000 59.12932 28.40200 96.97907 
15 0.00000 38.69451 100.0000 22.43458 15.97411 96.51266 
16 0.00000 61.01825 0.00000 11.41309 22.82608 3.804064 
17 0.00000 0.00000 49.66734 3.857344 1.543199 20.29902 
18 100.0000 0.00000 49.59690 44.50737 22.51592 21.67079 
19 100.0000 51.96322 100.0000 67.50734 44.92398 99.72637 
20 100.0000 51.02120 0.00000 48.90450 37.17724 4.601823 
21 49.79587 0.00000 0.00000 8.535416 4.426019 0.404754 
22 100.0000 100.0000 50.20307 80.58243 93.84276 33.88296 
23 0.00000 100.0000 50.70625 39.32795 72.26856 32.80092 
24 49.48561 100.0000 100.0000 62.19459 82.43914 107.2457 
25 51.72588 100.0000 0.00000 45.42073 76.49892 12.37361 
26 50.05958 0.00000 100.0000 26.82916 11.74665 95.46549 
27 0.00000 47.79621 60.34591 12.93183 16.32918 33.69496 
28 100.0000 59.17416 43.63085 55.18335 44.35774 21.36922 
29 47.31399 48.98978 0.00000 15.58723 19.33605 2.918140 
30 52.09288 0.00000 45.52943 12.71678 6.191459 17.10610 
31 55.39583 47.66229 100.0000 35.89177 26.54826 97.62513 
32 49.20125 100.0000 50.84061 48.40835 77.56822 33.77941 
33 48.29114 47.33520 50.18713 19.08470 19.45932 23.06709 
34 0.00000 30.94905 0.00000 2.815971 5.630268 0.943667 
35 100.0000 21.19106 79.12555 53.51402 28.33277 59.92778 
36 33.94804 70.69041 100.0000 38.55822 42.38031 100.7596 
37 74.96124 25.82053 0.00000 23.54840 15.00024 1.654946 
38 0.00000 77.61705 71.72771 28.96065 44.43843 51.22298 
39 24.97790 0.00000 23.41364 2.895416 1.395799 4.522105 
40 76.31808 100.0000 28.35106 59.00369 82.67072 19.29190 
41 0.00000 77.00365 31.43299 20.82477 39.28855 14.21196 
42 75.41143 77.79628 100.0000 60.06710 58.69752 102.7295 
43 100.0000 23.29829 20.42453 43.27570 24.57550 5.750190 
44 100.0000 80.02238 22.27702 63.27191 64.88988 12.98892 
45 75.35445 100.0000 76.01304 67.34339 86.60670 63.65437 
46 75.31505 74.81469 0.00000 40.21162 48.29087 7.202036 
47 100.0000 79.49395 78.19811 72.89902 68.24694 64.16893 
48 26.41218 100.0000 75.99234 47.65131 76.52797 63.07171 
49 28.19308 28.22301 100.0000 22.78686 12.99383 95.91899 
50 76.81359 0.00000 23.55016 23.65132 12.10028 5.411498 
51 75.25932 0.00000 74.69026 31.21672 15.03637 50.25611 
52 29.89921 74.23536 0.00000 21.28200 38.14848 6.241379 
53 25.50439 100.0000 24.78846 38.56299 72.58129 16.47406 
54 77.21225 23.71451 100.0000 42.68047 22.34866 96.43471 
55 0.00000 21.07405 72.23364 10.13142 6.067310 47.14481 
56 26.28049 0.00000 71.93547 10.77110 4.562561 45.24750 
57 0.00000 19.89483 30.07019 2.421033 2.746327 7.262659 
58 26.28079 33.45692 23.52814 6.401364 8.095651 5.644900 
59 66.56754 70.38587 52.30860 36.83453 42.80218 28.45170 
60 75.09479 52.62129 65.01886 37.32161 31.37806 40.05564 
61 26.64973 49.33561 81.42125 21.26027 20.65246 62.23123 
62 45.91179 68.61670 63.70484 29.06798 36.73958 39.78023 
63 71.11740 50.49568 34.71935 28.67221 26.21136 12.96262 
64 54.43736 27.35888 62.61652 18.84649 12.25988 34.13417 
65 34.69612 74.79966 32.60823 24.63080 40.71142 14.62564 
66 74.85889 20.44437 50.18860 26.37699 14.92761 21.92149 
67 47.85106 20.11464 33.14580 10.69003 7.226788 9.156292 
68 27.20651 32.63652 48.27367 9.106358 8.866549 19.96371 
69 27.58870 24.69734 0.00000 4.480763 4.896642 0.736753 
70 0.00000 69.14068 100.0000 33.62232 38.42545 100.0001 
71 20.53684 59.80271 49.57175 16.29846 24.38010 23.43444 
72 0.00000 46.98630 28.11508 7.955979 13.97764 8.563462 
73 73.54294 75.32966 75.96305 49.05955 52.22462 58.46746 
74 63.36650 75.70063 29.24590 34.59220 45.55198 13.33497 
75 100.0000 50.88622 71.33775 57.06939 39.74896 49.00933 
76 23.55356 85.77019 53.26247 32.28692 54.41935 32.44756 
77 100.0000 29.41094 48.41781 47.27950 27.57680 21.73577 
78 72.19800 51.56213 8.666635 27.74994 26.02404 4.357799 
79 21.36322 53.66478 11.70929 10.79993 18.82698 4.315477 
80 12.24937 81.96187 10.32227 23.27786 45.43683 8.497648 
81 50.32410 91.80251 71.76533 46.92672 67.16169 55.69923 
82 48.45094 95.04594 23.03440 41.02483 68.80807 15.24547 
83 47.91670 54.94911 27.45694 18.73495 23.71501 9.385910 
84 3.781525 53.33689 81.63552 20.40187 22.04252 64.06202 
85 76.14076 97.71765 95.89858 72.30905 85.40549 98.92485 
86 74.72769 92.97172 51.48222 55.38404 72.94935 32.57882 
87 91.51768 77.11623 49.84954 57.36526 58.23336 28.10150 
88 55.99479 23.67844 88.16304 26.30286 14.32010 71.75481 
89 76.02370 54.61404 92.04182 46.56573 35.95052 83.00776 
90 52.92777 23.07148 11.01567 11.68118 8.366605 2.087625 
91 2.113597 97.73685 76.72762 43.67520 71.26190 63.75086 
92 77.95688 25.26049 74.12841 34.34576 19.45331 49.76837 
93 5.158119 95.50651 28.71841 33.95980 65.69982 17.22738 
94 4.213096 24.16053 51.05457 6.048893 5.238145 22.51593 
95 51.24030 47.80404 76.36550 25.91140 22.37952 53.73208 
96 97.40498 100.0000 75.01152 83.87795 94.83691 63.06204 
97 49.19419 5.350316 74.01136 17.93191 8.358783 49.39896 
98 91.32533 51.59153 22.20459 42.58063 33.80726 7.989404 
99 74.48121 24.34677 26.05584 24.00751 14.95618 6.659217 
100 94.19953 74.22767 93.65841 70.39144 62.23074 90.36900 
101 23.32810 75.54038 80.93191 31.89208 43.20426 65.45402 
102 56.07175 76.90790 5.268606 30.76511 45.10685 7.466925 
103 27.55381 8.135545 46.48987 5.996925 3.096000 17.31112 
104 27.88054 25.86915 72.11177 13.07185 8.493566 46.60637 
105 51.80627 80.99682 89.24284 46.05856 55.83152 81.86136 
END_DATA
