demo-projects/old/Demo-Report-Matrix-2026-08-10_231948/runs/run1/verifications/2026-08-10_090000/Demo-Report-Matrix-verify.ti3
CTI3   
KEYWORD "CHROMIQ_VERIFICATION"
CHROMIQ_VERIFICATION "true"

DESCRIPTOR "Argyll Calibration Target chart information 3"
ORIGINATOR "Argyll fakeread"
CREATED "Mon Aug 10 23:17:26 2026"
DEVICE_CLASS "DISPLAY"
COLOR_REP "iRGB_XYZ"

KEYWORD "CHROMIQ_MEASURED"
CHROMIQ_MEASURED "2026-08-10T09:00:00"
TARGET_INSTRUMENT "X-Rite ColorMunki"
NUMBER_OF_FIELDS 7
BEGIN_DATA_FORMAT
SAMPLE_ID RGB_R RGB_G RGB_B XYZ_X XYZ_Y XYZ_Z 
END_DATA_FORMAT

NUMBER_OF_SETS 105
BEGIN_DATA
1 100.0000 100.0000 100.0000 94.93326 99.76435 108.7422 
2 100.0000 100.0000 100.0000 94.68773 99.81140 108.7634 
3 100.0000 100.0000 100.0000 92.99378 98.93324 108.6748 
4 100.0000 100.0000 100.0000 94.15605 98.29827 108.2234 
5 0.00000 0.00000 0.00000 0.00297685 0.00247512 0.00392776 
6 0.00000 0.00000 0.00000 0.000926285 0.000802394 0.00351401 
7 0.00000 0.00000 0.00000 0.0000794980 0.000158449 0.0000270520 
8 0.00000 0.00000 0.00000 0.00227120 0.00189514 0.00106354 
9 100.0000 100.0000 0.00000 76.62467 92.07864 14.23560 
10 0.00000 0.00000 100.0000 18.14765 7.363647 94.45582 
11 100.0000 0.00000 0.00000 41.12652 21.32776 2.152145 
12 0.00000 100.0000 100.0000 53.92997 78.68213 106.6320 
13 0.00000 100.0000 0.00000 35.59626 70.94734 12.11398 
14 100.0000 0.00000 100.0000 59.26920 28.68152 96.60627 
15 0.00000 38.69451 100.0000 22.40725 16.34804 94.38992 
16 0.00000 61.01825 0.00000 11.74890 23.41676 3.998675 
17 0.00000 0.00000 49.66734 3.965938 1.609234 20.64204 
18 100.0000 0.00000 49.59690 45.11442 22.93802 22.93270 
19 100.0000 51.96322 100.0000 67.10071 45.09904 96.79388 
20 100.0000 51.02120 0.00000 49.03637 37.09232 4.846013 
21 49.79587 0.00000 0.00000 9.577603 4.965227 0.500915 
22 100.0000 100.0000 50.20307 79.74219 92.03542 34.47081 
23 0.00000 100.0000 50.70625 40.38242 73.18502 36.11927 
24 49.48561 100.0000 100.0000 61.39799 80.17240 105.6571 
25 51.72588 100.0000 0.00000 45.69204 76.45579 12.69442 
26 50.05958 0.00000 100.0000 26.91116 11.94354 93.23140 
27 0.00000 47.79621 60.34591 13.00172 15.97798 34.87393 
28 100.0000 59.17416 43.63085 55.32152 45.52609 21.09444 
29 47.31399 48.98978 0.00000 15.30544 18.28522 2.821746 
30 52.09288 0.00000 45.52943 13.67504 6.715668 17.80473 
31 55.39583 47.66229 100.0000 36.66118 28.23033 95.93503 
32 49.20125 100.0000 50.84061 49.25433 77.83779 34.13730 
33 48.29114 47.33520 50.18713 19.42368 20.47344 23.13454 
34 0.00000 30.94905 0.00000 2.814583 5.609809 0.957761 
35 100.0000 21.19106 79.12555 52.85447 28.12194 57.76640 
36 33.94804 70.69041 100.0000 38.78724 42.64239 100.3351 
37 74.96124 25.82053 0.00000 24.97064 16.18122 1.938128 
38 0.00000 77.61705 71.72771 29.46876 45.00300 52.10890 
39 24.97790 0.00000 23.41364 2.918481 1.428972 4.101855 
40 76.31808 100.0000 28.35106 59.33604 83.37497 20.45254 
41 0.00000 77.00365 31.43299 21.77685 41.43866 13.43300 
42 75.41143 77.79628 100.0000 60.92267 59.61896 102.2630 
43 100.0000 23.29829 20.42453 42.82578 24.30868 5.694621 
44 100.0000 80.02238 22.27702 64.58414 66.87211 13.84119 
45 75.35445 100.0000 76.01304 66.59775 83.90749 65.71033 
46 75.31505 74.81469 0.00000 41.41131 50.01722 7.740850 
47 100.0000 79.49395 78.19811 73.29651 68.44284 65.20791 
48 26.41218 100.0000 75.99234 47.17435 75.73852 61.95898 
49 28.19308 28.22301 100.0000 23.37304 13.68852 95.43523 
50 76.81359 0.00000 23.55016 23.74368 12.21459 5.572819 
51 75.25932 0.00000 74.69026 31.50519 15.30555 48.62962 
52 29.89921 74.23536 0.00000 22.25146 39.73291 6.670224 
53 25.50439 100.0000 24.78846 38.79633 72.77224 17.30748 
54 77.21225 23.71451 100.0000 42.81867 22.40429 96.18556 
55 0.00000 21.07405 72.23364 10.20556 6.084716 47.16194 
56 26.28049 0.00000 71.93547 11.05568 4.731703 46.30398 
57 0.00000 19.89483 30.07019 2.477380 2.869074 7.182522 
58 26.28079 33.45692 23.52814 6.517793 8.768284 5.422700 
59 66.56754 70.38587 52.30860 38.66209 44.11149 29.06392 
60 75.09479 52.62129 65.01886 37.95021 31.89315 39.44089 
61 26.64973 49.33561 81.42125 21.47795 20.25647 64.93534 
62 45.91179 68.61670 63.70484 30.71356 38.58581 40.09042 
63 71.11740 50.49568 34.71935 29.91439 26.58883 12.94970 
64 54.43736 27.35888 62.61652 20.22856 12.89017 34.90699 
65 34.69612 74.79966 32.60823 24.47400 40.44412 14.87151 
66 74.85889 20.44437 50.18860 27.36065 15.42286 22.37863 
67 47.85106 20.11464 33.14580 10.95873 6.794682 9.157018 
68 27.20651 32.63652 48.27367 9.082188 8.587601 19.64187 
69 27.58870 24.69734 0.00000 4.228739 4.718146 0.715372 
70 0.00000 69.14068 100.0000 34.00117 38.96165 99.85054 
71 20.53684 59.80271 49.57175 16.83517 25.32186 24.04429 
72 0.00000 46.98630 28.11508 7.985809 14.01721 8.538565 
73 73.54294 75.32966 75.96305 50.74351 54.38889 57.48128 
74 63.36650 75.70063 29.24590 36.74159 47.74169 14.08935 
75 100.0000 50.88622 71.33775 58.06159 41.43550 50.70125 
76 23.55356 85.77019 53.26247 31.62567 52.62927 33.82209 
77 100.0000 29.41094 48.41781 46.06044 26.95700 22.10528 
78 72.19800 51.56213 8.666635 29.07185 27.63491 4.461427 
79 21.36322 53.66478 11.70929 10.14357 17.82322 3.867091 
80 12.24937 81.96187 10.32227 24.06468 47.02365 8.622073 
81 50.32410 91.80251 71.76533 47.18518 66.50792 55.86944 
82 48.45094 95.04594 23.03440 41.50445 68.90240 15.15302 
83 47.91670 54.94911 27.45694 19.38169 25.36311 9.272675 
84 3.781525 53.33689 81.63552 21.35103 23.69556 64.93954 
85 76.14076 97.71765 95.89858 72.46434 85.07822 99.94930 
86 74.72769 92.97172 51.48222 56.60554 73.12408 32.95843 
87 91.51768 77.11623 49.84954 56.18085 56.95791 27.47065 
88 55.99479 23.67844 88.16304 27.10257 14.83771 72.28754 
89 76.02370 54.61404 92.04182 48.81124 38.25486 84.12894 
90 52.92777 23.07148 11.01567 11.67134 7.899591 1.648910 
91 2.113597 97.73685 76.72762 44.85478 73.25701 64.68554 
92 77.95688 25.26049 74.12841 35.46401 19.97196 52.79346 
93 5.158119 95.50651 28.71841 34.78339 67.06729 18.09017 
94 4.213096 24.16053 51.05457 5.479861 4.480081 21.44263 
95 51.24030 47.80404 76.36550 25.93309 22.59076 54.27972 
96 97.40498 100.0000 75.01152 84.55425 95.50545 64.90083 
97 49.19419 5.350316 74.01136 17.48430 8.105128 48.53887 
98 91.32533 51.59153 22.20459 41.64562 33.17371 7.704137 
99 74.48121 24.34677 26.05584 24.68264 15.17508 6.681145 
100 94.19953 74.22767 93.65841 70.48833 61.75923 89.52036 
101 23.32810 75.54038 80.93191 32.18492 44.14410 64.74333 
102 56.07175 76.90790 5.268606 32.29703 46.51334 7.633013 
103 27.55381 8.135545 46.48987 5.934573 2.891985 18.36942 
104 27.88054 25.86915 72.11177 13.53665 8.504053 48.56454 
105 51.80627 80.99682 89.24284 46.50033 56.40063 82.26061 
END_DATA
