assets/charts/redriver/rgb/standard_patch_set_v25/chart.ti1
CTI1   

DESCRIPTOR "Argyll Calibration Target chart information 1"
ORIGINATOR "Argyll targen"
CREATED "Mon Dec 16 08:30:18 2024"
MODIFIED "Mon Dec 16 09:01:04 2024"
APPROX_WHITE_POINT "95.106486 100.000000 108.844025"
COLOR_REP "iRGB"
WHITE_COLOR_PATCHES "6"
BLACK_COLOR_PATCHES "6"
COMP_GREY_STEPS "64"
OFPS_PATCHES "1376"

NUMBER_OF_FIELDS 7
BEGIN_DATA_FORMAT
SAMPLE_ID RGB_R RGB_G RGB_B XYZ_X XYZ_Y XYZ_Z 
END_DATA_FORMAT

NUMBER_OF_SETS 2052
BEGIN_DATA
1 100.0000 100.0000 100.0000 95.10649 100.0000 108.8440 
2 38.63551 18.72357 86.62243 19.98584 10.83407 69.56374 
3 100.0000 67.65029 77.75813 66.65669 55.50141 61.14025 
4 33.33333 33.33333 33.33333 9.548794 9.993329 10.79674 
5 19.72698 26.18105 66.20621 11.36471 8.454347 38.98039 
6 39.68254 39.68254 39.68254 13.29541 13.93477 15.09028 
7 73.81318 78.77671 57.14238 47.35421 54.95857 35.78893 
8 79.04715 12.72578 45.92054 28.70831 15.69505 19.07343 
9 9.354262 43.68820 73.51830 15.97222 16.10447 49.94758 
10 87.21625 37.91115 60.23135 40.89035 27.14049 34.04336 
11 97.25790 39.84272 91.62678 58.64879 35.95276 81.53582 
12 35.81905 100.0000 75.58687 50.21210 77.82030 63.05291 
13 7.689363 23.32863 71.51590 11.24846 7.647968 45.76681 
14 96.82540 96.82540 96.82540 88.45284 93.00036 101.2191 
15 95.23810 95.23810 95.23810 85.23229 89.61235 97.52841 
16 93.65079 93.65079 93.65079 82.08201 86.29826 93.91826 
17 92.06349 92.06349 92.06349 79.00156 83.05762 90.38812 
18 90.47619 90.47619 90.47619 75.99047 79.88996 86.93748 
19 88.88889 88.88889 88.88889 73.04830 76.79480 83.56582 
20 87.30159 87.30159 87.30159 70.17459 73.77166 80.27261 
21 85.71429 85.71429 85.71429 67.36889 70.82005 77.05733 
22 84.12698 84.12698 84.12698 64.63070 67.93949 73.91943 
23 82.53968 82.53968 82.53968 61.95958 65.12946 70.85838 
24 80.95238 80.95238 80.95238 59.35504 62.38949 67.87363 
25 79.36508 79.36508 79.36508 56.81659 59.71904 64.96462 
26 77.77778 77.77778 77.77778 54.34375 57.11761 62.13080 
27 76.19048 76.19048 76.19048 51.93603 54.58469 59.37160 
28 74.60317 74.60317 74.60317 49.59292 52.11974 56.68645 
29 73.01587 73.01587 73.01587 47.31392 49.72224 54.07477 
30 71.42857 71.42857 71.42857 45.09852 47.39164 51.53597 
31 69.84127 69.84127 69.84127 42.94621 45.12740 49.06946 
32 68.25397 68.25397 68.25397 40.85645 42.92897 46.67464 
33 66.66667 66.66667 66.66667 38.82872 40.79580 44.35090 
34 65.07937 65.07937 65.07937 36.86247 38.72731 42.09763 
35 63.49206 63.49206 63.49206 34.95718 36.72294 39.91420 
36 61.90476 61.90476 61.90476 33.11227 34.78210 37.79998 
37 60.31746 60.31746 60.31746 31.32720 32.90421 35.75433 
38 58.73016 58.73016 58.73016 29.60140 31.08866 33.77659 
39 57.14286 57.14286 57.14286 27.93428 29.33486 31.86611 
40 55.55556 55.55556 55.55556 26.32527 27.64218 30.02222 
41 53.96825 53.96825 53.96825 24.77377 26.01000 28.24424 
42 52.38095 52.38095 52.38095 23.27918 24.43769 26.53147 
43 50.79365 50.79365 50.79365 21.84089 22.92461 24.88321 
44 49.20635 49.20635 49.20635 20.45827 21.47009 23.29876 
45 47.61905 47.61905 47.61905 19.13069 20.07348 21.77738 
46 46.03175 46.03175 46.03175 17.85751 18.73409 20.31834 
47 44.44444 44.44444 44.44444 16.63806 17.45124 18.92088 
48 42.85714 42.85714 42.85714 15.47169 16.22421 17.58425 
49 41.26984 41.26984 41.26984 14.35770 15.05230 16.30764 
50 100.0000 100.0000 100.0000 95.10649 100.0000 108.8440 
51 38.09524 38.09524 38.09524 12.28411 12.87088 13.93135 
52 36.50794 36.50794 36.50794 11.32307 11.85987 12.83002 
53 34.92063 34.92063 34.92063 10.41155 10.90095 11.78544 
54 100.0000 100.0000 100.0000 95.10649 100.0000 108.8440 
55 31.74603 31.74603 31.74603 8.734027 9.136194 9.863030 
56 30.15873 30.15873 30.15873 7.966454 8.328707 8.983407 
57 28.57143 28.57143 28.57143 7.245259 7.570011 8.156934 
58 26.98413 26.98413 26.98413 6.569607 6.859225 7.382651 
59 25.39683 25.39683 25.39683 5.938635 6.195443 6.659570 
60 23.80952 23.80952 23.80952 5.351457 5.577732 5.986677 
61 22.22222 22.22222 22.22222 4.807158 5.005130 5.362922 
62 20.63492 20.63492 20.63492 4.304795 4.476643 4.787224 
63 19.04762 19.04762 19.04762 3.843388 3.991244 4.258462 
64 17.46032 17.46032 17.46032 3.421924 3.547864 3.775474 
65 15.87302 15.87302 15.87302 3.039349 3.145395 3.337051 
66 14.28571 14.28571 14.28571 2.694563 2.782680 2.941933 
67 12.69841 12.69841 12.69841 2.386418 2.458511 2.588805 
68 11.11111 11.11111 11.11111 2.113706 2.171618 2.276283 
69 9.523810 9.523810 9.523810 1.875157 1.920665 2.002911 
70 7.936508 7.936508 7.936508 1.669424 1.704234 1.767145 
71 6.349206 6.349206 6.349206 1.495071 1.520815 1.567341 
72 4.761905 4.761905 4.761905 1.350559 1.368788 1.401733 
73 3.174603 3.174603 3.174603 1.231231 1.243255 1.264986 
74 1.587302 1.587302 1.587302 1.115616 1.121628 1.132493 
75 100.0000 100.0000 0.00000 77.23538 92.85269 14.71507 
76 100.0000 0.00000 100.0000 59.70128 29.19948 97.04219 
77 0.00000 100.0000 100.0000 54.27632 78.94783 106.9308 
78 0.00000 100.0000 0.00000 36.40521 71.80052 12.80184 
79 0.00000 0.00000 100.0000 18.87111 8.147314 95.12896 
80 100.0000 0.00000 0.00000 41.83017 22.05217 2.913230 
81 0.00000 35.49067 100.0000 22.53300 15.47007 96.34960 
82 100.0000 0.00000 48.20031 45.36436 23.46562 21.52817 
83 100.0000 60.75135 0.00000 53.42138 45.23134 6.776999 
84 0.00000 100.0000 39.21752 38.68289 72.71144 24.79859 
85 51.58771 100.0000 0.00000 45.75663 76.62214 13.24003 
86 37.22071 0.00000 100.0000 23.53456 10.55181 95.34748 
87 0.00000 39.94090 0.00000 5.689580 10.37785 2.563206 
88 0.00000 0.00000 42.67004 3.722766 2.088935 15.34109 
89 100.0000 48.55565 100.0000 66.81472 43.42438 99.41336 
90 29.45003 0.00000 0.00000 3.880378 2.485132 1.134969 
91 100.0000 100.0000 30.42969 78.58258 93.39148 21.81094 
92 49.33916 100.0000 100.0000 62.76799 83.32616 107.3287 
93 0.00000 59.59268 100.0000 29.98173 30.36545 98.83253 
94 70.79955 0.00000 0.00000 19.75979 10.67261 1.879051 
95 69.81595 0.00000 76.97850 29.08297 14.33476 53.98779 
96 43.95062 57.95305 100.0000 35.94688 32.46177 98.92301 
97 0.00000 49.21607 52.43953 12.56498 17.34177 25.77996 
98 100.0000 61.57979 65.84285 60.76083 48.72804 43.70335 
99 78.07010 39.07665 0.00000 28.81818 21.98956 3.586463 
100 71.06383 100.0000 23.45316 56.12378 81.87466 17.91478 
101 100.0000 100.0000 73.26544 86.09778 96.39709 61.39423 
102 62.07298 0.00000 100.0000 32.88732 15.37412 95.78573 
103 0.00000 0.00000 64.35259 7.643295 3.656899 35.99092 
104 0.00000 65.96096 0.00000 14.90038 28.79686 5.633497 
105 0.00000 100.0000 76.43512 46.14778 75.69693 64.11698 
106 46.84461 69.12607 0.00000 24.01801 35.75927 6.497235 
107 47.58249 100.0000 64.27721 50.88472 78.49979 48.07020 
108 100.0000 0.00000 78.88138 52.28549 26.23364 57.98250 
109 100.0000 36.89041 0.00000 45.79937 29.98947 4.236310 
110 62.87464 0.00000 11.70591 15.64874 8.526318 2.887746 
111 43.58417 0.00000 48.55668 11.09855 5.791518 20.21775 
112 15.97722 100.0000 0.00000 37.30041 72.26209 12.84378 
113 83.55783 100.0000 100.0000 81.46501 92.96641 108.2048 
114 100.0000 34.95126 22.74128 46.13338 29.44810 8.077111 
115 100.0000 25.12409 100.0000 61.52019 32.83681 97.64850 
116 100.0000 62.39381 100.0000 71.99416 53.78181 101.1399 
117 83.22869 100.0000 0.00000 63.35336 85.69507 14.06458 
118 43.64634 33.42553 0.00000 10.76224 10.83401 2.384090 
119 0.00000 85.37137 100.0000 43.61604 57.63026 103.3773 
120 43.58011 100.0000 9.069844 43.06612 75.21705 13.91994 
121 77.84809 28.26901 100.0000 44.36227 24.70393 96.98230 
122 0.00000 76.33740 45.42100 23.35722 40.73128 23.80135 
123 100.0000 0.00000 29.42155 43.08843 22.55539 9.540608 
124 100.0000 26.06223 65.25655 50.63720 28.70284 39.65263 
125 100.0000 55.65552 45.48345 54.51580 42.42832 22.53591 
126 0.00000 100.0000 25.30061 37.33608 72.17281 17.70481 
127 14.37831 100.0000 100.0000 55.01982 79.33119 106.9656 
128 86.62611 100.0000 50.37204 69.78348 88.56087 34.65688 
129 25.31887 40.93831 100.0000 25.94132 19.12491 96.87558 
130 0.00000 24.87145 0.00000 2.783111 4.565724 1.594375 
131 0.00000 77.46697 68.54484 28.53066 43.83015 47.87439 
132 75.00690 0.00000 100.0000 40.21014 19.14979 96.12887 
133 74.08950 65.72516 0.00000 35.55064 39.28121 6.569669 
134 40.07387 23.80791 100.0000 25.95422 14.22876 95.92980 
135 100.0000 87.38074 0.00000 67.90869 74.20191 11.60614 
136 0.00000 34.37151 32.95654 6.012402 8.486316 10.49525 
137 45.41115 0.00000 0.00000 8.104381 4.663042 1.332899 
138 17.34966 70.61104 100.0000 36.08075 41.02026 100.5680 
139 0.00000 37.63709 56.55097 10.13875 11.27655 28.71353 
140 53.27783 81.31524 100.0000 51.07723 57.66532 102.9911 
141 59.79317 100.0000 63.72419 55.81395 81.05580 47.64688 
142 100.0000 76.83892 35.11922 63.16911 61.83099 18.94863 
143 13.16879 0.00000 85.91190 14.30881 6.396653 67.76040 
144 79.74449 47.54631 100.0000 50.14784 34.36395 98.54225 
145 37.37679 100.0000 40.35497 43.52886 75.19368 25.76448 
146 100.0000 0.00000 58.34193 47.18320 24.19304 31.10821 
147 0.00000 0.00000 20.75848 1.634735 1.253854 4.343214 
148 39.09098 52.25129 0.00000 14.50554 20.33657 4.021210 
149 0.00000 48.00331 13.39384 8.228327 14.99377 4.830786 
150 26.09664 0.00000 32.34810 4.787407 2.776253 9.145343 
151 64.57362 0.00000 49.51863 20.03949 10.38353 21.44725 
152 45.96974 0.00000 64.61354 14.99591 7.441024 36.64720 
153 66.41550 100.0000 100.0000 70.55238 87.33982 107.6935 
154 34.02477 100.0000 0.00000 40.27477 73.79568 12.98316 
155 0.00000 64.49281 69.78232 22.17557 30.62573 47.28579 
156 0.00000 26.82011 87.85395 16.39503 10.46878 71.87368 
157 0.00000 100.0000 63.48308 42.85176 74.37873 46.75651 
158 21.76705 92.12395 100.0000 49.84838 67.73719 105.0000 
159 77.34011 10.89936 0.00000 24.25981 13.59583 2.206310 
160 23.02798 31.52384 0.00000 5.637647 7.648004 2.039002 
161 100.0000 100.0000 44.84355 80.26237 94.06329 30.65852 
162 100.0000 100.0000 16.40108 77.64602 93.01692 16.87796 
163 67.70441 100.0000 0.00000 53.39018 80.55802 13.59772 
164 0.00000 88.80736 0.00000 28.05021 55.09286 10.01681 
165 52.24351 32.22302 100.0000 31.48239 19.10204 96.57933 
166 100.0000 76.28834 100.0000 78.91983 67.63121 103.4484 
167 100.0000 64.37067 26.53891 56.02289 48.79670 12.69254 
168 100.0000 43.57942 85.04121 59.85360 38.28611 70.00901 
169 28.97445 29.02914 53.09964 10.57136 9.031546 24.89367 
170 18.70118 69.67503 59.29524 23.43695 35.22430 35.50451 
171 100.0000 12.32407 0.00000 42.32639 23.04448 3.078640 
172 44.19994 70.82258 32.15634 25.49235 37.61392 14.68258 
173 22.81625 0.00000 58.75596 8.174775 4.070490 29.71725 
174 82.81266 100.0000 83.68948 74.99369 90.31551 76.95322 
175 23.21031 66.94821 0.00000 17.16239 30.65380 5.872804 
176 88.50990 66.89312 100.0000 64.16999 52.78510 101.3595 
177 21.18663 100.0000 75.50518 47.39209 76.36895 62.80092 
178 0.00000 87.62763 13.70675 27.54486 53.60289 11.32683 
179 65.42642 25.17331 48.77148 22.19500 14.21882 21.44006 
180 100.0000 74.93806 66.09215 67.34331 61.79716 46.18740 
181 87.56840 0.00000 27.71615 32.33623 17.02800 8.293077 
182 0.00000 72.46362 100.0000 36.00287 42.40605 100.8396 
183 0.00000 12.26192 39.85700 3.848714 2.926530 13.57665 
184 0.00000 54.76625 38.65230 12.44424 20.35106 15.71442 
185 24.48487 0.00000 100.0000 20.86518 9.175464 95.22240 
186 0.00000 0.00000 88.49391 14.54518 6.417218 72.34387 
187 61.90995 53.06712 21.86931 24.25874 25.70791 8.219908 
188 13.29389 0.00000 0.00000 1.649853 1.335066 1.030451 
189 44.05552 100.0000 52.05010 47.23709 76.90278 35.09387 
190 100.0000 49.74170 0.00000 49.32397 37.03767 5.411185 
191 11.63862 100.0000 13.31705 37.21134 72.18317 14.32883 
192 58.65227 79.93402 0.00000 34.71232 50.05185 8.692870 
193 40.66786 17.16737 71.48501 15.89085 9.018691 45.74453 
194 0.00000 73.60857 25.54021 19.69014 36.85792 11.90899 
195 100.0000 100.0000 86.99636 90.26839 98.06507 83.36126 
196 0.00000 23.63938 100.0000 20.48552 11.37568 95.66710 
197 40.49263 0.00000 25.06155 7.480697 4.235793 6.073003 
198 60.80105 32.57276 79.80636 28.19101 18.33040 59.17907 
199 29.82116 16.26457 0.00000 4.755753 4.125883 1.405578 
200 100.0000 31.46462 44.80870 47.70938 28.97447 19.78264 
201 0.00000 12.40840 64.67161 8.218223 4.689729 36.54298 
202 28.33571 74.70096 100.0000 39.87145 46.18715 101.3657 
203 22.49319 57.67280 63.37545 19.45359 25.11810 38.35369 
204 0.00000 47.38237 100.0000 25.61961 21.64244 97.37848 
205 65.29973 62.16315 100.0000 46.74056 40.61257 99.92787 
206 56.74450 0.00000 73.31458 21.38414 10.48351 48.28835 
207 0.00000 72.34503 78.96556 28.54966 39.32529 61.89101 
208 83.16010 85.32303 39.40093 54.91170 65.20851 22.61345 
209 87.25746 0.00000 0.00000 30.97868 16.45710 2.404749 
210 100.0000 37.52136 100.0000 63.81375 37.42328 98.41303 
211 12.73661 100.0000 50.77541 40.96444 73.69385 33.65982 
212 55.37576 25.11414 0.00000 13.72793 10.25994 2.117082 
213 76.05780 68.35019 100.0000 55.92677 49.57740 101.1745 
214 58.41879 100.0000 51.27902 52.71081 79.74043 34.65641 
215 100.0000 12.03429 28.84874 43.51654 23.48984 9.441729 
216 43.71146 0.00000 77.07668 17.47505 8.346408 53.59161 
217 35.13159 69.70503 65.68872 27.79991 37.33361 43.05019 
218 87.77452 0.00000 100.0000 49.25242 23.81202 96.55258 
219 100.0000 55.72195 87.78127 64.72063 46.54953 76.16264 
220 13.54083 25.19758 100.0000 21.37105 12.15135 95.77019 
221 64.20232 59.91388 0.00000 27.34237 31.26764 5.455131 
222 69.69677 77.59473 0.00000 39.07917 50.26198 8.503436 
223 100.0000 22.94805 77.18776 53.31292 29.08263 55.87497 
224 19.29580 66.88147 35.10734 18.40496 31.03835 15.35575 
225 63.21345 11.61628 100.0000 33.91202 16.57067 95.96273 
226 0.00000 0.00000 0.00000 1.000000 1.000000 1.000000 
227 51.07528 43.49831 84.61069 28.01148 21.85132 67.77538 
228 87.79739 0.00000 39.82309 33.75160 17.61474 14.81482 
229 100.0000 75.85412 22.85146 61.56775 60.30118 13.25696 
230 61.60839 33.39116 10.85732 18.21764 14.64430 3.795485 
231 10.78492 12.80910 0.00000 1.989996 2.295916 1.198008 
232 27.16294 53.48382 0.00000 12.21896 19.80085 4.038231 
233 100.0000 80.89460 56.89166 68.81540 67.91089 36.90193 
234 100.0000 73.88823 0.00000 59.72287 57.83257 8.877515 
235 0.00000 0.00000 53.14868 5.366821 2.746453 24.00050 
236 100.0000 79.08169 77.04836 72.58036 67.67650 62.09893 
237 0.00000 57.72773 78.04357 21.56981 25.80343 58.22010 
238 72.10833 34.33399 35.52869 25.81265 18.65307 12.81254 
239 0.00000 24.25032 23.18955 3.481865 4.707168 5.700416 
240 69.66150 100.0000 83.59146 66.41155 85.89417 76.38677 
241 100.0000 0.00000 9.902348 42.00659 22.12273 3.842466 
242 44.70479 100.0000 26.10808 44.26583 75.73891 18.34090 
243 77.28431 100.0000 11.86272 59.45699 83.65889 15.10978 
244 61.65594 0.00000 23.91301 15.64287 8.453520 6.036558 
245 85.60694 0.00000 78.43105 40.03624 19.93332 56.71204 
246 100.0000 0.00000 68.60056 49.48467 25.11349 43.23029 
247 94.91441 32.03139 52.84120 44.54044 27.34905 26.39931 
248 0.00000 53.10417 0.00000 9.635544 18.26867 3.878539 
249 58.25706 100.0000 89.77879 62.59015 83.68294 87.08003 
250 0.00000 61.58193 48.03163 16.45064 26.28555 23.45596 
251 69.21078 65.31774 32.39531 33.96880 38.00868 14.43327 
252 16.87773 41.59603 82.77591 18.74908 16.38772 64.11718 
253 100.0000 47.32279 24.24781 49.41676 35.85330 9.667013 
254 34.89858 12.77176 100.0000 23.47583 11.30316 95.49561 
255 43.74453 89.20869 86.98258 47.91461 64.23931 79.03818 
256 60.17361 40.55985 100.0000 36.80467 24.58350 97.35709 
257 52.20635 80.17805 60.73305 37.92900 51.25163 39.40778 
258 57.69751 0.00000 0.00000 12.93590 7.154189 1.559295 
259 14.48104 0.00000 21.88000 2.454519 1.668785 4.731491 
260 0.00000 35.43159 45.66928 7.796751 9.556258 18.79471 
261 56.09848 37.03153 0.00000 16.22488 14.78794 2.859607 
262 73.01272 100.0000 60.37141 62.26815 84.46807 44.13749 
263 53.32534 26.53656 47.07574 16.43513 11.57787 19.83953 
264 36.82619 52.47470 15.65632 14.35329 20.32955 6.009153 
265 77.80641 54.44542 58.21373 38.60824 33.30618 33.18388 
266 76.81611 100.0000 36.30376 60.85091 84.18068 24.06202 
267 12.24518 0.00000 100.0000 19.43731 8.439248 95.15549 
268 13.59079 79.77080 100.0000 40.78722 50.97198 102.2411 
269 0.00000 88.37125 26.10102 28.74095 54.89038 15.13141 
270 63.89755 100.0000 10.87699 51.55136 79.58628 14.57864 
271 30.54560 100.0000 29.60435 40.78118 73.90941 19.65812 
272 28.62596 0.00000 79.39087 14.32753 6.644792 56.99810 
273 42.55527 7.356820 31.48723 8.856100 5.219809 8.972846 
274 41.00495 73.75066 84.88345 36.86533 44.51069 72.15016 
275 87.70564 26.88639 0.00000 33.40782 20.79703 3.114541 
276 0.00000 100.0000 89.26913 50.22006 77.32558 85.56606 
277 23.44323 79.77411 0.00000 24.07517 44.42522 8.167006 
278 100.0000 24.10494 0.00000 43.50718 25.40572 3.472238 
279 100.0000 46.03813 70.29114 56.25461 37.97022 47.58795 
280 87.45782 51.07038 0.00000 39.06801 32.40251 5.056627 
281 14.90971 0.00000 44.39052 4.754132 2.593036 16.63841 
282 100.0000 100.0000 59.29954 82.78315 95.07144 43.93573 
283 34.34556 35.49145 80.74909 19.62678 14.76438 60.44568 
284 8.784049 48.54542 36.57179 10.41413 16.17877 13.74910 
285 9.802273 31.78304 0.00000 4.313493 7.037138 1.990828 
286 0.00000 46.03042 77.70128 17.44964 17.72436 56.35289 
287 0.00000 11.51452 0.00000 1.443842 1.887561 1.147949 
288 34.15202 38.88371 69.35314 17.17392 15.00980 43.96685 
289 73.70456 14.03902 25.55694 23.08812 13.19699 7.169214 
290 77.42541 54.00693 78.57048 43.23139 34.87108 59.64319 
291 100.0000 90.34594 12.56594 70.21036 78.39073 13.64978 
292 72.89948 22.86119 65.09429 29.34961 17.07429 38.33177 
293 100.0000 11.38808 49.04193 45.93472 24.39118 22.38138 
294 0.00000 21.55060 75.69320 11.88266 7.512841 51.65719 
295 88.03973 0.00000 53.55715 36.02922 18.54760 25.82018 
296 83.36868 61.40799 43.48196 42.75337 39.81510 21.15193 
297 35.97243 71.01882 37.56305 23.80339 36.82618 17.62239 
298 26.15622 73.56745 87.53047 34.20535 42.89041 76.61443 
299 41.85596 91.19497 100.0000 53.56554 68.66425 104.9832 
300 17.89123 100.0000 23.65259 38.31974 72.69330 17.15010 
301 53.04390 75.85297 14.96167 30.25692 44.20416 9.627480 
302 54.94496 20.70648 100.0000 30.84868 16.18041 96.04874 
303 0.00000 13.26403 26.72321 2.598774 2.537469 6.651271 
304 13.97145 49.44976 20.30228 9.715202 16.40433 6.705050 
305 32.53326 100.0000 100.0000 57.80463 80.76704 107.0961 
306 75.56474 14.52801 100.0000 41.22316 20.64633 96.36439 
307 0.00000 21.45131 12.10053 2.581608 3.774025 2.726115 
308 20.80486 0.00000 72.25080 11.04721 5.186698 46.31725 
309 58.80019 86.14027 30.49360 40.04522 58.44992 17.12608 
310 85.60073 74.49424 8.098886 48.06274 52.29453 9.108589 
311 40.32257 23.01229 15.64408 8.427478 7.060063 3.757108 
312 44.36094 47.15444 17.13433 14.88104 18.01798 5.883751 
313 23.79286 16.15361 100.0000 21.54816 10.70251 95.48119 
314 0.00000 0.00000 76.69542 10.81702 4.926190 52.70728 
315 100.0000 27.05822 11.82840 44.17116 26.35902 4.848469 
316 38.41504 0.00000 36.94735 7.992455 4.372848 11.82012 
317 72.87515 93.15017 100.0000 69.01582 78.72853 106.1122 
318 43.38262 92.63891 0.00000 37.20710 63.84063 11.22311 
319 100.0000 42.65639 35.91610 49.11544 33.58948 14.68992 
320 88.60329 0.00000 14.41179 32.35997 17.13151 4.175168 
321 50.42360 100.0000 39.16809 47.57713 77.29804 25.18384 
322 59.30868 79.92934 37.48374 37.08700 51.03247 19.61684 
323 59.84534 86.39361 70.14822 47.39483 61.71461 52.44647 
324 80.93744 32.67232 26.06980 30.38220 20.61596 8.416710 
325 79.24415 77.82631 100.0000 63.10296 60.78020 102.9590 
326 47.41319 31.83396 33.17661 13.32744 11.51300 10.80886 
327 57.96202 45.52809 53.90402 23.75363 21.40431 27.34762 
328 77.17249 0.00000 87.80786 37.05180 18.04901 72.16618 
329 21.92891 100.0000 90.73251 52.34776 78.36278 88.36733 
330 0.00000 59.39828 24.70894 12.91968 23.41457 9.357046 
331 0.00000 77.33480 0.00000 20.81399 40.62244 7.604720 
332 0.00000 87.02405 78.97949 37.32333 56.86353 64.83607 
333 24.72466 94.33977 45.12719 37.11693 65.29893 27.59399 
334 19.01880 78.48066 23.88445 23.53981 42.91746 12.26301 
335 43.69755 51.38888 89.00579 29.30815 25.94275 76.26699 
336 65.86652 26.29808 100.0000 36.84135 20.36738 96.54133 
337 29.53316 13.85146 34.57411 6.252045 4.402574 10.55850 
338 87.74302 57.67665 14.02428 42.01021 37.45742 7.511479 
339 11.78591 0.00000 32.79203 3.101324 1.901892 9.292476 
340 49.86316 45.88146 25.17110 16.90713 18.44202 8.360056 
341 82.60320 79.72473 52.85288 53.02244 58.80772 32.03588 
342 60.68665 50.28696 0.00000 22.00851 23.21902 4.182438 
343 100.0000 15.48129 88.73991 56.19453 28.97114 74.95070 
344 87.46479 64.66353 0.00000 44.44212 43.14116 6.846454 
345 8.740304 20.51881 63.04210 8.912129 6.170916 34.86176 
346 37.63913 9.035124 0.00000 6.077962 4.069585 1.325072 
347 47.61900 45.54711 100.0000 32.93749 24.60152 97.56425 
348 10.19933 63.15518 100.0000 31.91942 33.61403 99.35755 
349 93.06683 50.59618 68.45295 51.07697 37.47774 45.34150 
350 35.86939 56.02943 28.29983 16.18711 23.10145 10.56571 
351 0.00000 100.0000 12.75011 36.67029 71.90653 14.19806 
352 67.15950 75.92944 86.63518 49.61109 52.79376 76.12536 
353 77.96158 90.02787 14.66512 52.50198 68.91957 13.16370 
354 65.11996 0.00000 63.96119 23.13552 11.65503 36.25233 
355 15.80580 22.62756 0.00000 3.361279 4.418616 1.535528 
356 0.00000 47.37137 27.85202 8.871912 14.93902 9.183255 
357 40.75024 0.00000 88.51948 20.19623 9.329894 72.65484 
358 0.00000 89.81989 45.65270 31.89755 57.75503 26.81630 
359 38.17269 0.00000 10.82133 6.119511 3.616185 2.298291 
360 100.0000 79.87900 13.16971 63.41621 64.77036 11.48983 
361 30.64569 63.56017 100.0000 34.79949 35.36539 99.54392 
362 22.37616 52.88137 40.33264 13.64726 19.94100 16.65811 
363 0.00000 62.50987 12.67090 13.60571 25.78821 6.496215 
364 80.40732 22.03920 76.23370 37.03215 20.55029 53.65134 
365 77.23154 22.72577 46.98745 28.62291 17.07511 20.18785 
366 50.73368 29.47718 69.54932 20.41334 13.81051 43.82382 
367 27.81352 0.00000 45.37674 6.671729 3.565275 17.47202 
368 100.0000 68.29725 89.41749 70.71310 57.62605 80.95655 
369 20.54742 100.0000 61.08033 43.74831 74.90181 44.05362 
370 76.85279 0.00000 57.54550 28.72634 14.69500 29.41400 
371 100.0000 44.29330 47.93836 51.16391 35.12907 23.25793 
372 88.72130 13.10006 0.00000 32.67636 18.14820 2.641765 
373 22.70304 20.89976 81.56855 15.26752 8.943022 60.87766 
374 29.25440 0.00000 20.51932 4.462783 2.713599 4.403764 
375 68.22174 24.44286 76.12729 29.65275 17.21430 53.23756 
376 24.72394 100.0000 9.046187 38.59145 72.90996 13.70713 
377 0.00000 65.53372 88.61936 28.29037 33.83426 77.13990 
378 72.22163 38.78268 100.0000 42.88884 27.07264 97.51713 
379 82.07206 61.03270 24.27437 39.68061 38.22315 10.64687 
380 74.75436 65.35326 43.87655 38.68641 40.30828 21.75023 
381 43.61456 22.97206 65.17709 15.87763 10.14699 37.80479 
382 43.24032 69.49032 100.0000 40.87540 42.65297 100.6306 
383 100.0000 12.83677 64.00387 48.92532 25.73954 37.66343 
384 54.47974 100.0000 16.39058 47.34436 77.39334 15.45561 
385 100.0000 88.68575 71.27183 77.13029 79.31066 55.79584 
386 18.30304 27.94345 45.90350 7.574987 7.356859 18.56369 
387 30.78851 87.46743 61.87104 36.38012 57.32792 41.94150 
388 30.04018 47.35452 42.01829 13.37365 17.07801 17.26698 
389 74.50126 0.00000 32.68579 23.57802 12.46095 10.19752 
390 66.80601 84.22198 100.0000 59.36049 64.64318 103.9018 
391 76.41327 24.39986 0.00000 24.96203 15.90370 2.614811 
392 41.66747 74.45085 59.30857 30.66266 42.66103 36.57380 
393 22.41840 88.81734 72.38918 38.36471 59.42333 55.54035 
394 100.0000 87.85304 28.09843 69.37494 75.29928 17.75325 
395 30.50025 89.10402 14.48010 31.67681 57.22839 11.96515 
396 87.06581 100.0000 62.91594 72.55553 89.70872 47.48818 
397 45.86223 60.13728 46.92254 22.92713 28.74238 22.68794 
398 100.0000 21.49180 22.46980 43.91219 25.03406 7.251245 
399 55.10100 46.87167 63.98578 24.94564 22.37269 38.25501 
400 0.00000 38.07717 67.58315 12.64583 12.44251 41.41499 
401 100.0000 89.71778 100.0000 87.38245 84.55410 106.2693 
402 100.0000 65.78617 54.03893 60.17669 51.49689 31.36691 
403 38.40400 36.66446 100.0000 27.76922 18.55090 96.66851 
