demo-projects/old/Demo-Report-Matrix-2026-08-10_231948/runs/run2/verifications/Demo-Report-Matrix-verify.ti1
CTI1   

DESCRIPTOR "Argyll Calibration Target chart information 1"
ORIGINATOR "Argyll targen"
CREATED "Mon Aug 10 23:17:26 2026"
APPROX_WHITE_POINT "95.106486 100.000000 108.844025"
COLOR_REP "iRGB"
WHITE_COLOR_PATCHES "4"
BLACK_COLOR_PATCHES "4"
OFPS_PATCHES "97"

NUMBER_OF_FIELDS 7
BEGIN_DATA_FORMAT
SAMPLE_ID RGB_R RGB_G RGB_B XYZ_X XYZ_Y XYZ_Z 
END_DATA_FORMAT

NUMBER_OF_SETS 105
BEGIN_DATA
1 100.0000 100.0000 100.0000 95.10649 100.0000 108.8440 
2 100.0000 100.0000 100.0000 95.10649 100.0000 108.8440 
3 100.0000 100.0000 100.0000 95.10649 100.0000 108.8440 
4 100.0000 100.0000 100.0000 95.10649 100.0000 108.8440 
5 0.00000 0.00000 0.00000 1.000000 1.000000 1.000000 
6 0.00000 0.00000 0.00000 1.000000 1.000000 1.000000 
7 0.00000 0.00000 0.00000 1.000000 1.000000 1.000000 
8 0.00000 0.00000 0.00000 1.000000 1.000000 1.000000 
9 100.0000 100.0000 0.00000 77.23538 92.85269 14.71507 
10 0.00000 0.00000 100.0000 18.87111 8.147314 95.12896 
11 100.0000 0.00000 0.00000 41.83017 22.05217 2.913230 
12 0.00000 100.0000 100.0000 54.27632 78.94783 106.9308 
13 0.00000 100.0000 0.00000 36.40521 71.80052 12.80184 
14 100.0000 0.00000 100.0000 59.70128 29.19948 97.04219 
15 0.00000 38.69451 100.0000 23.25788 16.91963 96.59123 
16 0.00000 61.01825 0.00000 12.70359 24.40392 4.901231 
17 0.00000 0.00000 49.66734 4.770356 2.507904 20.85885 
18 100.0000 0.00000 49.59690 45.58898 23.55546 22.71129 
19 100.0000 51.96322 100.0000 67.93881 45.67225 99.78806 
20 100.0000 51.02120 0.00000 49.74732 37.88424 5.552301 
21 49.79587 0.00000 0.00000 9.662389 5.466356 1.405904 
22 100.0000 100.0000 50.20307 81.09421 94.39597 35.03991 
23 0.00000 100.0000 50.70625 40.34823 73.37747 33.57011 
24 49.48561 100.0000 100.0000 62.82251 83.35428 107.3313 
25 51.72588 100.0000 0.00000 45.81104 76.65020 13.24258 
26 50.05958 0.00000 100.0000 27.63298 12.66496 95.53953 
27 0.00000 47.79621 60.34591 13.64115 17.05569 33.65792 
28 100.0000 59.17416 43.63085 55.62505 45.07079 21.59713 
29 47.31399 48.98978 0.00000 16.00974 19.50088 3.780674 
30 52.09288 0.00000 45.52943 13.67816 7.175224 17.91731 
31 55.39583 47.66229 100.0000 36.62472 27.44441 97.91881 
32 49.20125 100.0000 50.84061 48.81139 77.73849 34.08497 
33 48.29114 47.33520 50.18713 19.69763 20.18867 23.93550 
34 0.00000 30.94905 0.00000 3.762538 6.524303 1.920854 
35 100.0000 21.19106 79.12555 53.66604 28.87796 58.80165 
36 33.94804 70.69041 100.0000 38.93412 42.55157 100.7133 
37 74.96124 25.82053 0.00000 24.22978 15.82652 2.638481 
38 0.00000 77.61705 71.72771 29.42922 44.32783 52.18068 
39 24.97790 0.00000 23.41364 3.873488 2.389068 5.309903 
40 76.31808 100.0000 28.35106 59.75553 83.70496 19.99150 
41 0.00000 77.00365 31.43299 22.06368 40.81896 15.12228 
42 75.41143 77.79628 100.0000 60.54834 59.43723 102.8343 
43 100.0000 23.29829 20.42453 44.01513 25.43676 6.678456 
44 100.0000 80.02238 22.27702 63.94866 65.12084 13.87014 
45 75.35445 100.0000 76.01304 67.58856 86.76575 64.49515 
46 75.31505 74.81469 0.00000 40.93353 48.89456 8.141819 
47 100.0000 79.49395 78.19811 73.15967 68.29936 63.94381 
48 26.41218 100.0000 75.99234 48.33754 76.84054 63.56246 
49 28.19308 28.22301 100.0000 23.80146 14.09157 96.01670 
50 76.81359 0.00000 23.55016 24.31536 12.92791 6.315245 
51 75.25932 0.00000 74.69026 31.75200 15.78568 50.73888 
52 29.89921 74.23536 0.00000 22.05107 38.68839 7.166235 
53 25.50439 100.0000 24.78846 39.46004 73.27218 17.61267 
54 77.21225 23.71451 100.0000 43.26447 23.13544 96.73735 
55 0.00000 21.07405 72.23364 10.88040 7.021778 46.65641 
56 26.28049 0.00000 71.93547 11.80026 5.584618 45.91725 
57 0.00000 19.89483 30.07019 3.475594 3.846652 8.313508 
58 26.28079 33.45692 23.52814 7.341154 8.985985 6.440625 
59 66.56754 70.38587 52.30860 37.63334 43.22990 29.33642 
60 75.09479 52.62129 65.01886 37.65713 31.67860 40.62175 
61 26.64973 49.33561 81.42125 21.94608 21.42780 62.69617 
62 45.91179 68.61670 63.70484 29.94221 37.68919 40.61562 
63 71.11740 50.49568 34.71935 29.45552 26.95697 13.77011 
64 54.43736 27.35888 62.61652 19.91895 13.22796 35.15048 
65 34.69612 74.79966 32.60823 24.97050 40.47223 15.49139 
66 74.85889 20.44437 50.18860 27.32312 15.93938 22.71492 
67 47.85106 20.11464 33.14580 11.73857 8.109565 10.21947 
68 27.20651 32.63652 48.27367 10.08167 9.842747 20.81764 
69 27.58870 24.69734 0.00000 5.284522 5.819197 1.704587 
70 0.00000 69.14068 100.0000 34.30242 39.00561 100.2728 
71 20.53684 59.80271 49.57175 17.37253 25.62488 24.57528 
72 0.00000 46.98630 28.11508 8.776059 14.71303 9.257121 
73 73.54294 75.32966 75.96305 49.71031 52.73059 58.79276 
74 63.36650 75.70063 29.24590 35.80070 46.83272 14.53133 
75 100.0000 50.88622 71.33775 58.05275 41.13342 49.52138 
76 23.55356 85.77019 53.26247 32.24221 53.71353 32.52990 
77 100.0000 29.41094 48.41781 47.88978 28.46065 22.53996 
78 72.19800 51.56213 8.666635 28.84017 27.35945 5.378562 
79 21.36322 53.66478 11.70929 11.59700 19.54959 5.229524 
80 12.24937 81.96187 10.32227 24.32963 46.51089 9.542786 
81 50.32410 91.80251 71.76533 47.48310 67.26199 55.70860 
82 48.45094 95.04594 23.03440 41.48560 68.60196 15.97917 
83 47.91670 54.94911 27.45694 19.37006 24.15092 10.24195 
84 3.781525 53.33689 81.63552 21.13071 23.01187 63.39370 
85 76.14076 97.71765 95.89858 72.91098 86.05656 98.81661 
86 74.72769 92.97172 51.48222 56.24283 73.54455 33.45678 
87 91.51768 77.11623 49.84954 57.87914 59.10791 29.14420 
88 55.99479 23.67844 88.16304 27.22924 15.37405 72.80631 
89 76.02370 54.61404 92.04182 46.97560 36.61571 83.06884 
90 52.92777 23.07148 11.01567 12.63545 9.260580 3.075270 
91 2.113597 97.73685 76.72762 44.50275 72.17433 63.96235 
92 77.95688 25.26049 74.12841 35.19965 20.30964 50.61894 
93 5.158119 95.50651 28.71841 34.25821 65.34286 17.95062 
94 4.213096 24.16053 51.05457 6.819793 6.037925 22.64628 
95 51.24030 47.80404 76.36550 26.81651 23.39479 54.93519 
96 97.40498 100.0000 75.01152 84.20764 95.36714 63.80536 
97 49.19419 5.350316 74.01136 18.65383 9.277603 49.19279 
98 91.32533 51.59153 22.20459 43.06354 34.64113 9.062858 
99 74.48121 24.34677 26.05584 24.70281 15.64508 7.750816 
100 94.19953 74.22767 93.65841 70.12571 61.68830 89.81241 
101 23.32810 75.54038 80.93191 32.68934 43.95863 65.68737 
102 56.07175 76.90790 5.268606 31.85674 45.94508 8.442348 
103 27.55381 8.135545 46.48987 7.050379 4.128571 18.42856 
104 27.88054 25.86915 72.11177 14.06063 9.604488 46.81825 
105 51.80627 80.99682 89.24284 46.22494 55.34471 81.48532 
END_DATA
CTI1   

DESCRIPTOR "Argyll Calibration Target chart information 1"
ORIGINATOR "Argyll targen"
DENSITY_EXTREME_VALUES "8"
CREATED "August 10, 2026"

NUMBER_OF_FIELDS 7
BEGIN_DATA_FORMAT
INDEX RGB_R RGB_G RGB_B XYZ_X XYZ_Y XYZ_Z 
END_DATA_FORMAT

NUMBER_OF_SETS 8
BEGIN_DATA
0 100.0000 100.0000 100.0000 95.10649 100.0000 108.8440 
1 0.00000 47.36069 100.0000 25.61297 21.62916 97.37627 
2 100.0000 0.00000 79.35138 52.42580 26.28975 58.72153 
3 0.00000 0.00000 58.99714 6.485834 3.193987 29.89445 
4 100.0000 66.65930 0.00000 56.05879 50.50543 7.656144 
5 0.00000 35.60114 0.00000 4.685619 8.370208 2.228550 
6 84.44437 0.00000 0.00000 28.84279 15.35583 2.304665 
7 0.00000 0.00000 0.00000 1.000000 1.000000 1.000000 
END_DATA
CTI1   

DESCRIPTOR "Argyll Calibration Target chart information 1"
ORIGINATOR "Argyll targen"
DEVICE_COMBINATION_VALUES "9"
CREATED "August 10, 2026"

NUMBER_OF_FIELDS 7
BEGIN_DATA_FORMAT
INDEX RGB_R RGB_G RGB_B XYZ_X XYZ_Y XYZ_Z 
END_DATA_FORMAT

NUMBER_OF_SETS 9
BEGIN_DATA
0 100.0000 100.0000 100.0000 95.10649 100.0000 108.8440 
1 0.00000 100.0000 100.0000 54.27632 78.94783 106.9308 
2 100.0000 0.00000 100.0000 59.70128 29.19948 97.04219 
3 0.00000 0.00000 100.0000 18.87111 8.147314 95.12896 
4 100.0000 100.0000 0.00000 77.23538 92.85269 14.71507 
5 0.00000 100.0000 0.00000 36.40521 71.80052 12.80184 
6 100.0000 0.00000 0.00000 41.83017 22.05217 2.913230 
7 0.00000 0.00000 0.00000 1.000000 1.000000 1.000000 
8 50.00000 50.00000 50.00000 21.14266 22.19007 24.08306 
END_DATA
