tests/fixtures/charts/fpg_k31/c100/FPG-verify-reference.ti3
CTI3   

DESCRIPTOR "ChromIQ colorimetric verification reference"
ORIGINATOR "ChromIQ"
CREATED "Mi Sep 23 17:53:06 2026"
DEVICE_CLASS "OUTPUT"
COLOR_REP "RGB_XYZ"
CHROMIQ_SET_VERSION "PROVISIONAL-r1"
CHROMIQ_INTENT "absolute"
CHROMIQ_MARGIN "safe"
CHROMIQ_MASTER_TOTAL "5960"
CHROMIQ_IN_GAMUT "5260"
CHROMIQ_REQUESTED "100"
CHROMIQ_CORNER_IDS "101 102 103 104 105 106 107 108"

NUMBER_OF_FIELDS 10
BEGIN_DATA_FORMAT
SAMPLE_ID RGB_R RGB_G RGB_B XYZ_X XYZ_Y XYZ_Z LAB_L LAB_A LAB_B
END_DATA_FORMAT

NUMBER_OF_SETS 108
BEGIN_DATA
1 0.0893 0.0000 0.0289 0.0000 0.0000 0.0000 0.0000 0.0000 0.0000
2 98.2617 98.7708 99.7841 82.8689 85.9461 70.9381 94.2893 -0.0038 -0.0130
3 88.0511 88.4155 89.4344 64.7489 67.1531 55.4268 85.5812 -0.0035 -0.0120
4 81.6386 81.9020 82.7383 54.0925 56.1011 46.3047 79.6713 -0.0033 -0.0113
5 74.5076 74.8876 75.4585 44.5352 46.1889 38.1233 73.6679 -0.0031 -0.0106
6 64.5111 64.7945 65.4028 32.1868 33.3820 27.5528 64.4690 -0.0028 -0.0095
7 58.0235 58.1751 59.0038 25.2219 26.1584 21.5906 58.1871 -0.0025 -0.0088
8 50.8678 51.1452 51.6017 19.2279 19.9419 16.4597 51.7715 -0.0024 -0.0080
9 41.2472 41.1790 41.4946 11.9570 12.4010 10.2355 41.8464 -0.0020 -0.0068
10 27.2143 27.5601 27.8506 5.2230 5.4169 4.4710 27.8910 -0.0015 -0.0052
11 17.3164 17.9633 18.2635 2.1495 2.2293 1.8400 16.6475 -0.0011 -0.0039
12 2.8479 2.9980 3.0619 0.2413 0.2502 0.2065 2.2605 -0.0002 -0.0008
13 0.0000 34.7661 71.5261 9.4498 9.0128 30.6576 36.0089 6.3493 -54.1060
14 3.5585 68.6235 86.6871 23.5768 30.7951 49.1084 62.3343 -24.9873 -33.1671
15 99.0061 3.8825 68.8386 43.3224 21.6346 28.3531 53.6371 82.7959 -20.0157
16 41.0779 0.0000 0.9190 4.8320 2.4656 0.1543 17.7621 38.8134 27.7118
17 90.9846 56.7191 51.9621 44.3987 35.1674 17.6527 65.8788 33.1757 21.5572
18 20.0387 45.2750 1.2415 7.3373 11.8848 1.5609 41.0324 -33.9495 45.0431
19 70.1811 93.2522 61.0955 50.7826 65.0567 27.5078 84.5129 -29.4610 34.6246
20 0.0000 46.9321 37.7813 7.9326 12.6405 9.0118 42.2165 -33.4713 4.7761
21 68.1418 45.6971 1.8745 22.3767 19.5606 2.0415 51.3367 17.0184 57.8212
22 60.6018 34.2969 47.6628 18.4437 13.6483 13.5209 43.7243 30.6573 -6.4675
23 76.7817 58.0038 82.5944 40.0034 33.0068 43.9038 64.1664 27.3705 -23.8421
24 69.3938 25.1984 4.4977 18.9614 12.0161 1.2157 41.2417 44.0285 49.6637
25 61.5223 71.0474 8.4349 28.2364 35.4460 4.8230 66.0944 -21.8226 63.9265
26 58.6737 88.8834 89.3765 47.2336 58.5907 54.9284 81.0661 -24.2382 -7.2701
27 26.5982 0.0000 38.3805 3.7601 1.7857 7.7269 14.3201 38.8648 -38.5430
28 72.3733 68.2115 49.1537 35.6940 37.3347 16.8777 67.5274 -1.0191 26.1762
29 0.0000 7.7795 66.9912 5.2651 2.5635 25.1818 18.2035 42.2621 -75.6776
30 84.5977 2.2184 34.5176 27.8714 14.1185 6.7951 44.4025 70.2407 17.1311
31 0.0000 73.2608 44.0592 18.6160 31.8411 13.9753 63.2114 -52.4443 25.9187
32 74.3115 58.4036 62.3947 34.6031 30.9384 24.3702 62.4556 17.1463 2.0814
33 1.0643 65.5688 68.6043 18.4546 26.6619 30.0119 58.6601 -33.6646 -14.0357
34 84.9571 2.7479 17.5693 27.0875 13.7957 2.3534 43.9385 69.1116 42.2374
35 1.5734 72.9647 2.2036 16.5956 30.8960 4.1847 62.4197 -59.8897 61.1782
36 35.1430 63.4371 92.5856 26.7765 29.3303 55.4078 61.0721 -5.9982 -42.2491
37 48.0001 33.8875 24.6859 11.5487 10.2546 3.9131 38.2955 12.4329 21.2221
38 67.9929 1.2670 69.2069 21.5607 10.5303 27.6660 38.7779 67.3700 -44.4943
39 57.9677 59.2041 71.9472 27.8375 27.8092 32.7490 59.7159 4.1002 -16.4296
40 39.7674 45.6762 32.9538 12.0987 14.2519 6.8903 44.5920 -10.8553 17.0536
41 61.6367 1.7445 42.7699 14.8464 7.3996 10.5441 32.6999 58.0766 -16.7693
42 53.1713 83.4488 69.7062 37.4704 49.1541 32.7043 75.5471 -29.7273 10.9324
43 35.1713 9.4884 31.5237 5.4405 3.1801 5.4278 20.7511 33.3653 -17.3690
44 52.2944 87.4752 4.0520 34.0640 51.1926 6.5975 76.7956 -46.5183 73.8329
45 14.2848 85.2650 78.4465 31.6805 47.5564 41.5235 74.5442 -45.2586 -2.9659
46 64.5062 28.8511 30.1392 17.7113 12.0348 5.3910 41.2714 37.3652 18.1937
47 41.6810 33.7378 57.0213 12.4666 10.3451 18.4652 38.4548 18.1107 -27.5334
48 66.1578 2.2401 33.8807 16.3695 8.2496 6.4288 34.4973 59.1970 1.6457
49 43.4871 68.7785 34.5992 21.9722 30.8132 9.7403 62.3496 -32.3136 36.9787
50 90.8705 45.7412 60.0687 42.0184 29.1940 21.9627 60.9525 47.3829 4.0284
51 57.6893 4.1734 2.7161 11.4070 5.9432 0.5624 29.2686 50.3297 39.8485
52 49.3729 65.3296 71.2953 27.0249 31.0062 32.6875 62.5129 -11.2031 -11.5152
53 1.0989 42.6252 61.2684 9.6051 11.8282 22.3717 40.9417 -13.6568 -31.2665
54 14.1125 17.4944 0.0000 1.3867 1.7578 0.2154 14.1610 -8.4131 20.3499
55 57.7056 28.8017 58.8199 17.5565 11.6904 19.6172 40.7197 38.9123 -26.1026
56 40.7926 5.0849 17.4723 5.7754 3.1173 1.7047 20.5075 38.2718 8.0674
57 25.9174 20.3967 29.8091 4.3839 3.7600 4.9568 22.8616 10.9487 -11.3240
58 85.4882 42.7603 71.6469 39.0977 26.4066 31.6232 58.4210 49.2994 -16.9583
59 0.6510 46.4617 54.1379 9.7116 13.3421 17.9372 43.2742 -22.8573 -18.0553
60 72.0380 63.4264 21.0392 31.1479 32.4455 5.9065 63.7094 -0.5009 54.3903
61 84.1221 62.8895 44.1673 40.9824 36.8481 14.0120 67.1629 17.4720 32.6348
62 34.7533 42.3150 62.0101 13.2498 13.3731 22.4375 43.3201 2.3262 -27.2926
63 79.9888 70.2941 64.7091 43.4505 42.3029 27.2725 71.0793 7.9913 11.8596
64 98.8574 68.7261 1.9825 52.4396 46.4653 4.8862 73.8465 20.8601 76.9547
65 40.5191 36.6021 4.4656 9.2968 10.0686 1.3915 37.9652 -3.3344 41.7564
66 35.8670 25.9577 68.9726 11.6230 7.8916 27.3112 33.7561 32.5263 -52.5560
67 0.0000 80.1193 63.3724 24.6878 39.9114 26.1623 69.4064 -50.6345 10.8777
68 60.1873 2.5403 21.8932 12.8502 6.5184 2.6162 30.6845 54.1703 17.1913
69 48.8955 1.6867 75.1905 14.5231 6.8469 32.7309 31.4557 61.4794 -65.1269
70 56.0373 71.1148 67.4162 31.2939 36.8438 29.5753 67.1597 -14.8380 1.3145
71 24.6003 8.5605 3.5667 1.7470 1.3331 0.3084 11.5053 12.7670 14.0163
72 1.1612 90.0480 41.8433 28.6827 50.7786 15.8405 76.5447 -65.1264 44.1883
73 45.9798 48.0493 79.4977 21.2001 19.1122 38.7589 50.8182 13.7706 -40.2611
74 68.7082 50.3878 44.4296 26.2620 23.2050 12.7207 55.2828 16.8523 15.6643
75 75.1444 92.2578 36.9856 50.7044 64.7182 15.3094 84.3383 -28.9155 58.9299
76 62.5526 44.6661 24.9055 19.6525 17.7540 4.7204 49.1964 13.2314 35.3468
77 74.4632 45.8239 48.6826 28.8381 22.5741 14.6662 54.6309 29.9311 9.3305
78 35.9941 94.3440 21.2468 34.4782 57.5723 9.8293 80.5004 -61.0608 67.9752
79 83.2354 41.5426 1.9302 30.9531 22.3957 2.0643 54.4444 38.7176 62.9631
80 99.0491 38.2156 92.2659 52.7626 31.6991 54.4705 63.0934 68.0455 -37.7708
81 20.2572 33.6361 28.6755 5.4730 7.0130 4.9793 31.8365 -14.0368 4.0317
82 73.9456 42.9729 30.5965 25.9548 20.2181 6.3483 52.0829 29.3768 32.3239
83 31.6679 19.0957 22.4396 4.6406 3.7452 2.8244 22.8106 14.5871 1.9790
84 29.5012 0.9267 83.2618 11.0204 4.9095 41.2154 26.4752 59.5655 -85.4491
85 38.1284 16.4263 0.0000 5.2474 3.7929 0.3494 22.9748 21.4838 33.0184
86 65.2723 74.4349 60.8453 36.2000 41.8373 24.4985 70.7586 -13.2582 16.1636
87 19.3031 47.0069 27.0677 8.5486 13.0085 5.1525 42.7760 -30.3937 21.9936
88 72.0388 65.6406 72.7328 38.1271 36.7040 34.5704 67.0544 8.9986 -6.4528
89 40.6109 68.9948 2.4908 19.7539 29.8092 3.8459 61.4892 -39.2497 61.6284
90 92.0126 44.9347 24.5578 39.0273 27.6372 5.3387 59.5595 44.1698 49.9866
91 67.9913 29.9351 40.9169 20.6876 13.7122 9.9143 43.8173 41.4951 4.4457
92 29.7018 24.7962 85.9516 13.8557 8.4877 44.6311 34.9786 42.1558 -75.0559
93 83.3073 35.1472 32.2463 30.6886 20.1635 6.5927 52.0216 48.1827 31.1403
94 31.1539 6.9397 60.0683 7.3061 3.7052 19.6812 22.6718 44.8905 -57.3542
95 77.4742 58.9485 71.8211 38.5433 33.0159 33.0492 64.1738 22.7454 -9.1913
96 89.5663 26.3127 0.2411 32.0157 18.9355 1.4461 50.6116 59.1118 62.8993
97 36.9728 80.4608 35.6598 26.5975 41.5661 11.6008 70.5707 -47.6692 45.2670
98 83.7687 86.9628 2.9277 51.2023 60.3707 7.2155 82.0393 -17.6891 80.2637
99 53.8921 49.0262 41.4905 18.4010 18.6695 10.8662 50.2983 2.0983 12.5574
100 41.1687 75.0596 69.0276 28.8190 38.3840 31.3841 68.3027 -29.0728 0.4461
101 100.0000 100.0000 100.0000 96.4250 100.0000 82.5339 100.0000 0.0053 -0.0104
102 0.0000 0.0000 0.0000 0.0000 0.0000 0.0000 0.0000 0.0000 0.0000
103 100.0000 0.0000 0.0000 41.8366 21.2600 1.4627 53.2329 80.1093 67.2201
104 0.0000 100.0000 0.0000 36.2773 71.5200 9.0340 87.7370 -86.1846 83.1812
105 0.0000 0.0000 100.0000 18.3111 7.2200 72.0372 32.3026 79.1967 -107.8637
106 0.0000 100.0000 100.0000 54.5884 78.7400 81.0712 91.1165 -48.0796 -14.1381
107 100.0000 0.0000 100.0000 60.1477 28.4800 73.4999 60.3199 98.2542 -60.8430
108 100.0000 100.0000 0.0000 78.1139 92.7800 10.4967 97.1382 -21.5559 94.4825
END_DATA
