tests/fixtures/charts/fpg_k31/c100/FPG-verify.ti2
CTI2   

DESCRIPTOR "Argyll Calibration Target chart information 2"
ORIGINATOR "Argyll printtarg"
CREATED "Wed Sep 23 17:53:06 2026"
TARGET_INSTRUMENT "X-Rite ColorMunki"
APPROX_WHITE_POINT "95.050000 100.000000 108.900000"
COLOR_REP "iRGB"
PAPER_SIZE "210.0x297.0"
RANDOM_START "54"
STEPS_IN_PASS "15"
PASSES_IN_STRIPS2 "6,2"
STRIP_INDEX_PATTERN "A-Z, A-Z"
PATCH_INDEX_PATTERN "0-9,@-9,@-9;1-999"
INDEX_ORDER "STRIP_THEN_PATCH"

NUMBER_OF_FIELDS 8
BEGIN_DATA_FORMAT
SAMPLE_ID SAMPLE_LOC RGB_R RGB_G RGB_B XYZ_X XYZ_Y XYZ_Z 
END_DATA_FORMAT

NUMBER_OF_SETS 120
BEGIN_DATA
1 "A1" 0.00000 0.00000 0.00000 0.953700 1.001600 1.091200 
2 "C14" 98.43137 98.82353 99.60784 92.38460 97.17840 108.0365 
3 "G8" 88.23529 88.23529 89.41176 72.19720 75.87970 84.49350 
4 "H14" 81.56863 81.96078 82.74510 60.92670 64.02880 71.09410 
5 "F8" 74.50980 74.90196 75.29412 49.87390 52.49630 58.06210 
6 "B8" 64.70588 64.70588 65.49020 36.45620 38.34260 42.51230 
7 "E13" 58.03922 58.03922 58.82353 29.05850 30.49970 34.05970 
8 "A8" 50.98039 50.98039 51.76471 22.07420 23.23050 25.73070 
9 "G4" 41.17647 41.17647 41.56863 14.30640 15.01380 16.53840 
10 "A4" 27.05882 27.45098 27.84314 6.720200 7.088600 7.864900 
11 "A9" 17.25490 18.03922 18.43137 3.444700 3.652900 4.087400 
12 "C1" 2.745098 3.137255 3.137255 1.165000 1.227600 1.343600 
13 "G11" 0.00000 34.90196 71.37255 12.85790 11.37600 46.48790 
14 "C5" 3.529412 68.62745 86.66667 29.16520 36.57840 74.22780 
15 "B1" 98.82353 3.921569 69.01961 48.68040 24.87260 43.60810 
16 "G1" 41.17647 0.00000 0.784314 6.701500 3.963300 1.424500 
17 "C11" 90.98039 56.86275 52.15686 48.02610 39.58660 27.84650 
18 "C3" 20.00000 45.09804 1.176471 8.444700 13.94720 3.283100 
19 "A7" 70.19608 93.33333 61.17647 55.47890 73.27110 43.21210 
20 "H13" 0.00000 47.05882 37.64706 9.667200 15.06410 14.38190 
21 "D3" 68.23529 45.88235 1.960784 24.44820 22.37860 4.112900 
22 "E10" 60.78431 34.11765 47.84314 21.10510 16.05490 21.01330 
23 "D10" 76.86275 58.03922 82.74510 45.49720 38.16800 66.67730 
24 "C12" 69.41176 25.09804 4.313725 20.78220 13.93210 2.867600 
25 "D11" 61.56863 70.98039 8.627451 31.22510 40.92630 7.927000 
26 "G7" 58.82353 89.01961 89.41176 54.28450 67.12470 83.64140 
27 "E15" 26.66667 0.00000 38.43137 5.475000 3.081000 12.66020 
28 "F12" 72.54902 68.23529 49.01961 39.31060 42.57680 26.41390 
29 "B15" 0.00000 7.843137 67.05882 8.456200 4.394000 39.40610 
30 "E1" 84.70588 2.352941 34.50980 30.71100 16.23080 11.60480 
31 "E14" 0.00000 73.33333 43.92157 21.41910 37.27350 22.28930 
32 "C13" 74.11765 58.43137 62.35294 38.68200 35.51290 38.28290 
33 "D2" 1.176471 65.49020 68.62745 22.35580 31.51310 45.97220 
34 "A12" 85.09804 2.745098 17.64706 29.71440 15.88640 4.884400 
35 "G13" 1.568627 72.94118 2.352941 18.42650 35.82950 7.050400 
36 "G3" 35.29412 63.52941 92.54902 32.84020 34.63400 84.53390 
37 "H10" 47.84314 33.72549 24.70588 13.16660 12.13440 7.242500 
38 "F2" 67.84314 1.176471 69.01961 25.93520 13.03000 43.00340 
39 "A6" 58.03922 59.21569 71.76471 32.46950 32.52250 50.11580 
40 "H11" 39.60784 45.49020 32.94118 14.13160 16.87090 11.76790 
41 "H5" 61.56863 1.568627 42.74510 17.53350 9.303800 16.15880 
42 "F11" 53.33333 83.52941 69.80392 42.37190 56.33030 51.15420 
43 "C8" 35.29412 9.411765 31.37255 6.869700 4.370200 9.015200 
44 "F4" 52.15686 87.45098 3.921569 36.77770 58.26770 10.54820 
45 "G6" 14.11765 85.09804 78.43137 36.68460 54.85620 63.72140 
46 "A5" 64.31373 29.01961 30.19608 19.92480 14.18580 9.558500 
47 "D9" 41.56863 33.72549 56.86275 15.25630 12.68120 29.27200 
48 "A3" 66.27451 2.352941 33.72549 18.82610 10.11240 10.70480 
49 "D12" 43.52941 68.62745 34.50980 24.43130 35.54210 15.70800 
50 "E5" 90.98039 45.88235 60.00000 45.76930 32.73300 34.76260 
51 "D4" 57.64706 4.313725 2.745098 13.03390 7.394800 1.883400 
52 "B10" 49.41176 65.49020 71.37255 31.39950 35.93210 49.93460 
53 "F13" 1.176471 42.74510 61.17647 12.32740 14.16550 34.27170 
54 "H2" 14.11765 17.64706 0.00000 2.584700 3.199800 1.427500 
55 "H3" 57.64706 28.62745 58.82353 20.72630 14.10980 31.13890 
56 "F5" 40.78431 5.098039 17.64706 7.207300 4.383200 3.825700 
57 "F10" 25.88235 20.39216 29.80392 5.688900 5.099000 8.401900 
58 "D14" 85.49020 42.74510 71.76471 43.42220 29.96400 48.63070 
59 "E11" 0.784314 46.27451 54.11765 11.98580 15.76760 27.18150 
60 "G9" 72.15686 63.52941 21.17647 33.84460 36.80260 9.678500 
61 "E9" 84.31373 62.74510 44.31373 43.99120 41.41830 21.97970 
62 "D13" 34.90196 42.35294 61.96078 16.41260 16.13000 35.27490 
63 "B7" 80.00000 70.19608 64.70588 48.32850 48.41180 42.98850 
64 "H9" 98.82353 68.62745 1.960784 55.97750 51.96580 8.169900 
65 "G5" 40.39216 36.47059 4.313725 10.49140 11.70740 2.978100 
66 "H1" 35.68627 25.88235 69.01961 14.95310 10.20340 42.72940 
67 "H6" 0.00000 80.00000 63.52941 28.82030 46.46570 42.05200 
68 "H15" 60.00000 2.352941 21.96078 14.81750 8.170900 5.424400 
69 "A14" 49.01961 1.568627 75.29412 18.71420 9.141400 50.94280 
70 "H7" 56.07843 70.98039 67.45098 35.93820 42.57280 45.86450 
71 "D1" 24.70588 8.627451 3.529412 3.293100 2.618800 1.536600 
72 "B3" 1.176471 90.19608 41.96078 31.50880 57.88350 24.14720 
73 "E7" 45.88235 48.23529 79.60784 25.83900 22.92460 59.77040 
74 "G10" 68.62745 50.19608 44.31373 29.17130 26.64390 20.10440 
75 "B9" 75.29412 92.15686 36.86275 53.87410 71.81930 22.52600 
76 "C6" 62.74510 44.70588 25.09804 22.05400 20.60140 8.490000 
77 "B12" 74.50980 45.88235 48.62745 31.83500 25.82770 23.17770 
78 "D15" 36.07843 94.50980 21.17647 36.97910 65.54090 15.12480 
79 "E12" 83.13725 41.56863 1.960784 33.02430 25.09610 4.189500 
80 "E3" 99.21569 38.03922 92.15686 60.05900 36.09550 82.76770 
81 "G2" 20.39216 33.72549 28.62745 6.806200 8.744600 8.536600 
82 "H8" 74.11765 43.13725 30.58824 28.45700 23.15100 11.05440 
83 "B11" 31.76471 19.21569 22.35294 6.100300 5.165100 5.482400 
84 "D8" 29.41176 0.784314 83.13725 15.67080 7.262600 63.39460 
85 "C2" 38.03922 16.47059 0.00000 6.670700 5.159800 1.590400 
86 "E4" 65.09804 74.50980 60.78431 40.67010 47.79840 38.79660 
87 "C7" 19.21569 47.05882 27.05882 9.912800 15.34470 8.963000 
88 "C4" 72.15686 65.49020 72.54902 42.91730 42.03940 52.49570 
89 "A10" 40.78431 69.01961 2.352941 21.94390 34.61690 6.651800 
90 "G12" 92.15686 45.09804 24.70588 41.64900 30.81980 9.300800 
91 "H12" 67.84314 29.80392 40.78431 23.16680 15.99730 15.86790 
92 "B6" 29.80392 24.70588 85.88235 18.33450 11.12790 68.59600 
93 "F9" 83.13725 35.29412 32.15686 33.05910 22.70430 11.53400 
94 "F15" 30.98039 7.058824 60.00000 10.09510 5.365700 31.36000 
95 "E8" 77.64706 58.82353 71.76471 43.21570 37.91250 50.41570 
96 "D6" 89.41176 26.27451 0.392157 34.74550 21.37990 3.259000 
97 "B14" 36.86275 80.39216 35.68627 29.07000 47.42620 18.35150 
98 "C10" 83.92157 87.05882 2.745098 54.12840 66.70280 11.18040 
99 "B13" 53.72549 49.01961 41.56863 21.06060 21.85170 17.49950 
100 "E6" 41.17647 74.90196 69.01961 33.00710 44.13890 48.40010 
101 "F14" 100.0000 100.0000 100.0000 95.05000 100.0000 108.9000 
102 "F7" 0.00000 0.00000 0.00000 0.950500 1.000000 1.089000 
103 "A15" 100.0000 0.00000 0.00000 41.77810 22.04740 2.999700 
104 "B4" 0.00000 100.0000 0.00000 36.35290 71.80480 12.88980 
105 "G15" 0.00000 0.00000 100.0000 18.82000 8.147800 95.18850 
106 "H4" 0.00000 100.0000 100.0000 54.22240 78.95260 106.9893 
107 "C15" 100.0000 0.00000 100.0000 59.64760 29.19520 97.09920 
108 "F1" 100.0000 100.0000 0.00000 77.18050 92.85220 14.80050 
0 "D5" 100.0000 100.0000 100.0000 95.05000 100.0000 108.9000 
0 "B2" 100.0000 100.0000 100.0000 95.05000 100.0000 108.9000 
0 "F6" 100.0000 100.0000 100.0000 95.05000 100.0000 108.9000 
0 "A13" 100.0000 100.0000 100.0000 95.05000 100.0000 108.9000 
0 "B5" 100.0000 100.0000 100.0000 95.05000 100.0000 108.9000 
0 "A2" 100.0000 100.0000 100.0000 95.05000 100.0000 108.9000 
0 "F3" 100.0000 100.0000 100.0000 95.05000 100.0000 108.9000 
0 "G14" 100.0000 100.0000 100.0000 95.05000 100.0000 108.9000 
0 "E2" 100.0000 100.0000 100.0000 95.05000 100.0000 108.9000 
0 "A11" 100.0000 100.0000 100.0000 95.05000 100.0000 108.9000 
0 "C9" 100.0000 100.0000 100.0000 95.05000 100.0000 108.9000 
0 "D7" 100.0000 100.0000 100.0000 95.05000 100.0000 108.9000 
END_DATA
