assets/verification/chromiq-verification-set-PROVISIONAL-r1.ti1
CTI1   

DESCRIPTOR "Argyll Calibration Target chart information 1"
ORIGINATOR "Argyll targen"
CHROMIQ_SET_VERSION "PROVISIONAL-r1"
CHROMIQ_SET_STATUS "PROVISIONAL — may be re-cut until a published report outside this project cites it; frozen from that moment on"
CHROMIQ_SET_RECIPE "targen -d2 -e4 -B4 -g32 -t -f5960 -c ref/sRGB.icm (ArgyllCMS 3.5.0)"
CHROMIQ_SET_NESTED "every prefix of the -t sequence is a valid smaller set; verified 960/5960 byte-identical"
CREATED "Sun Aug  9 21:57:24 2026"
APPROX_WHITE_POINT "95.045471 100.000000 108.905029"
COLOR_REP "iRGB"
ACCURATE_EXPECTED_VALUES "true"
WHITE_COLOR_PATCHES "4"
BLACK_COLOR_PATCHES "4"
COMP_GREY_STEPS "32"
IFP_PATCHES "5922"

NUMBER_OF_FIELDS 7
BEGIN_DATA_FORMAT
SAMPLE_ID RGB_R RGB_G RGB_B XYZ_X XYZ_Y XYZ_Z 
END_DATA_FORMAT

NUMBER_OF_SETS 5960
BEGIN_DATA
1 100.0000 100.0000 100.0000 95.04547 100.0000 108.9050 
2 100.0000 100.0000 100.0000 95.04547 100.0000 108.9050 
3 100.0000 100.0000 100.0000 95.04547 100.0000 108.9050 
4 100.0000 100.0000 100.0000 95.04547 100.0000 108.9050 
5 0.00000 0.00000 0.00000 0.00000 0.00000 0.00000 
6 0.00000 0.00000 0.00000 0.00000 0.00000 0.00000 
7 0.00000 0.00000 0.00000 0.00000 0.00000 0.00000 
8 0.00000 0.00000 0.00000 0.00000 0.00000 0.00000 
9 96.77419 96.77419 96.77419 88.21890 92.81758 101.0830 
10 93.54839 93.54839 93.54839 81.68820 85.94644 93.60000 
11 90.32258 90.32258 90.32258 75.44755 79.38048 86.44934 
12 87.09677 87.09677 87.09677 69.49552 73.11818 79.62938 
13 83.87097 83.87097 83.87097 63.82629 67.15343 73.13346 
14 80.64516 80.64516 80.64516 58.43552 61.48165 66.95661 
15 77.41935 77.41935 77.41935 53.32176 56.10132 61.09716 
16 74.19355 74.19355 74.19355 48.47776 51.00481 55.54680 
17 70.96774 70.96774 70.96774 43.90061 46.18906 50.30221 
18 67.74194 67.74194 67.74194 39.58596 41.64950 45.35840 
19 64.51613 64.51613 64.51613 35.53092 37.38308 40.71205 
20 61.29032 61.29032 61.29032 31.72823 33.38216 36.35485 
21 58.06452 58.06452 58.06452 28.17355 29.64218 32.28182 
22 54.83871 54.83871 54.83871 24.86251 26.15854 28.48797 
23 51.61290 51.61290 51.61290 21.79222 22.92821 24.96997 
24 48.38710 48.38710 48.38710 18.95398 19.94202 21.71786 
25 45.16129 45.16129 45.16129 16.34344 17.19539 18.72665 
26 41.93548 41.93548 41.93548 13.95625 14.68376 15.99135 
27 38.70968 38.70968 38.70968 11.78660 12.40101 13.50532 
28 35.48387 35.48387 35.48387 9.825789 10.33799 11.25859 
29 32.25806 32.25806 32.25806 8.070925 8.491646 9.247829 
30 29.03226 29.03226 29.03226 6.514752 6.854353 7.464735 
31 25.80645 25.80645 25.80645 5.148568 5.416953 5.899334 
32 22.58065 22.58065 22.58065 3.965123 4.171817 4.543318 
33 19.35484 19.35484 19.35484 2.958614 3.112840 3.390040 
34 16.12903 16.12903 16.12903 2.118890 2.229343 2.427867 
35 12.90323 12.90323 12.90323 1.438699 1.513695 1.648490 
36 9.677419 9.677419 9.677419 0.906438 0.953689 1.038615 
37 6.451613 6.451613 6.451613 0.510506 0.537118 0.584948 
38 3.225806 3.225806 3.225806 0.237849 0.250248 0.272533 
39 0.00000 0.00000 100.0000 18.04868 7.219054 95.05403 
40 0.00000 33.26696 67.76930 10.75883 9.479099 40.70346 
41 100.0000 0.00000 0.00000 41.23828 21.26423 1.932425 
42 0.00000 100.0000 0.00000 35.75851 71.51671 11.91857 
43 100.0000 87.99749 35.48701 69.86506 75.53157 20.68040 
44 0.00000 100.0000 82.94458 47.57935 76.24478 74.17346 
45 0.00000 64.66550 81.89085 24.92185 31.46596 64.96894 
46 94.00073 0.00000 64.99342 42.69033 21.21974 37.79669 
47 36.68778 0.00000 0.00000 4.570256 2.356621 0.214162 
48 87.36670 53.23262 48.38867 42.73116 34.63184 23.30218 
49 19.01637 43.20393 0.00000 6.836094 11.82814 1.922670 
50 74.53646 44.47629 98.44067 44.61743 29.82583 94.69579 
51 66.86865 88.53440 56.02046 48.76530 64.84473 35.87485 
52 0.00000 44.61964 35.48295 7.858210 12.73109 11.82348 
53 64.61048 43.20835 0.00000 21.06097 19.16492 2.589598 
54 57.58164 32.36831 45.16430 18.16398 13.54628 17.92891 
55 78.31165 100.0000 0.00000 59.49559 83.75657 13.03089 
56 70.30856 73.50993 100.0000 54.56976 52.56900 101.8828 
57 73.84148 54.25890 77.97152 40.23897 33.12555 58.20404 
58 66.06970 23.49656 4.155093 17.91903 11.62471 1.603858 
59 57.32046 66.84990 7.782484 26.46999 35.10089 6.035432 
60 55.01637 84.26958 83.87092 47.25492 58.99089 72.43063 
61 25.04511 0.00000 36.10168 4.039974 1.859451 10.28576 
62 68.88128 64.34644 45.81392 34.31429 37.05068 22.12011 
63 17.67868 35.54936 100.0000 22.84542 15.20083 96.34181 
64 0.00000 7.028278 62.75826 6.562721 2.969081 33.50173 
65 80.47720 0.00000 31.93642 26.73721 13.61318 9.090477 
66 0.00000 68.90752 40.56163 17.93818 31.92463 18.16257 
67 17.67878 100.0000 100.0000 54.89298 79.29565 107.0235 
68 71.16071 54.90554 58.06628 33.89238 30.77906 32.20201 
69 20.11781 0.00000 10.99300 1.590523 0.795867 1.169987 
70 55.22287 100.0000 45.52221 49.86842 78.42724 29.05767 
71 85.06286 88.28671 100.0000 73.59594 75.87917 105.3795 
72 0.00000 61.82716 64.51953 18.91618 27.03541 39.59402 
73 80.62036 0.00000 15.58267 25.71503 13.21600 3.180397 
74 0.00000 68.79156 0.00000 15.41086 30.82159 5.136551 
75 93.64894 100.0000 85.19987 83.84471 94.85958 79.71671 
76 33.72742 59.99305 87.06260 28.41102 30.02842 73.41593 
77 45.76881 32.22905 22.03774 11.04656 10.11200 5.136093 
78 64.19695 0.00000 65.00203 22.10777 10.60626 36.84269 
79 54.32711 24.45517 100.0000 30.36047 16.15395 96.13009 
80 84.71617 100.0000 95.10133 80.18650 92.56321 98.04914 
81 54.88964 55.76641 67.73873 28.02872 27.98609 43.32600 
82 0.00000 19.46870 31.76536 2.610428 2.844560 8.196696 
83 37.33223 43.27267 29.92754 11.66806 14.19603 9.020326 
84 57.84232 0.00000 41.26103 14.68238 7.274686 14.05373 
85 59.87075 86.61156 100.0000 56.94121 65.59700 104.2721 
86 50.54091 78.94168 64.52068 36.73910 49.26978 42.94783 
87 33.62095 9.653284 29.92967 5.468433 3.171795 7.220290 
88 49.28249 82.64912 0.00000 31.78809 50.87652 8.144492 
89 93.61883 100.0000 57.83915 76.56632 91.94541 41.51945 
90 100.0000 57.31131 29.96378 52.85745 42.39266 12.31025 
91 15.24096 80.65886 73.35640 31.80030 48.00523 54.63804 
92 61.31114 26.95432 27.38048 16.98775 11.76664 7.140876 
93 39.99629 31.78358 53.18389 12.84082 10.48316 24.49853 
94 62.46967 0.00000 31.93922 15.85835 8.003541 8.582096 
95 41.36056 64.88887 31.73169 20.90148 30.70257 12.59280 
96 49.11955 100.0000 68.56380 51.97392 78.98498 52.98131 
97 87.41088 43.07828 55.82210 40.86647 28.75694 29.12720 
98 54.55768 3.114955 3.225788 10.79886 5.691368 0.766534 
99 53.94505 100.0000 0.00000 46.16679 76.88367 12.40630 
100 46.75744 61.84814 67.09201 27.17463 31.23662 43.16874 
101 0.00000 41.01861 57.85905 10.31900 12.14401 29.62816 
102 12.30234 15.24630 0.00000 1.298180 1.740553 0.267543 
103 55.16292 26.88051 54.82731 17.74630 11.72202 26.06558 
104 100.0000 0.00000 100.0000 59.28696 28.48329 96.98646 
105 45.86494 55.03731 100.0000 34.80675 29.85494 98.53999 
106 38.44763 4.812926 15.58222 5.554732 3.020684 2.274221 
107 25.34815 19.24295 28.09962 4.415574 3.777490 6.569045 
108 82.28420 40.14415 67.40701 38.74991 26.22740 41.99595 
109 0.789916 44.49775 51.52595 10.10578 13.57680 23.70099 
110 68.18847 60.02150 19.34913 29.38980 32.01094 7.573600 
111 0.00000 86.28589 98.40231 42.99912 58.15830 100.1680 
112 59.40064 100.0000 91.23174 63.26384 84.00449 89.70513 
113 80.94173 59.22889 41.27560 39.19790 36.34943 18.38394 
114 32.99153 40.16994 57.86000 13.77030 13.60260 29.72893 
115 61.97353 100.0000 100.0000 67.91332 86.00949 107.6336 
116 76.36128 66.09764 59.91598 42.26827 42.06721 35.93787 
117 93.97086 64.89493 0.00000 49.34819 45.54644 6.191398 
118 38.37249 35.31979 4.123903 8.739707 9.934908 1.758733 
119 35.36463 23.90151 64.52839 12.64989 8.215008 36.30273 
120 0.00000 75.59682 57.84224 24.32406 40.15937 34.27956 
121 56.98883 0.00000 19.33740 12.29444 6.274665 3.503798 
122 46.59486 0.00000 70.46269 15.78755 7.191691 43.56754 
123 52.70408 67.23184 62.91738 30.92293 36.94611 38.96263 
124 19.53872 9.006122 3.270862 1.658192 1.303449 0.404327 
125 0.164388 85.29720 39.14150 27.23919 50.80478 20.37915 
126 75.47613 100.0000 82.51691 69.29758 87.45943 74.47829 
127 100.0000 40.32290 29.92099 47.38559 31.45515 10.46741 
128 76.96594 0.00000 100.0000 40.88138 18.99258 96.12397 
129 100.0000 8.284176 53.21669 45.93123 23.57409 25.31366 
130 44.32565 45.12780 74.58085 22.26614 19.51668 51.41510 
131 65.41712 47.52567 41.61653 25.36418 22.95996 16.76503 
132 71.35761 88.02593 35.48701 47.92791 64.24882 19.65802 
133 100.0000 69.73214 84.68849 69.50986 57.98594 72.46908 
134 58.88699 42.27913 22.03843 18.66856 17.47373 6.155690 
135 0.00000 9.422578 31.94539 1.829534 1.255186 8.021494 
136 25.78849 72.33937 98.39772 36.86525 42.58235 97.47551 
137 45.21183 0.00000 100.0000 25.15668 10.88425 95.38712 
138 21.64014 0.00000 0.00000 1.585303 0.817450 0.0742872 
139 71.31029 43.04174 45.54671 27.96327 22.29081 19.39699 
140 35.15655 89.06193 19.34396 32.24103 57.37581 12.31691 
141 79.64899 39.13046 0.00000 29.19250 21.78610 2.667320 
142 94.23751 36.42689 87.06811 53.12893 31.66595 72.44044 
143 20.18784 31.80114 26.67343 5.382771 7.032522 6.545744 
144 0.00000 18.03336 20.42678 1.598189 2.201670 3.599565 
145 70.51958 40.37144 27.52498 24.73696 19.81817 8.347721 
146 29.54956 18.02538 20.42678 4.526606 3.710498 3.736561 
147 28.01133 0.00000 78.31850 13.02107 5.512340 54.84776 
148 100.0000 19.10582 34.85057 44.12249 24.15658 11.76132 
149 35.15766 15.77466 0.00000 4.948988 3.689542 0.451448 
150 61.62671 70.52710 56.05643 35.17542 41.74379 32.16900 
151 19.73855 44.58562 24.46266 8.194588 13.00419 6.691104 
152 68.85541 61.94203 68.65546 37.77137 36.71653 45.69263 
153 37.84018 64.92782 0.00000 18.43246 29.62748 4.747032 
154 88.09025 42.27125 22.03843 36.99408 26.92002 7.013820 
155 64.84362 27.96757 38.52598 20.07887 13.47154 13.15868 
156 30.94869 22.64674 80.80463 15.86368 9.117689 59.35188 
157 79.98010 32.85676 29.03122 29.27718 19.63431 8.732118 
158 69.42424 0.00000 0.00000 18.13823 9.352854 0.849957 
159 29.85080 7.079111 55.94700 8.139314 3.948785 26.18821 
160 74.32150 55.30077 67.73868 38.15791 32.94801 43.75021 
161 84.89799 24.76661 0.00000 30.24857 18.24838 1.929017 
162 0.00000 56.77364 100.0000 28.13898 27.39957 98.41721 
163 35.67733 76.11158 32.63131 25.19108 41.47063 14.90366 
164 79.37007 83.11803 0.00000 47.99262 59.67396 8.989072 
165 50.80098 46.28534 38.58248 17.83975 18.56283 14.29495 
166 39.37951 71.10701 64.51160 28.63672 38.60961 41.30623 
167 27.44404 22.22818 9.670072 4.143790 4.265284 1.506156 
168 0.00000 23.44893 0.00000 1.604890 3.209766 0.534921 
169 72.43130 77.04243 45.14541 42.87829 51.20459 23.88048 
170 9.049694 7.405820 18.80684 1.118377 0.857763 2.897970 
171 63.87610 51.63709 90.60676 37.71626 29.96122 79.43474 
172 100.0000 8.187058 19.33723 42.06491 22.02006 4.974915 
173 83.44353 0.00000 0.00000 27.37586 14.11617 1.282832 
174 41.54442 27.93744 38.52598 10.42068 8.484039 12.70468 
175 68.99808 8.215378 57.13421 23.32244 11.82511 28.12415 
176 65.47384 72.18475 80.52972 44.14298 46.94629 64.71797 
177 92.31016 73.89807 41.62051 55.07322 54.92810 21.37284 
178 31.94595 41.67317 48.39286 12.21439 13.57274 20.84841 
179 40.76193 16.39428 27.78568 7.655541 5.034988 6.505238 
180 32.09931 56.31895 72.45540 22.11198 25.10812 49.44964 
181 100.0000 100.0000 0.00000 76.99679 92.78095 13.85099 
182 0.00000 64.61799 54.59657 18.09022 28.69867 29.09724 
183 55.28923 69.78221 87.77052 40.31934 42.85147 76.53856 
184 100.0000 75.90758 76.11478 70.17988 63.55130 59.66474 
185 96.12544 42.21835 47.63153 46.50223 31.48247 21.86533 
186 64.65357 75.91510 77.48868 44.83309 50.44166 60.55836 
187 29.12109 69.06963 77.42549 28.52098 36.61668 58.65217 
188 80.80360 51.56963 22.92882 34.42565 29.80925 8.006183 
189 35.10088 43.20250 0.00000 9.761735 13.33615 2.059654 
190 34.87568 51.42497 41.30662 14.81360 19.41496 16.42128 
191 76.12729 74.66559 64.47545 47.51592 51.18069 42.69444 
192 100.0000 61.48976 67.09225 60.61918 48.25261 44.69197 
193 19.20691 57.53223 40.06031 14.05904 22.39031 16.19108 
194 67.62347 16.18440 20.59993 18.54303 10.67915 4.396013 
195 69.70062 44.58378 53.39448 28.73604 23.18198 26.31277 
196 34.75238 23.46051 0.00000 5.689391 5.318119 0.726747 
197 49.77568 42.23150 47.63154 17.55030 16.55885 20.50966 
198 27.52389 7.851084 0.00000 2.789750 1.810700 0.202551 
199 82.05570 24.08644 53.11506 32.45759 18.73763 24.99362 
200 65.70224 63.99623 100.0000 47.22902 41.75576 100.1826 
201 0.109237 23.06678 100.0000 19.60693 10.33033 95.57240 
202 14.82927 0.00000 19.15934 1.343941 0.629220 2.940905 
203 23.15316 57.43138 29.96377 13.47254 22.15474 10.47830 
204 49.77640 52.24797 28.09802 18.31876 21.80886 9.316054 
205 62.23387 33.62813 6.436743 17.64210 13.99604 2.278748 
206 50.44164 46.44875 0.00000 15.52634 17.69948 2.598188 
207 10.74173 0.00000 5.182387 0.536467 0.268053 0.411970 
208 18.99334 46.09553 76.90868 17.64065 17.47876 54.74122 
209 60.51131 61.56739 67.00719 32.77741 33.94812 43.28878 
210 94.80255 88.22055 66.35679 70.62398 75.53594 48.49883 
211 0.653588 74.19316 74.19355 27.46508 40.16945 54.56209 
212 39.94549 21.96112 19.35363 7.439594 5.870161 3.685890 
213 0.00000 44.43516 98.44066 23.35431 18.84427 93.69602 
214 84.46272 95.79939 100.0000 78.61952 86.59833 107.1836 
215 80.84545 0.00000 41.08220 28.03303 14.16157 14.55717 
216 55.53799 42.61725 57.88773 21.83856 18.71199 30.31924 
217 70.97237 68.09903 0.00000 34.11899 39.96034 5.915188 
218 51.03951 28.48141 31.94187 13.08908 10.07598 9.129158 
219 35.75812 68.89226 46.85871 23.15198 34.49897 23.04669 
220 48.37631 52.39648 45.98136 19.91640 22.47068 20.19613 
221 37.83793 90.59404 69.63788 41.44662 62.86788 51.84835 
222 72.69644 57.43047 29.96377 31.76402 31.58608 11.33534 
223 62.25291 68.91646 45.98280 32.94573 39.58232 22.81349 
224 37.91956 53.63434 17.38748 14.27038 20.53391 5.627796 
225 100.0000 72.56391 61.80773 64.73186 58.43101 40.04100 
226 27.76910 49.90253 48.38869 13.80564 18.01554 21.61848 
227 41.87809 0.00000 27.70547 7.163925 3.563793 6.212856 
228 54.35818 47.84666 30.69723 18.92798 19.93154 10.11018 
229 89.44237 73.19987 0.00000 49.71542 51.90445 7.399022 
230 23.59806 26.71249 33.43367 5.597723 5.774547 9.467189 
231 74.50301 67.17674 84.09602 48.04287 45.06257 70.08548 
232 84.01492 71.19923 56.15649 49.40930 49.59733 33.03645 
233 100.0000 55.98759 0.00000 51.02554 40.83866 5.194588 
234 52.77100 36.75742 84.61800 26.26540 18.01942 66.91133 
235 94.90418 59.70716 100.0000 65.93598 48.63868 100.5260 
236 82.73042 29.36821 92.83987 44.60808 24.96189 82.39504 
237 82.52288 65.53666 98.90021 58.14123 48.48758 98.55707 
238 40.17810 65.00894 65.43883 26.08796 32.82545 41.45848 
239 82.81327 63.07596 60.77672 45.54396 41.67663 36.64732 
240 55.10936 43.20062 11.52403 16.72357 16.89900 3.568533 
241 39.59116 5.413235 40.55930 7.985732 4.061581 13.30803 
242 84.35598 74.22319 29.94646 47.62691 51.50259 14.33547 
243 87.65517 93.76239 67.52358 68.94739 80.54446 51.03791 
244 6.337713 54.27373 0.00000 9.361584 18.40192 3.058306 
245 67.63752 41.89542 61.26778 28.37739 21.71453 34.25403 
246 69.71796 44.58378 24.46266 25.17141 21.75739 7.486487 
247 47.09846 23.46632 0.00000 9.366478 7.215337 0.899278 
248 54.06987 42.29786 42.15675 18.48861 17.16150 16.38773 
249 20.38168 23.00844 16.80387 3.395184 3.997237 2.864049 
250 100.0000 70.76350 46.85941 61.00846 55.42975 25.09336 
251 45.97347 34.89466 96.69044 27.65730 17.62748 89.58946 
252 63.91900 93.56931 100.0000 63.89965 76.50357 106.0105 
253 32.64402 36.17073 79.68997 18.23989 13.86643 58.34901 
254 24.28048 32.87192 9.645066 5.308988 7.402954 2.046621 
255 0.00000 79.13524 0.00000 21.07164 42.14310 7.023330 
256 72.31813 100.0000 45.52221 58.78061 83.02275 29.47530 
257 70.04641 22.05815 31.66977 21.40355 12.98252 9.115686 
258 70.96113 0.00000 82.00555 30.56565 14.42826 61.57363 
259 74.91681 34.60256 19.48765 25.57295 18.32961 5.173735 
260 60.82910 49.42300 38.56595 23.22366 22.79766 14.81824 
261 0.00000 2.991931 39.42638 2.409196 1.096356 12.27887 
262 11.18151 20.83012 55.85052 6.685005 4.776311 26.32758 
263 100.0000 41.82484 0.00000 46.45988 31.70738 3.672820 
264 92.00091 83.74401 0.00000 58.05945 65.45993 9.575640 
265 33.45920 44.69761 45.99592 13.01767 15.26714 19.18082 
266 50.78096 24.00482 15.50385 11.18285 8.216901 2.963308 
267 22.62354 15.95230 34.66944 4.286894 3.165502 9.706585 
268 28.53501 0.00000 19.51391 3.300474 1.635877 3.132562 
269 67.68569 27.90170 50.78709 23.40247 14.96354 22.60197 
270 43.22771 17.16574 55.86545 12.26755 7.081447 26.49352 
271 23.66855 23.95854 0.00000 3.558380 4.319198 0.646171 
272 46.51441 100.0000 85.19987 55.87020 80.43471 78.40584 
273 96.13041 64.07048 27.37044 51.96402 46.20803 11.94159 
274 59.74604 44.45168 51.52602 23.08151 20.24800 24.30532 
275 61.54988 26.34138 76.83532 25.86722 15.18084 53.75306 
276 35.51961 31.79612 26.67343 8.264330 8.516963 6.680500 
277 26.67994 57.44999 67.73900 20.25824 24.94780 43.14912 
278 57.21522 87.86161 41.63295 41.11271 60.48112 23.18808 
279 15.15882 33.16481 37.21219 6.099055 7.678370 11.96209 
280 59.58692 38.12757 72.22899 25.90419 18.73007 47.70150 
281 83.46266 21.65217 30.75620 30.15667 17.43189 9.065378 
282 21.99633 41.90032 61.26778 12.89736 13.73427 33.52900 
283 75.60230 19.61562 55.85049 27.99189 15.55957 27.28672 
284 79.88301 34.11058 37.47883 30.31708 20.44737 13.31325 
285 35.43480 87.66861 86.55659 43.79937 60.46732 77.57632 
286 94.56419 30.40025 49.08122 42.72321 25.59423 22.14457 
287 28.56754 38.31886 64.99178 13.93441 12.83497 37.69054 
288 64.82005 35.54142 100.0000 37.33511 22.66977 97.02030 
289 33.65460 78.57658 93.78411 40.16111 49.68843 89.25435 
290 0.00000 84.79197 52.79567 28.95808 50.96097 31.09568 
291 77.83197 78.94669 59.71237 50.06015 56.26565 38.04367 
292 28.58983 47.19871 20.13881 10.10503 15.17332 5.569888 
293 32.55078 19.30180 34.85043 6.472744 4.773602 10.00293 
294 92.64062 50.44522 38.58326 44.69298 34.36901 15.93193 
295 62.67356 60.34389 54.60129 30.67183 32.39634 29.15302 
296 29.50965 24.65684 53.11491 9.095961 6.809041 23.92146 
297 78.70738 40.46738 57.88809 34.19048 24.24322 30.73672 
298 43.34220 56.00131 37.13212 18.33928 23.75468 14.37156 
299 52.43306 70.73381 47.96109 29.71089 39.24860 24.52062 
300 54.24307 16.57298 34.92757 13.17684 7.828634 10.28282 
301 37.48310 34.11211 45.10062 11.28132 10.51614 17.65761 
302 83.47434 84.60349 38.50374 54.10013 63.98935 21.10225 
303 43.79909 53.97463 73.20461 24.61183 25.07019 50.37326 
304 59.43403 76.46153 37.21554 34.43566 46.47644 17.95944 
305 42.96363 44.47913 98.44067 29.74207 22.15667 93.99897 
306 78.00180 99.21200 100.0000 76.69646 89.59181 107.8625 
307 99.89280 0.00000 81.41366 52.47345 25.74640 61.62842 
308 74.82056 82.73241 75.98490 54.42822 61.50587 59.90463 
309 48.49462 53.81927 0.00000 17.24231 22.21902 3.380018 
310 40.65265 30.34259 28.36682 9.530555 8.756094 7.376680 
311 37.71884 63.38060 68.65456 25.43994 31.30041 45.29547 
312 48.28907 77.03907 45.24148 31.14378 45.14928 23.40352 
313 37.81928 74.96386 77.48971 33.68097 43.89874 59.88443 
314 62.29234 57.28609 29.96376 25.87601 28.46503 11.04303 
315 60.04805 50.79225 46.58932 24.39580 23.94955 20.72911 
316 50.99894 65.41592 98.90040 40.59681 39.35724 97.71918 
317 77.91561 32.04008 7.180146 26.57504 18.13530 2.686186 
318 79.11843 24.11921 15.77889 26.37190 16.07075 3.741632 
319 75.27716 37.60495 74.44762 35.17580 23.25918 51.26285 
320 56.52770 44.48853 68.71332 25.24030 20.95630 43.38704 
321 41.62435 94.27686 100.0000 55.28754 72.84890 105.7586 
322 28.00679 0.00000 64.90430 9.466313 4.090417 36.13107 
323 24.35859 9.674385 10.83381 2.539996 1.791944 1.287803 
324 0.00000 7.272696 12.81794 0.495317 0.558501 1.497450 
325 0.00000 99.27201 37.39420 37.25057 71.17026 22.68480 
326 66.36039 9.666329 29.92967 18.06423 9.667809 7.810738 
327 62.38161 0.578267 100.0000 32.37658 14.63109 95.73006 
328 41.88560 0.00000 21.53776 6.727912 3.389660 3.904711 
329 63.08245 49.67693 0.00000 22.21647 22.65883 3.203013 
330 0.00000 13.00115 8.104763 0.680110 1.148572 0.879231 
331 50.21354 5.255099 60.77207 14.97093 7.257252 31.60952 
332 73.67613 51.33865 39.81619 31.18651 27.83603 16.17919 
333 91.98143 46.43008 0.00000 40.63675 30.63901 3.773225 
334 0.00000 23.59035 45.98533 4.849927 4.537916 17.53188 
335 79.07551 61.32951 8.127771 36.34620 36.46992 5.820459 
336 13.51828 22.05088 69.51096 10.06085 6.382370 42.43099 
337 79.56616 47.82279 89.81839 45.69873 32.24848 77.97587 
338 36.17684 79.45137 50.23376 29.60173 46.37112 27.84626 
339 62.90677 82.81813 76.16398 47.68036 58.10123 59.87166 
340 38.14942 88.26153 37.40330 33.98449 57.27480 20.18074 
341 46.16274 88.62222 100.0000 52.67241 65.43412 104.4654 
342 27.40675 66.54174 64.51549 23.57903 32.62569 40.42245 
343 35.16407 7.069295 9.677228 4.573047 2.659877 1.174805 
344 0.00000 23.79189 12.80518 1.920596 3.409793 1.970206 
345 93.53035 100.0000 37.39035 73.26704 90.61701 24.53908 
346 30.58999 16.62243 25.27340 4.921716 3.678854 5.368289 
347 31.51488 16.70814 100.0000 22.23702 10.63962 95.49362 
348 50.31551 0.142365 21.53455 9.639260 4.896797 4.041284 
349 60.84608 11.97975 0.423897 14.03130 7.944455 0.825691 
350 0.00000 28.42320 38.52613 4.564460 5.583277 12.45331 
351 75.01067 0.00000 21.44887 22.23713 11.38751 4.603190 
352 73.67613 43.19325 39.82272 28.67391 22.80954 15.34582 
353 80.75579 52.49340 0.00000 33.93746 30.12421 4.026584 
354 0.00000 44.69359 45.99592 9.241375 13.31820 19.00353 
355 75.62366 43.20354 11.52402 27.77104 22.59673 4.086445 
356 20.98115 22.05188 35.31439 4.767455 4.360116 10.27513 
357 79.57277 44.45419 51.52602 34.67124 26.22523 24.84862 
358 36.68692 79.09549 58.61598 31.08000 46.63683 35.99573 
359 44.60427 20.10595 71.01679 16.45093 9.292151 44.69443 
360 38.86491 36.52673 23.39906 9.890576 10.83546 5.799629 
361 72.00014 64.00862 64.13838 39.46686 39.07884 40.37586 
362 86.19943 21.41205 70.83240 39.10419 21.20333 45.54768 
363 37.69471 66.28078 80.66484 30.12929 35.31489 63.42922 
364 92.31726 27.53593 27.82406 37.73373 22.59655 8.327122 
365 42.32214 53.12056 49.87399 18.74444 22.17578 23.43278 
366 28.69855 5.334096 31.93563 4.414921 2.328341 8.087576 
367 13.57960 32.86687 31.75556 5.320418 7.255514 8.900323 
368 89.43886 100.0000 0.464431 67.78030 88.02777 13.45326 
369 0.936037 66.09716 100.0000 32.18229 35.44144 99.75624 
370 67.24438 69.71694 84.68848 45.16079 45.41906 71.32585 
371 92.22152 7.017594 56.05411 39.48131 20.10394 27.76392 
372 31.94115 21.26756 14.20245 5.083495 4.558219 2.298321 
373 56.06800 54.63910 76.10719 30.34763 28.29585 54.94685 
374 37.41252 27.94644 100.0000 25.07938 14.21354 96.03367 
375 92.29440 90.36803 31.81389 64.28286 75.15653 18.92879 
376 38.33889 58.87192 100.0000 33.98588 31.65476 98.93054 
377 0.00000 77.00048 100.0000 37.86721 46.85595 101.6597 
378 23.92549 27.90433 50.48488 8.132636 7.096317 21.61912 
379 47.43920 30.39753 49.08121 14.28188 10.92793 20.81166 
380 100.0000 54.14191 76.36558 60.15489 43.38609 56.67890 
381 73.38254 86.93394 67.86932 54.10772 65.67308 49.39545 
382 20.32694 47.26967 89.81880 22.33585 19.94654 76.83263 
383 49.66569 44.69949 87.26160 27.96843 21.81761 72.21132 
384 55.76399 15.71956 56.05601 16.90381 9.274041 26.86457 
385 48.82613 72.57904 100.0000 43.79796 46.27091 101.2346 
386 87.06883 57.37548 58.06478 45.80697 38.32857 33.03003 
387 63.88366 0.00000 38.96622 17.35331 8.685612 12.65908 
388 38.37276 94.33333 0.00000 36.34155 65.23032 10.67473 
389 56.18297 63.49827 63.66801 30.83153 34.29684 39.34354 
390 0.00000 100.0000 57.50115 40.99550 73.61139 39.49936 
391 45.27632 4.986520 14.17403 7.590542 4.085139 2.069158 
392 100.0000 83.07489 62.93003 71.12703 70.82366 43.39856 
393 76.16360 90.48956 19.75736 51.39129 68.74217 13.62121 
394 29.07866 32.86466 29.03122 7.227602 8.266890 7.699319 
395 28.77766 43.49867 38.52549 10.66824 13.66914 13.69196 
396 31.46010 76.15797 64.47522 29.40113 43.08293 42.08518 
