assets/charts/knut/rgb/cr30/cr30_a4_360p_1page_portrait_w11_0mm/chart.ti1
CTI1   

DESCRIPTOR "Argyll Calibration Target chart information 1"
ORIGINATOR "ChromIQ"
APPROX_WHITE_POINT "95.050000 100.000000 108.900000"
COLOR_REP "iRGB"
WHITE_COLOR_PATCHES "1"
BLACK_COLOR_PATCHES "1"
CREATED "Sun Sep 06 16:14:07 2026"

NUMBER_OF_FIELDS 7
BEGIN_DATA_FORMAT
SAMPLE_ID RGB_R RGB_G RGB_B XYZ_X XYZ_Y XYZ_Z
END_DATA_FORMAT

NUMBER_OF_SETS 360
BEGIN_DATA
1 0.0000 0.0000 0.0000 0.9505 1.0000 1.0890
2 0.0000 0.0000 20.0000 1.5421 1.2366 4.2041
3 0.0000 0.0000 40.0000 3.3248 1.9497 13.5918
4 0.0000 0.0000 60.0000 6.6428 3.2769 31.0641
5 0.0000 0.0000 80.0000 11.7406 5.3160 57.9089
6 0.0000 0.0000 100.0000 18.8200 8.1478 95.1885
7 0.0000 20.0000 0.0000 2.1225 3.3440 1.4797
8 0.0000 20.0000 20.0000 2.7141 3.5806 4.5948
9 0.0000 20.0000 40.0000 4.4968 4.2937 13.9825
10 0.0000 20.0000 60.0000 7.8148 5.6209 31.4548
11 0.0000 20.0000 80.0000 12.9126 7.6600 58.2995
12 0.0000 20.0000 100.0000 19.9920 10.4918 95.5792
13 0.0000 40.0000 0.0000 5.6544 10.4077 2.6570
14 0.0000 40.0000 20.0000 6.2459 10.6443 5.7721
15 0.0000 40.0000 40.0000 8.0286 11.3574 15.1598
16 0.0000 40.0000 60.0000 11.3466 12.6846 32.6320
17 0.0000 40.0000 80.0000 16.4445 14.7238 59.4768
18 0.0000 40.0000 100.0000 23.5239 17.5555 96.7565
19 0.0000 60.0000 0.0000 12.2278 23.5546 4.8481
20 0.0000 60.0000 20.0000 12.8194 23.7913 7.9632
21 0.0000 60.0000 40.0000 14.6021 24.5044 17.3509
22 0.0000 60.0000 60.0000 17.9201 25.8315 34.8232
23 0.0000 60.0000 80.0000 23.0179 27.8707 61.6680
24 0.0000 60.0000 100.0000 30.0973 30.7024 98.9476
25 0.0000 80.0000 0.0000 22.3274 43.7539 8.2146
26 0.0000 80.0000 20.0000 22.9190 43.9905 11.3298
27 0.0000 80.0000 40.0000 24.7017 44.7036 20.7175
28 0.0000 80.0000 60.0000 28.0197 46.0308 38.1897
29 0.0000 80.0000 80.0000 33.1175 48.0699 65.0345
30 0.0000 80.0000 100.0000 40.1969 50.9017 102.3141
31 0.0000 100.0000 0.0000 36.3529 71.8048 12.8898
32 0.0000 100.0000 20.0000 36.9445 72.0414 16.0049
33 0.0000 100.0000 40.0000 38.7272 72.7545 25.3926
34 0.0000 100.0000 60.0000 42.0452 74.0817 42.8649
35 0.0000 100.0000 80.0000 47.1430 76.1208 69.7097
36 0.0000 100.0000 100.0000 54.2224 78.9526 106.9893
37 20.0000 0.0000 0.0000 2.3021 1.6968 1.1523
38 20.0000 0.0000 20.0000 2.8937 1.9334 4.2674
39 20.0000 0.0000 40.0000 4.6764 2.6465 13.6551
40 20.0000 0.0000 60.0000 7.9944 3.9737 31.1273
41 20.0000 0.0000 80.0000 13.0922 6.0128 57.9721
42 20.0000 0.0000 100.0000 20.1716 8.8446 95.2518
43 20.0000 20.0000 0.0000 3.4741 4.0407 1.5429
44 20.0000 20.0000 20.0000 4.0656 4.2774 4.6581
45 20.0000 20.0000 40.0000 5.8484 4.9905 14.0458
46 20.0000 20.0000 60.0000 9.1663 6.3177 31.5180
47 20.0000 20.0000 80.0000 14.2642 8.3568 58.3628
48 20.0000 20.0000 100.0000 21.3436 11.1885 95.6424
49 20.0000 40.0000 0.0000 7.0059 11.1045 2.7202
50 20.0000 40.0000 20.0000 7.5975 11.3411 5.8353
51 20.0000 40.0000 40.0000 9.3802 12.0542 15.2230
52 20.0000 40.0000 60.0000 12.6982 13.3814 32.6953
53 20.0000 40.0000 80.0000 17.7960 15.4205 59.5401
54 20.0000 40.0000 100.0000 24.8754 18.2523 96.8197
55 20.0000 60.0000 0.0000 13.5794 24.2514 4.9114
56 20.0000 60.0000 20.0000 14.1710 24.4880 8.0265
57 20.0000 60.0000 40.0000 15.9537 25.2011 17.4142
58 20.0000 60.0000 60.0000 19.2717 26.5283 34.8865
59 20.0000 60.0000 80.0000 24.3695 28.5674 61.7312
60 20.0000 60.0000 100.0000 31.4489 31.3992 99.0109
61 20.0000 80.0000 0.0000 23.6790 44.4506 8.2779
62 20.0000 80.0000 20.0000 24.2706 44.6873 11.3930
63 20.0000 80.0000 40.0000 26.0533 45.4004 20.7807
64 20.0000 80.0000 60.0000 29.3713 46.7276 38.2530
65 20.0000 80.0000 80.0000 34.4691 48.7667 65.0977
66 20.0000 80.0000 100.0000 41.5485 51.5984 102.3774
67 20.0000 100.0000 0.0000 37.7045 72.5016 12.9531
68 20.0000 100.0000 20.0000 38.2961 72.7382 16.0682
69 20.0000 100.0000 40.0000 40.0788 73.4513 25.4559
70 20.0000 100.0000 60.0000 43.3968 74.7785 42.9281
71 20.0000 100.0000 80.0000 48.4946 76.8176 69.7729
72 20.0000 100.0000 100.0000 55.5740 79.6494 107.0526
73 40.0000 0.0000 0.0000 6.3752 3.7965 1.3429
74 40.0000 0.0000 20.0000 6.9668 4.0332 4.4580
75 40.0000 0.0000 40.0000 8.7495 4.7462 13.8457
76 40.0000 0.0000 60.0000 12.0675 6.0734 31.3180
77 40.0000 0.0000 80.0000 17.1653 8.1126 58.1627
78 40.0000 0.0000 100.0000 24.2447 10.9443 95.4424
79 40.0000 20.0000 0.0000 7.5472 6.1405 1.7335
80 40.0000 20.0000 20.0000 8.1387 6.3771 4.8487
81 40.0000 20.0000 40.0000 9.9215 7.0902 14.2364
82 40.0000 20.0000 60.0000 13.2395 8.4174 31.7086
83 40.0000 20.0000 80.0000 18.3373 10.4565 58.5534
84 40.0000 20.0000 100.0000 25.4167 13.2883 95.8330
85 40.0000 40.0000 0.0000 11.0791 13.2042 2.9108
86 40.0000 40.0000 20.0000 11.6706 13.4409 6.0260
87 40.0000 40.0000 40.0000 13.4533 14.1540 15.4137
88 40.0000 40.0000 60.0000 16.7713 15.4812 32.8859
89 40.0000 40.0000 80.0000 21.8691 17.5203 59.7307
90 40.0000 40.0000 100.0000 28.9486 20.3520 97.0103
91 40.0000 60.0000 0.0000 17.6525 26.3512 5.1020
92 40.0000 60.0000 20.0000 18.2441 26.5878 8.2171
93 40.0000 60.0000 40.0000 20.0268 27.3009 17.6048
94 40.0000 60.0000 60.0000 23.3448 28.6281 35.0771
95 40.0000 60.0000 80.0000 28.4426 30.6672 61.9218
96 40.0000 60.0000 100.0000 35.5220 33.4990 99.2015
97 40.0000 80.0000 0.0000 27.7521 46.5504 8.4685
98 40.0000 80.0000 20.0000 28.3437 46.7870 11.5837
99 40.0000 80.0000 40.0000 30.1264 47.5001 20.9714
100 40.0000 80.0000 60.0000 33.4444 48.8273 38.4436
101 40.0000 80.0000 80.0000 38.5422 50.8664 65.2884
102 40.0000 80.0000 100.0000 45.6216 53.6982 102.5680
103 40.0000 100.0000 0.0000 41.7776 74.6013 13.1437
104 40.0000 100.0000 20.0000 42.3692 74.8380 16.2588
105 40.0000 100.0000 40.0000 44.1519 75.5510 25.6465
106 40.0000 100.0000 60.0000 47.4699 76.8782 43.1188
107 40.0000 100.0000 80.0000 52.5677 78.9174 69.9635
108 40.0000 100.0000 100.0000 59.6471 81.7491 107.2432
109 60.0000 0.0000 0.0000 13.9560 7.7046 1.6976
110 60.0000 0.0000 20.0000 14.5476 7.9412 4.8128
111 60.0000 0.0000 40.0000 16.3303 8.6543 14.2005
112 60.0000 0.0000 60.0000 19.6483 9.9815 31.6727
113 60.0000 0.0000 80.0000 24.7461 12.0206 58.5175
114 60.0000 0.0000 100.0000 31.8255 14.8524 95.7971
115 60.0000 20.0000 0.0000 15.1280 10.0486 2.0883
116 60.0000 20.0000 20.0000 15.7196 10.2852 5.2035
117 60.0000 20.0000 40.0000 17.5023 10.9983 14.5912
118 60.0000 20.0000 60.0000 20.8203 12.3255 32.0634
119 60.0000 20.0000 80.0000 25.9181 14.3646 58.9082
120 60.0000 20.0000 100.0000 32.9975 17.1964 96.1878
121 60.0000 40.0000 0.0000 18.6599 17.1123 3.2656
122 60.0000 40.0000 20.0000 19.2514 17.3489 6.3807
123 60.0000 40.0000 40.0000 21.0341 18.0620 15.7684
124 60.0000 40.0000 60.0000 24.3521 19.3892 33.2407
125 60.0000 40.0000 80.0000 29.4500 21.4283 60.0855
126 60.0000 40.0000 100.0000 36.5294 24.2601 97.3651
127 60.0000 60.0000 0.0000 25.2333 30.2592 5.4568
128 60.0000 60.0000 20.0000 25.8249 30.4958 8.5719
129 60.0000 60.0000 40.0000 27.6076 31.2089 17.9596
130 60.0000 60.0000 60.0000 30.9256 32.5361 35.4318
131 60.0000 60.0000 80.0000 36.0234 34.5753 62.2766
132 60.0000 60.0000 100.0000 43.1028 37.4070 99.5563
133 60.0000 80.0000 0.0000 35.3329 50.4585 8.8233
134 60.0000 80.0000 20.0000 35.9245 50.6951 11.9384
135 60.0000 80.0000 40.0000 37.7072 51.4082 21.3261
136 60.0000 80.0000 60.0000 41.0252 52.7354 38.7984
137 60.0000 80.0000 80.0000 46.1230 54.7745 65.6431
138 60.0000 80.0000 100.0000 53.2024 57.6063 102.9228
139 60.0000 100.0000 0.0000 49.3584 78.5094 13.4984
140 60.0000 100.0000 20.0000 49.9500 78.7460 16.6136
141 60.0000 100.0000 40.0000 51.7327 79.4591 26.0013
142 60.0000 100.0000 60.0000 55.0507 80.7863 43.4735
143 60.0000 100.0000 80.0000 60.1485 82.8254 70.3183
144 60.0000 100.0000 100.0000 67.2279 85.6572 107.5979
145 80.0000 0.0000 0.0000 25.6033 13.7090 2.2427
146 80.0000 0.0000 20.0000 26.1949 13.9456 5.3579
147 80.0000 0.0000 40.0000 27.9776 14.6587 14.7456
148 80.0000 0.0000 60.0000 31.2956 15.9859 32.2178
149 80.0000 0.0000 80.0000 36.3934 18.0250 59.0626
150 80.0000 0.0000 100.0000 43.4728 20.8568 96.3422
151 80.0000 20.0000 0.0000 26.7753 16.0530 2.6334
152 80.0000 20.0000 20.0000 27.3669 16.2896 5.7485
153 80.0000 20.0000 40.0000 29.1496 17.0027 15.1362
154 80.0000 20.0000 60.0000 32.4676 18.3299 32.6085
155 80.0000 20.0000 80.0000 37.5654 20.3690 59.4532
156 80.0000 20.0000 100.0000 44.6448 23.2008 96.7329
157 80.0000 40.0000 0.0000 30.3072 23.1167 3.8107
158 80.0000 40.0000 20.0000 30.8987 23.3533 6.9258
159 80.0000 40.0000 40.0000 32.6815 24.0664 16.3135
160 80.0000 40.0000 60.0000 35.9995 25.3936 33.7858
161 80.0000 40.0000 80.0000 41.0973 27.4327 60.6305
162 80.0000 40.0000 100.0000 48.1767 30.2645 97.9102
163 80.0000 60.0000 0.0000 36.8806 36.2636 6.0018
164 80.0000 60.0000 20.0000 37.4722 36.5003 9.1170
165 80.0000 60.0000 40.0000 39.2549 37.2134 18.5047
166 80.0000 60.0000 60.0000 42.5729 38.5405 35.9769
167 80.0000 60.0000 80.0000 47.6707 40.5797 62.8217
168 80.0000 60.0000 100.0000 54.7501 43.4114 100.1013
169 80.0000 80.0000 0.0000 46.9803 56.4629 9.3684
170 80.0000 80.0000 20.0000 47.5718 56.6995 12.4835
171 80.0000 80.0000 40.0000 49.3545 57.4126 21.8712
172 80.0000 80.0000 60.0000 52.6725 58.7398 39.3435
173 80.0000 80.0000 80.0000 57.7704 60.7789 66.1882
174 80.0000 80.0000 100.0000 64.8498 63.6107 103.4679
175 80.0000 100.0000 0.0000 61.0057 84.5138 14.0435
176 80.0000 100.0000 20.0000 61.5973 84.7504 17.1587
177 80.0000 100.0000 40.0000 63.3800 85.4635 26.5464
178 80.0000 100.0000 60.0000 66.6980 86.7907 44.0186
179 80.0000 100.0000 80.0000 71.7958 88.8298 70.8634
180 80.0000 100.0000 100.0000 78.8752 91.6616 108.1430
181 100.0000 0.0000 0.0000 41.7781 22.0474 2.9997
182 100.0000 0.0000 20.0000 42.3697 22.2840 6.1148
183 100.0000 0.0000 40.0000 44.1524 22.9971 15.5025
184 100.0000 0.0000 60.0000 47.4704 24.3243 32.9748
185 100.0000 0.0000 80.0000 52.5682 26.3634 59.8196
186 100.0000 0.0000 100.0000 59.6476 29.1952 97.0992
187 100.0000 20.0000 0.0000 42.9501 24.3914 3.3904
188 100.0000 20.0000 20.0000 43.5417 24.6280 6.5055
189 100.0000 20.0000 40.0000 45.3244 25.3411 15.8932
190 100.0000 20.0000 60.0000 48.6424 26.6683 33.3655
191 100.0000 20.0000 80.0000 53.7402 28.7074 60.2102
192 100.0000 20.0000 100.0000 60.8196 31.5392 97.4899
193 100.0000 40.0000 0.0000 46.4820 31.4551 4.5677
194 100.0000 40.0000 20.0000 47.0735 31.6917 7.6828
195 100.0000 40.0000 40.0000 48.8562 32.4048 17.0705
196 100.0000 40.0000 60.0000 52.1742 33.7320 34.5427
197 100.0000 40.0000 80.0000 57.2721 35.7712 61.3875
198 100.0000 40.0000 100.0000 64.3515 38.6029 98.6672
199 100.0000 60.0000 0.0000 53.0554 44.6020 6.7588
200 100.0000 60.0000 20.0000 53.6470 44.8387 9.8739
201 100.0000 60.0000 40.0000 55.4297 45.5518 19.2616
202 100.0000 60.0000 60.0000 58.7477 46.8789 36.7339
203 100.0000 60.0000 80.0000 63.8455 48.9181 63.5787
204 100.0000 60.0000 100.0000 70.9249 51.7498 100.8583
205 100.0000 80.0000 0.0000 63.1550 64.8013 10.1253
206 100.0000 80.0000 20.0000 63.7466 65.0379 13.2405
207 100.0000 80.0000 40.0000 65.5293 65.7510 22.6282
208 100.0000 80.0000 60.0000 68.8473 67.0782 40.1004
209 100.0000 80.0000 80.0000 73.9451 69.1173 66.9452
210 100.0000 80.0000 100.0000 81.0245 71.9491 104.2248
211 100.0000 100.0000 0.0000 77.1805 92.8522 14.8005
212 100.0000 100.0000 20.0000 77.7721 93.0888 17.9156
213 100.0000 100.0000 40.0000 79.5548 93.8019 27.3033
214 100.0000 100.0000 60.0000 82.8728 95.1291 44.7756
215 100.0000 100.0000 80.0000 87.9706 97.1682 71.6204
216 100.0000 100.0000 100.0000 95.0500 100.0000 108.9000
217 10.0000 0.0000 0.0000 1.3597 1.2110 1.1082
218 0.0000 10.0000 0.0000 1.3053 1.7097 1.2073
219 0.0000 0.0000 10.0000 1.1296 1.0716 2.0321
220 90.0000 0.0000 0.0000 33.0987 17.5730 2.5935
221 100.0000 10.0000 0.0000 42.1329 22.7571 3.1180
222 100.0000 0.0000 10.0000 41.9572 22.1190 3.9428
223 10.0000 100.0000 0.0000 36.7621 72.0158 12.9090
224 0.0000 90.0000 0.0000 28.8268 56.7526 10.3811
225 0.0000 100.0000 10.0000 36.5320 71.8764 13.8329
226 10.0000 0.0000 100.0000 19.2292 8.3588 95.2077
227 0.0000 10.0000 100.0000 19.1748 8.8575 95.3068
228 0.0000 0.0000 90.0000 15.0212 6.6283 75.1841
229 10.0000 100.0000 100.0000 54.6316 79.1636 107.0085
230 0.0000 90.0000 100.0000 46.6963 63.9004 104.4806
231 0.0000 100.0000 90.0000 50.4236 77.4331 86.9849
232 90.0000 0.0000 100.0000 50.9682 24.7208 96.6930
233 100.0000 10.0000 100.0000 60.0024 29.9049 97.2175
234 100.0000 0.0000 90.0000 55.8488 27.6757 77.0948
235 90.0000 100.0000 0.0000 68.5011 88.3778 14.3943
236 100.0000 90.0000 0.0000 69.6544 77.8000 12.2918
237 100.0000 100.0000 10.0000 77.3596 92.9238 15.7436
238 90.0000 100.0000 100.0000 86.3706 95.5256 108.4938
239 100.0000 90.0000 100.0000 87.5239 84.9478 106.3913
240 100.0000 100.0000 90.0000 91.2512 98.4805 88.8956
241 0.0000 0.0000 2.0000 0.9782 1.0111 1.2347
242 4.3478 4.3478 4.3478 1.2680 1.3341 1.4528
243 8.6957 8.6957 8.6957 1.7143 1.8035 1.9640
244 13.0435 13.0435 13.0435 2.4007 2.5258 2.7506
245 17.3913 17.3913 17.3913 3.3548 3.5295 3.8437
246 21.7391 21.7391 21.7391 4.6001 4.8397 5.2704
247 26.0870 26.0870 26.0870 6.1577 6.4783 7.0549
248 30.4348 30.4348 30.4348 8.0466 8.4656 9.2191
249 34.7826 34.7826 34.7826 10.2844 10.8200 11.7830
250 37.9757 37.9757 37.9757 12.1597 12.7929 13.9315
251 43.4783 43.4783 43.4783 15.8712 16.6977 18.1838
252 47.8261 47.8261 47.8261 19.2499 20.2524 22.0549
253 52.1739 52.1739 52.1739 23.0373 24.2370 26.3941
254 56.5217 56.5217 56.5217 27.2463 28.6653 31.2165
255 59.7149 59.7149 62.0243 31.1040 32.4039 37.6579
256 65.2174 65.2174 65.2174 36.9788 38.9046 42.3671
257 69.5652 69.5652 69.5652 42.5257 44.7404 48.7222
258 73.9130 73.9130 73.9130 48.5412 51.0691 55.6142
259 78.2609 78.2609 78.2609 55.0359 57.9021 63.0554
260 82.6087 82.6087 82.6087 62.0203 65.2502 71.0574
261 86.9565 86.9565 86.9565 69.5043 73.1239 79.6320
262 91.3043 91.3043 91.3043 77.4977 81.5336 88.7901
263 95.6522 95.6522 95.6522 86.0098 90.4890 98.5426
264 98.0000 100.0000 100.0000 93.2170 99.0551 108.8142
265 2.6667 0.0000 0.0000 1.0348 1.0434 1.0929
266 0.1786 2.4880 0.0000 1.0243 1.1393 1.1120
267 0.0000 2.6667 2.0000 1.0512 1.1572 1.2590
268 2.0000 1.3333 1.3333 1.0687 1.1130 1.2012
269 0.0000 0.0000 4.0809 1.0070 1.0226 1.3863
270 2.7475 0.0000 2.7475 1.0753 1.0600 1.2932
271 9.3333 5.3333 5.3333 1.5447 1.5205 1.5555
272 8.0000 8.0000 4.0000 1.5543 1.6830 1.4790
273 5.3333 9.3333 5.3333 1.5188 1.7582 1.6028
274 4.0000 8.0000 8.0000 1.4602 1.6260 1.8568
275 5.3333 5.3333 9.3333 1.4351 1.4542 1.9959
276 8.0000 4.0000 8.0000 1.4824 1.4221 1.8163
277 16.0000 12.0000 12.0000 2.5624 2.5081 2.5513
278 14.6667 14.6667 10.6667 2.5856 2.8107 2.3909
279 12.0000 16.0000 12.0000 2.5159 2.9345 2.6361
280 10.6667 14.6667 14.6667 2.4074 2.7028 3.1064
281 12.0000 12.0000 16.0000 2.3657 2.3890 3.3413
282 14.6667 10.6667 14.6667 2.4495 2.3166 3.0297
283 22.6667 18.6667 18.6667 4.2168 4.1532 4.2512
284 21.3333 21.3333 17.3333 4.2562 4.6179 3.9917
285 18.6667 22.6667 18.6667 4.1466 4.7964 4.3790
286 17.3333 21.3333 21.3333 3.9804 4.4509 5.0995
287 18.6667 18.6667 22.6667 3.9200 3.9735 5.4430
288 21.3333 17.3333 21.3333 4.0456 3.8530 4.9806
289 29.3333 25.3333 25.3333 6.5896 6.5437 6.7529
290 28.0000 28.0000 24.0000 6.6474 7.1889 6.3821
291 25.3333 29.3333 25.3333 6.4932 7.4274 6.9286
292 24.0000 28.0000 28.0000 6.2626 6.9559 7.9271
293 25.3333 25.3333 29.3333 6.1818 6.2968 8.3902
294 28.0000 24.0000 28.0000 6.3535 6.1220 7.7613
295 36.0000 32.0000 32.0000 9.7503 9.7542 10.1390
296 34.6667 34.6667 30.6667 9.8283 10.5956 9.6462
297 32.0000 36.0000 32.0000 9.6255 10.8988 10.3665
298 30.6667 34.6667 34.6667 9.3249 10.2908 11.6674
299 32.0000 32.0000 36.0000 9.2222 9.4344 12.2597
300 34.6667 30.6667 34.6667 9.4439 9.1999 11.4505
301 42.6667 38.6667 38.6667 13.7603 13.8500 14.4815
302 41.3333 41.3333 37.3333 13.8600 14.9018 13.8574
303 38.6667 42.6667 38.6667 13.6050 15.2739 14.7645
304 37.3333 41.3333 41.3333 13.2294 14.5201 16.3894
305 38.6667 38.6667 42.6667 13.1033 13.4523 17.1195
306 41.3333 37.3333 41.3333 13.3784 13.1534 16.1177
307 49.3333 45.3333 45.3333 18.6747 18.8901 19.8452
308 48.0000 48.0000 44.0000 18.7976 20.1651 19.0814
309 45.3333 49.3333 45.3333 18.4872 20.6098 20.1870
310 44.0000 48.0000 48.0000 18.0320 19.7016 22.1556
311 45.3333 45.3333 49.3333 17.8813 18.4098 23.0314
312 48.0000 44.0000 48.0000 18.2129 18.0423 21.8258
313 56.0000 52.0000 52.0000 24.5442 24.9283 26.2893
314 54.6667 54.6667 50.6667 24.6915 26.4381 25.3780
315 52.0000 56.0000 52.0000 24.3228 26.9592 26.6930
316 50.6667 54.6667 54.6667 23.7837 25.8885 29.0233
317 52.0000 52.0000 56.0000 23.6071 24.3609 30.0521
318 54.6667 50.6667 54.6667 23.9982 23.9210 28.6323
319 62.6667 58.6667 58.6667 31.4155 32.0141 33.8684
320 61.3333 61.3333 57.3333 31.5885 33.7698 32.8024
321 58.6667 62.6667 58.6667 31.1586 34.3705 34.3367
322 57.3333 61.3333 61.3333 30.5317 33.1301 37.0457
323 57.5120 57.5120 61.5120 29.0909 30.0675 36.7317
324 61.3333 57.3333 61.3333 30.7814 30.8398 36.5905
325 69.3333 65.3333 65.3333 39.3324 40.1941 42.6333
326 68.0000 68.0000 64.0000 39.5321 42.2060 41.4060
327 65.3333 69.3333 65.3333 39.0385 42.8894 43.1690
328 64.0000 68.0000 68.0000 38.3203 41.4723 46.2723
329 65.3333 65.3333 69.3333 38.0888 39.4411 47.6271
330 68.0000 64.0000 68.0000 38.6066 38.8457 45.7503
331 76.0000 72.0000 72.0000 48.3360 49.5118 52.6318
332 74.6667 74.6667 70.6667 48.5636 51.7896 51.2369
333 72.0000 76.0000 72.0000 48.0038 52.5588 53.2375
334 70.6667 74.6667 74.6667 47.1907 50.9583 56.7501
335 72.0000 72.0000 76.0000 46.9302 48.6607 58.2771
336 74.6667 70.6667 74.6667 47.5151 47.9827 56.1586
337 82.6667 78.6667 78.6667 58.4654 60.0086 63.9093
338 81.3333 81.3333 77.3333 58.7218 62.5614 62.3408
339 78.6667 82.6667 78.6667 58.0935 63.4191 64.5872
340 77.3333 81.3333 81.3333 57.1822 61.6292 68.5232
341 78.6667 78.6667 82.6667 56.8918 59.0559 70.2282
342 81.3333 77.3333 81.3333 57.5460 58.2924 67.8600
343 89.3333 85.3333 85.3333 69.7574 71.7235 76.5085
344 88.0000 88.0000 84.0000 70.0436 74.5601 74.7607
345 85.3333 89.3333 85.3333 69.3446 75.5091 77.2609
346 84.0000 88.0000 88.0000 68.3320 73.5238 81.6338
347 85.3333 85.3333 89.3333 68.0107 70.6661 83.5222
348 88.0000 84.0000 88.0000 68.7365 69.8142 80.8965
349 96.0000 92.0000 92.0000 82.2474 84.6941 90.4704
350 94.6667 94.6667 90.6667 82.5644 87.8227 88.5380
351 92.0000 96.0000 92.0000 81.7925 88.8656 91.2996
352 90.6667 94.6667 94.6667 80.6756 86.6793 96.1222
353 92.0000 92.0000 96.0000 80.3226 83.5288 98.1992
354 94.6667 90.6667 94.6667 81.1220 82.5858 95.3085
355 98.8453 97.5120 97.5120 91.0202 95.1119 102.9549
356 100.0000 100.0000 97.3333 93.9851 99.5740 103.2923
357 97.2525 98.5858 98.6667 90.8790 96.2369 105.5777
358 95.3333 100.0000 100.0000 90.8491 97.8344 108.7034
359 98.6667 96.6667 100.0000 91.1971 94.1164 107.9674
360 100.0000 95.9191 98.5858 91.2824 93.3761 104.8350
END_DATA
CTI1   

DESCRIPTOR "Argyll Calibration Target chart information 1"
ORIGINATOR "ChromIQ"
DENSITY_EXTREME_VALUES "8"
CREATED "Sun Sep 06 16:14:07 2026"

NUMBER_OF_FIELDS 7
BEGIN_DATA_FORMAT
INDEX RGB_R RGB_G RGB_B XYZ_X XYZ_Y XYZ_Z
END_DATA_FORMAT

NUMBER_OF_SETS 8
BEGIN_DATA
0 100.0000 100.0000 100.0000 95.0500 100.0000 108.9000
1 0.0000 100.0000 100.0000 54.2224 78.9526 106.9893
2 100.0000 0.0000 100.0000 59.6476 29.1952 97.0992
3 0.0000 0.0000 100.0000 18.8200 8.1478 95.1885
4 100.0000 100.0000 0.0000 77.1805 92.8522 14.8005
5 0.0000 100.0000 0.0000 36.3529 71.8048 12.8898
6 100.0000 0.0000 0.0000 41.7781 22.0474 2.9997
7 0.0000 0.0000 0.0000 0.9505 1.0000 1.0890
END_DATA
CTI1   

DESCRIPTOR "Argyll Calibration Target chart information 1"
ORIGINATOR "ChromIQ"
DEVICE_COMBINATION_VALUES "9"
CREATED "Sun Sep 06 16:14:07 2026"

NUMBER_OF_FIELDS 7
BEGIN_DATA_FORMAT
INDEX RGB_R RGB_G RGB_B XYZ_X XYZ_Y XYZ_Z
END_DATA_FORMAT

NUMBER_OF_SETS 9
BEGIN_DATA
0 100.0000 100.0000 100.0000 95.0500 100.0000 108.9000
1 0.0000 100.0000 100.0000 54.2224 78.9526 106.9893
2 100.0000 0.0000 100.0000 59.6476 29.1952 97.0992
3 0.0000 0.0000 100.0000 18.8200 8.1478 95.1885
4 100.0000 100.0000 0.0000 77.1805 92.8522 14.8005
5 0.0000 100.0000 0.0000 36.3529 71.8048 12.8898
6 100.0000 0.0000 0.0000 41.7781 22.0474 2.9997
7 0.0000 0.0000 0.0000 0.9505 1.0000 1.0890
8 50.0000 50.0000 50.0000 21.0917 22.1901 24.1650
END_DATA
