demo-projects/old/Demo-Report-Matrix-2026-08-10_232125/runs/run1/verifications/2026-08-08_100000/chart/Demo-Report-Matrix-verify.ti1
CTI1   

DESCRIPTOR "Argyll Calibration Target chart information 1"
ORIGINATOR "ChromIQ"
APPROX_WHITE_POINT "95.050000 100.000000 108.900000"
COLOR_REP "iRGB"
WHITE_COLOR_PATCHES "1"
BLACK_COLOR_PATCHES "5"
CREATED "Mon Aug 10 23:19:49 2026"

NUMBER_OF_FIELDS 7
BEGIN_DATA_FORMAT
SAMPLE_ID RGB_R RGB_G RGB_B XYZ_X XYZ_Y XYZ_Z
END_DATA_FORMAT

NUMBER_OF_SETS 108
BEGIN_DATA
1 107.7255 98.8980 86.0610 96.5639 100.0677 81.8310
2 107.7255 98.8980 86.0610 96.5639 100.0677 81.8310
3 107.7255 98.8980 86.0610 96.5639 100.0677 81.8310
4 107.7255 98.8980 86.0610 96.5639 100.0677 81.8310
5 0.0000 0.0000 0.0000 0.9505 1.0000 1.0890
6 0.0000 0.0000 0.0000 0.9505 1.0000 1.0890
7 0.0000 0.0000 0.0000 0.9505 1.0000 1.0890
8 0.0000 0.0000 0.0000 0.9505 1.0000 1.0890
9 104.1169 95.5850 83.1780 89.4349 92.6844 75.8548
10 100.5198 92.2827 80.3044 82.6474 85.6547 70.1630
11 96.9334 88.9902 77.4393 76.1924 78.9693 64.7481
12 93.3596 85.7092 74.5841 70.0662 72.6242 59.6067
13 89.7975 82.4390 71.7384 64.2600 66.6103 54.7318
14 86.2472 79.1797 68.9022 58.7665 60.9203 50.1175
15 82.7110 75.9333 66.0771 53.5817 55.5498 45.7601
16 79.1872 72.6982 63.2620 48.6955 50.4883 41.6516
17 75.6772 69.4758 60.4579 44.1022 45.7301 37.7871
18 72.1815 66.2666 57.6652 39.7947 41.2678 34.1607
19 68.7021 63.0723 54.8855 35.7672 37.0955 30.7679
20 65.2374 59.8915 52.1176 32.0100 33.2029 27.6003
21 61.7883 56.7250 49.3621 28.5158 29.5826 24.6520
22 58.3559 53.5739 46.6200 25.2775 26.2273 21.9173
23 54.9435 50.4412 43.8939 22.2897 23.1313 19.3916
24 51.5481 47.3241 41.1814 19.5408 20.2828 17.0654
25 48.1718 44.2243 38.4840 17.0240 17.6744 14.9330
26 44.8172 41.1446 35.8040 14.7323 15.2992 12.9885
27 41.4858 38.0862 33.1426 12.6572 13.1483 11.2253
28 38.1746 35.0464 30.4974 10.7877 11.2102 9.6339
29 34.8911 32.0320 27.8742 9.1184 9.4795 8.2100
30 31.6365 29.0441 25.2742 7.6395 7.9460 6.9458
31 28.4095 26.0815 22.6961 6.3403 6.5986 5.8320
32 25.2122 23.1462 20.1418 5.2115 5.4275 4.8612
33 22.0534 20.2463 17.6183 4.2450 4.4248 4.0269
34 18.9321 17.3807 15.1247 3.4293 3.5781 3.3193
35 15.8612 14.5615 12.6714 2.7554 2.8785 2.7314
36 12.8416 11.7893 10.2590 2.2110 2.3129 2.2528
37 9.8772 9.0679 7.8908 1.7838 1.8689 1.8736
38 6.9663 6.3955 5.5653 1.4609 1.5330 1.5831
39 13.4872 7.2430 87.8786 15.1704 7.1197 71.4002
40 14.1204 33.2605 58.7129 10.3001 9.9456 30.7707
41 106.2431 86.4138 25.5524 74.1974 76.4004 16.7571
42 35.4242 99.1797 70.7177 48.0913 75.9348 55.9913
43 23.9035 63.4979 70.8307 23.8484 30.8223 48.7143
44 96.9158 0.0000 55.7815 43.8237 22.5415 28.4173
45 90.9729 51.6445 40.4154 44.4446 35.2071 18.1183
46 77.8868 43.5745 85.9842 42.4984 29.3251 70.8917
47 73.3907 87.2235 46.1320 50.4611 64.7051 27.6321
48 15.6223 43.8286 30.3626 8.8620 13.4005 10.0946
49 59.5228 31.9232 38.6474 18.8810 14.3570 14.2973
50 75.6872 72.1451 86.9982 52.7189 51.3632 76.3903
51 77.4012 52.9334 67.1819 39.7245 32.8735 43.4958
52 62.2552 83.0115 71.9650 46.8000 58.1353 54.3289
53 26.7610 0.0000 31.5793 4.7801 2.8064 8.8509
54 72.8215 62.8205 38.0255 35.5370 37.1069 17.4231
55 25.5435 35.6470 87.7279 20.0934 14.8198 72.3567
56 8.8461 10.3645 54.4883 6.2752 3.7694 25.5040
57 82.4314 0.0000 27.0837 28.3849 15.0199 7.9333
58 23.6935 67.5825 33.6494 19.1439 31.9626 14.7820
59 40.1378 99.2220 86.5196 54.0650 78.5235 80.7166
60 74.5174 53.5101 49.3002 34.4673 30.8824 24.5365
61 21.8625 0.0000 11.2947 2.7684 1.9121 2.3073
62 64.3528 99.0202 35.6131 52.6075 78.8055 23.1412
63 91.6012 86.9846 86.5409 73.0962 75.0197 79.0747
64 22.1650 60.6315 55.2666 18.8885 26.8291 30.0493
65 82.5370 0.0000 12.4526 27.6504 14.7349 3.6684
66 101.1333 98.8989 72.3041 85.9649 95.0800 59.8660
67 40.5627 58.8691 75.5714 26.8503 29.3104 54.9665
68 47.6677 31.8621 18.9714 12.3009 11.1409 5.2571
69 65.7842 0.0000 56.1821 21.8130 11.1857 27.7863
70 56.8892 25.2179 87.6953 27.6242 15.9377 72.1171
71 92.3719 98.9863 81.6329 80.9311 92.2776 73.6744
72 58.6525 54.5289 58.0972 27.7738 27.7942 32.6447
73 8.0325 20.4647 27.8930 3.5998 4.0521 7.4613
74 40.5363 42.4231 25.4263 12.7975 14.9075 8.0756
75 59.0632 0.0000 35.5964 15.3737 8.2206 11.4698
76 67.2727 85.4266 86.7606 55.4263 64.3712 78.3380
77 57.2009 77.5850 54.5176 37.2332 48.7961 32.5916
78 35.0106 11.5367 26.3131 6.5066 4.4090 6.7266
79 100.8763 98.8394 46.6983 80.3729 92.7397 31.9139
80 104.3442 55.4555 22.7501 56.1761 43.4699 10.3404
81 32.6253 79.4286 62.6270 31.7904 47.4030 41.2088
82 62.9680 26.7017 23.3633 18.2637 12.8792 6.6437
83 42.3835 31.6197 45.8053 13.1356 11.1998 19.0170
84 63.7305 0.0000 27.5728 16.9093 9.0995 7.5987
85 46.7490 63.4989 25.6960 22.2480 30.8365 10.7558
86 59.4576 99.0775 57.2890 53.5061 78.9573 40.3236
87 90.6279 41.7449 47.3326 42.1551 29.4920 22.2291
88 55.5919 3.1357 0.0000 12.0394 6.8441 1.6326
89 51.6354 60.5504 57.4237 26.9958 30.9102 32.5858
90 15.5269 40.4744 49.8612 10.4256 12.6042 22.7568
91 15.4707 16.5997 0.0000 2.6271 3.0984 1.4057
92 56.9785 26.8818 47.1774 18.0163 12.4948 20.0953
93 103.6540 0.0000 87.4163 58.4288 29.1093 72.5372
94 50.8332 54.0517 87.4436 32.1648 28.8899 73.9279
95 39.5334 6.8997 14.5067 6.7808 4.2758 3.1461
96 27.5550 20.1327 24.7528 5.5482 5.0288 6.2973
97 85.2675 39.0584 57.8132 39.1273 26.7158 31.5411
98 16.4765 43.7596 44.2462 10.5289 14.0466 18.5187
99 71.6712 58.4999 13.1465 31.1740 32.3840 7.0166
100 31.5426 85.2153 85.4383 41.4143 56.9938 75.3407
101 100.0000 100.0000 100.0000 95.0500 100.0000 108.9000
102 0.0000 0.0000 0.0000 0.9505 1.0000 1.0890
103 100.0000 0.0000 0.0000 41.7781 22.0474 2.9997
104 0.0000 100.0000 0.0000 36.3529 71.8048 12.8898
105 0.0000 0.0000 100.0000 18.8200 8.1478 95.1885
106 0.0000 100.0000 100.0000 54.2224 78.9526 106.9893
107 100.0000 0.0000 100.0000 59.6476 29.1952 97.0992
108 100.0000 100.0000 0.0000 77.1805 92.8522 14.8005
END_DATA
CTI1   

DESCRIPTOR "Argyll Calibration Target chart information 1"
ORIGINATOR "ChromIQ"
DENSITY_EXTREME_VALUES "8"
CREATED "Mon Aug 10 23:19:49 2026"

NUMBER_OF_FIELDS 7
BEGIN_DATA_FORMAT
INDEX RGB_R RGB_G RGB_B XYZ_X XYZ_Y XYZ_Z
END_DATA_FORMAT

NUMBER_OF_SETS 8
BEGIN_DATA
0 100.0000 100.0000 100.0000 95.0500 100.0000 108.9000
1 0.0000 100.0000 100.0000 54.2224 78.9526 106.9893
2 100.0000 0.0000 100.0000 59.6476 29.1952 97.0992
3 0.0000 0.0000 100.0000 18.8200 8.1478 95.1885
4 100.0000 100.0000 0.0000 77.1805 92.8522 14.8005
5 0.0000 100.0000 0.0000 36.3529 71.8048 12.8898
6 100.0000 0.0000 0.0000 41.7781 22.0474 2.9997
7 0.0000 0.0000 0.0000 0.9505 1.0000 1.0890
END_DATA
CTI1   

DESCRIPTOR "Argyll Calibration Target chart information 1"
ORIGINATOR "ChromIQ"
DEVICE_COMBINATION_VALUES "9"
CREATED "Mon Aug 10 23:19:49 2026"

NUMBER_OF_FIELDS 7
BEGIN_DATA_FORMAT
INDEX RGB_R RGB_G RGB_B XYZ_X XYZ_Y XYZ_Z
END_DATA_FORMAT

NUMBER_OF_SETS 9
BEGIN_DATA
0 100.0000 100.0000 100.0000 95.0500 100.0000 108.9000
1 0.0000 100.0000 100.0000 54.2224 78.9526 106.9893
2 100.0000 0.0000 100.0000 59.6476 29.1952 97.0992
3 0.0000 0.0000 100.0000 18.8200 8.1478 95.1885
4 100.0000 100.0000 0.0000 77.1805 92.8522 14.8005
5 0.0000 100.0000 0.0000 36.3529 71.8048 12.8898
6 100.0000 0.0000 0.0000 41.7781 22.0474 2.9997
7 0.0000 0.0000 0.0000 0.9505 1.0000 1.0890
8 50.0000 50.0000 50.0000 21.0917 22.1901 24.1650
END_DATA
