demo-projects/old/Demo-Report-Matrix-2026-08-10_232125/runs/run1/verifications/2026-08-08_100000/chart/Demo-Report-Matrix-verify.ti2
CTI2   

DESCRIPTOR "Argyll Calibration Target chart information 2"
ORIGINATOR "Argyll printtarg"
CREATED "Mon Aug 10 23:19:49 2026"
TARGET_INSTRUMENT "X-Rite ColorMunki"
APPROX_WHITE_POINT "95.050000 100.000000 108.900000"
COLOR_REP "iRGB"
PAPER_SIZE "210.0x297.0"
RANDOM_START "1"
STEPS_IN_PASS "15"
PASSES_IN_STRIPS2 "6,2"
STRIP_INDEX_PATTERN "A-Z, A-Z"
PATCH_INDEX_PATTERN "0-9,@-9,@-9;1-999"
INDEX_ORDER "STRIP_THEN_PATCH"

NUMBER_OF_FIELDS 8
BEGIN_DATA_FORMAT
SAMPLE_ID SAMPLE_LOC RGB_R RGB_G RGB_B XYZ_X XYZ_Y XYZ_Z 
END_DATA_FORMAT

NUMBER_OF_SETS 120
BEGIN_DATA
1 "G7" 107.8431 98.82353 85.88235 96.56390 100.0677 81.83100 
2 "E10" 107.8431 98.82353 85.88235 96.56390 100.0677 81.83100 
3 "H2" 107.8431 98.82353 85.88235 96.56390 100.0677 81.83100 
4 "H5" 107.8431 98.82353 85.88235 96.56390 100.0677 81.83100 
5 "F13" 0.00000 0.00000 0.00000 0.950500 1.000000 1.089000 
6 "C3" 0.00000 0.00000 0.00000 0.950500 1.000000 1.089000 
7 "A10" 0.00000 0.00000 0.00000 0.950500 1.000000 1.089000 
8 "F6" 0.00000 0.00000 0.00000 0.950500 1.000000 1.089000 
9 "G3" 103.9216 95.68627 83.13725 89.43490 92.68440 75.85480 
10 "D12" 100.3922 92.15686 80.39216 82.64740 85.65470 70.16300 
11 "E3" 96.86275 89.01961 77.25490 76.19240 78.96930 64.74810 
12 "B12" 93.33333 85.88235 74.50980 70.06620 72.62420 59.60670 
13 "H3" 89.80392 82.35294 71.76471 64.26000 66.61030 54.73180 
14 "D8" 86.27451 79.21569 69.01961 58.76650 60.92030 50.11750 
15 "D6" 82.74510 76.07843 65.88235 53.58170 55.54980 45.76010 
16 "A4" 79.21569 72.54902 63.13725 48.69550 50.48830 41.65160 
17 "B6" 75.68627 69.41176 60.39216 44.10220 45.73010 37.78710 
18 "A7" 72.15686 66.27451 57.64706 39.79470 41.26780 34.16070 
19 "F8" 68.62745 63.13725 54.90196 35.76720 37.09550 30.76790 
20 "D13" 65.09804 60.00000 52.15686 32.01000 33.20290 27.60030 
21 "C12" 61.96078 56.86275 49.41176 28.51580 29.58260 24.65200 
22 "F12" 58.43137 53.72549 46.66667 25.27750 26.22730 21.91730 
23 "G11" 54.90196 50.58824 43.92157 22.28970 23.13130 19.39160 
24 "H8" 51.37255 47.45098 41.17647 19.54080 20.28280 17.06540 
25 "H9" 48.23529 44.31373 38.43137 17.02400 17.67440 14.93300 
26 "H6" 44.70588 41.17647 35.68627 14.73230 15.29920 12.98850 
27 "G9" 41.56863 38.03922 33.33333 12.65720 13.14830 11.22530 
28 "E11" 38.03922 34.90196 30.58824 10.78770 11.21020 9.633900 
29 "G8" 34.90196 32.15686 27.84314 9.118400 9.479500 8.210000 
30 "B2" 31.76471 29.01961 25.09804 7.639500 7.946000 6.945800 
31 "D2" 28.23529 26.27451 22.74510 6.340300 6.598600 5.832000 
32 "B4" 25.09804 23.13725 20.00000 5.211500 5.427500 4.861200 
33 "F2" 21.96078 20.39216 17.64706 4.245000 4.424800 4.026900 
34 "G15" 18.82353 17.25490 15.29412 3.429300 3.578100 3.319300 
35 "A14" 15.68627 14.50980 12.54902 2.755400 2.878500 2.731400 
36 "C15" 12.94118 11.76471 10.19608 2.211000 2.312900 2.252800 
37 "C5" 9.803922 9.019608 7.843137 1.783800 1.868900 1.873600 
38 "F9" 7.058824 6.274510 5.490196 1.460900 1.533000 1.583100 
39 "C1" 13.33333 7.058824 87.84314 15.17040 7.119700 71.40020 
40 "A9" 14.11765 33.33333 58.82353 10.30010 9.945600 30.77070 
41 "C4" 106.2745 86.27451 25.49020 74.19740 76.40040 16.75710 
42 "B10" 35.29412 99.21569 70.58824 48.09130 75.93480 55.99130 
43 "B8" 23.92157 63.52941 70.98039 23.84840 30.82230 48.71430 
44 "F4" 96.86275 0.00000 55.68627 43.82370 22.54150 28.41730 
45 "C13" 90.98039 51.76471 40.39216 44.44460 35.20710 18.11830 
46 "H13" 78.03922 43.52941 85.88235 42.49840 29.32510 70.89170 
47 "D5" 73.33333 87.05882 46.27451 50.46110 64.70510 27.63210 
48 "B3" 15.68627 43.92157 30.19608 8.862000 13.40050 10.09460 
49 "E6" 59.60784 31.76471 38.82353 18.88100 14.35700 14.29730 
50 "G2" 75.68627 72.15686 87.05882 52.71890 51.36320 76.39030 
51 "E7" 77.25490 52.94118 67.05882 39.72450 32.87350 43.49580 
52 "C11" 62.35294 83.13725 72.15686 46.80000 58.13530 54.32890 
53 "D1" 26.66667 0.00000 31.76471 4.780100 2.806400 8.850900 
54 "E4" 72.94118 62.74510 38.03922 35.53700 37.10690 17.42310 
55 "E13" 25.49020 35.68627 87.84314 20.09340 14.81980 72.35670 
56 "H11" 9.019608 10.19608 54.50980 6.275200 3.769400 25.50400 
57 "B13" 82.35294 0.00000 27.05882 28.38490 15.01990 7.933300 
58 "H4" 23.52941 67.45098 33.72549 19.14390 31.96260 14.78200 
59 "H7" 40.00000 99.21569 86.66667 54.06500 78.52350 80.71660 
60 "G10" 74.50980 53.33333 49.41176 34.46730 30.88240 24.53650 
61 "A3" 21.96078 0.00000 11.37255 2.768400 1.912100 2.307300 
62 "C9" 64.31373 99.21569 35.68627 52.60750 78.80550 23.14120 
63 "D14" 91.76471 87.05882 86.66667 73.09620 75.01970 79.07470 
64 "G12" 22.35294 60.78431 55.29412 18.88850 26.82910 30.04930 
65 "D15" 82.35294 0.00000 12.54902 27.65040 14.73490 3.668400 
66 "H10" 101.1765 98.82353 72.15686 85.96490 95.08000 59.86600 
67 "B9" 40.39216 58.82353 75.68627 26.85030 29.31040 54.96650 
68 "B5" 47.84314 31.76471 18.82353 12.30090 11.14090 5.257100 
69 "A12" 65.88235 0.00000 56.07843 21.81300 11.18570 27.78630 
70 "A1" 56.86275 25.09804 87.84314 27.62420 15.93770 72.11710 
71 "E5" 92.54902 98.82353 81.56863 80.93110 92.27760 73.67440 
72 "D11" 58.82353 54.50980 58.03922 27.77380 27.79420 32.64470 
73 "H15" 7.843137 20.39216 27.84314 3.599800 4.052100 7.461300 
74 "C10" 40.39216 42.35294 25.49020 12.79750 14.90750 8.075600 
75 "E15" 59.21569 0.00000 35.68627 15.37370 8.220600 11.46980 
76 "B11" 67.45098 85.49020 86.66667 55.42630 64.37120 78.33800 
77 "F7" 57.25490 77.64706 54.50980 37.23320 48.79610 32.59160 
78 "C7" 34.90196 11.37255 26.27451 6.506600 4.409000 6.726600 
79 "G14" 100.7843 98.82353 46.66667 80.37290 92.73970 31.91390 
80 "B1" 104.3137 55.29412 22.74510 56.17610 43.46990 10.34040 
81 "E9" 32.54902 79.60784 62.74510 31.79040 47.40300 41.20880 
82 "G4" 63.13725 26.66667 23.52941 18.26370 12.87920 6.643700 
83 "E12" 42.35294 31.76471 45.88235 13.13560 11.19980 19.01700 
84 "F11" 63.92157 0.00000 27.45098 16.90930 9.099500 7.598700 
85 "A8" 46.66667 63.52941 25.88235 22.24800 30.83650 10.75580 
86 "D7" 59.60784 99.21569 57.25490 53.50610 78.95730 40.32360 
87 "B7" 90.58824 41.56863 47.45098 42.15510 29.49200 22.22910 
88 "A15" 55.68627 3.137255 0.00000 12.03940 6.844100 1.632600 
89 "D9" 51.76471 60.39216 57.25490 26.99580 30.91020 32.58580 
90 "G13" 15.68627 40.39216 49.80392 10.42560 12.60420 22.75680 
91 "B15" 15.29412 16.47059 0.00000 2.627100 3.098400 1.405700 
92 "H14" 56.86275 27.05882 47.05882 18.01630 12.49480 20.09530 
93 "F1" 103.5294 0.00000 87.45098 58.42880 29.10930 72.53720 
94 "D3" 50.98039 54.11765 87.45098 32.16480 28.88990 73.92790 
95 "F15" 39.60784 7.058824 14.50980 6.780800 4.275800 3.146100 
96 "E2" 27.45098 20.00000 24.70588 5.548200 5.028800 6.297300 
97 "D4" 85.09804 39.21569 57.64706 39.12730 26.71580 31.54110 
98 "C14" 16.47059 43.92157 44.31373 10.52890 14.04660 18.51870 
99 "A5" 71.76471 58.43137 13.33333 31.17400 32.38400 7.016600 
100 "A6" 31.37255 85.09804 85.49020 41.41430 56.99380 75.34070 
101 "B14" 100.0000 100.0000 100.0000 95.05000 100.0000 108.9000 
102 "E8" 0.00000 0.00000 0.00000 0.950500 1.000000 1.089000 
103 "G1" 100.0000 0.00000 0.00000 41.77810 22.04740 2.999700 
104 "E1" 0.00000 100.0000 0.00000 36.35290 71.80480 12.88980 
105 "H1" 0.00000 0.00000 100.0000 18.82000 8.147800 95.18850 
106 "G6" 0.00000 100.0000 100.0000 54.22240 78.95260 106.9893 
107 "D10" 100.0000 0.00000 100.0000 59.64760 29.19520 97.09920 
108 "G5" 100.0000 100.0000 0.00000 77.18050 92.85220 14.80050 
0 "A2" 100.0000 100.0000 100.0000 95.05000 100.0000 108.9000 
0 "H12" 100.0000 100.0000 100.0000 95.05000 100.0000 108.9000 
0 "C2" 100.0000 100.0000 100.0000 95.05000 100.0000 108.9000 
0 "E14" 100.0000 100.0000 100.0000 95.05000 100.0000 108.9000 
0 "F10" 100.0000 100.0000 100.0000 95.05000 100.0000 108.9000 
0 "A11" 100.0000 100.0000 100.0000 95.05000 100.0000 108.9000 
0 "F3" 100.0000 100.0000 100.0000 95.05000 100.0000 108.9000 
0 "C6" 100.0000 100.0000 100.0000 95.05000 100.0000 108.9000 
0 "A13" 100.0000 100.0000 100.0000 95.05000 100.0000 108.9000 
0 "F14" 100.0000 100.0000 100.0000 95.05000 100.0000 108.9000 
0 "F5" 100.0000 100.0000 100.0000 95.05000 100.0000 108.9000 
0 "C8" 100.0000 100.0000 100.0000 95.05000 100.0000 108.9000 
END_DATA
