demo-projects/Demo-Report-Matrix/runs/run1/verifications/2026-08-01_100000/chart/Demo-Report-Matrix-verify.ti1
CTI1   

DESCRIPTOR "Argyll Calibration Target chart information 1"
ORIGINATOR "ChromIQ"
APPROX_WHITE_POINT "95.050000 100.000000 108.900000"
COLOR_REP "iRGB"
WHITE_COLOR_PATCHES "1"
BLACK_COLOR_PATCHES "5"
CREATED "Tue Aug 11 11:21:04 2026"

NUMBER_OF_FIELDS 7
BEGIN_DATA_FORMAT
SAMPLE_ID RGB_R RGB_G RGB_B XYZ_X XYZ_Y XYZ_Z
END_DATA_FORMAT

NUMBER_OF_SETS 108
BEGIN_DATA
1 107.7025 98.9007 86.0807 96.5490 100.0625 81.8652
2 107.7025 98.9007 86.0807 96.5490 100.0625 81.8652
3 107.7025 98.9007 86.0807 96.5490 100.0625 81.8652
4 107.7025 98.9007 86.0807 96.5490 100.0625 81.8652
5 0.0000 0.0000 0.0000 0.9505 1.0000 1.0890
6 0.0000 0.0000 0.0000 0.9505 1.0000 1.0890
7 0.0000 0.0000 0.0000 0.9505 1.0000 1.0890
8 0.0000 0.0000 0.0000 0.9505 1.0000 1.0890
9 104.0819 95.5759 83.1869 89.3965 92.6541 75.8658
10 100.4734 92.2623 80.3028 82.5887 85.6026 70.1535
11 96.8761 88.9590 77.4277 76.1165 78.8986 64.7208
12 93.2918 85.6676 74.5630 69.9756 72.5376 59.5642
13 89.7197 82.3875 71.7081 64.1572 66.5106 54.6763
14 86.1601 79.1188 68.8630 58.6542 60.8100 50.0509
15 82.6151 75.8635 66.0297 53.4621 55.4314 45.6849
16 79.0830 72.6201 63.2067 48.5707 50.3641 41.5695
17 75.5654 69.3899 60.3952 43.9742 45.6021 37.7000
18 72.0626 66.1734 57.5957 39.6653 41.1378 34.0703
19 68.5768 62.9724 54.8097 35.6382 36.9653 30.6756
20 65.1063 59.7856 52.0359 31.8827 33.0741 27.5076
21 61.6521 56.6137 49.2752 28.3916 29.4567 24.5602
22 58.2154 53.4578 46.5284 25.1577 26.1056 21.8275
23 54.7994 50.3210 43.7981 22.1752 23.0148 19.3047
24 51.4012 47.2005 41.0821 19.4327 20.1725 16.9824
25 48.0228 44.0982 38.3820 16.9229 17.5712 14.8546
26 44.6670 41.0166 35.6998 14.6387 15.2035 12.9154
27 41.3353 37.9572 33.0370 12.5717 13.0607 11.1578
28 38.0248 34.9173 30.3912 10.7106 11.1312 9.5726
29 34.7430 31.9037 27.7682 9.0498 9.4091 8.1551
30 31.4912 28.9176 25.1692 7.5794 7.8843 6.8972
31 28.2681 25.9579 22.5931 6.2887 6.5455 5.7900
32 25.0759 23.0266 20.0418 5.1680 5.3828 4.8255
33 21.9237 20.1320 17.5224 4.2093 4.3880 3.9973
34 18.8105 17.2732 15.0342 3.4008 3.5488 3.2956
35 15.7493 14.4622 12.5876 2.7337 2.8560 2.7130
36 12.7413 11.7001 10.1835 2.1951 2.2966 2.2393
37 9.7909 8.9908 7.8254 1.7731 1.8578 1.8643
38 6.8968 6.3332 5.5122 1.4544 1.5262 1.5773
39 13.4817 7.4147 87.9194 15.1911 7.1395 71.4763
40 14.1043 33.1287 58.6550 10.2609 9.8880 30.7002
41 106.1945 86.3805 25.3957 74.1150 76.3264 16.6871
42 35.4854 99.1306 70.6924 48.0608 75.8618 55.9446
43 23.9146 63.3725 70.8077 23.7885 30.7095 48.6646
44 96.8036 0.0000 55.7000 43.7083 22.4838 28.3311
45 90.8623 51.5768 40.2998 44.3163 35.1083 18.0293
46 77.7591 43.5163 86.0112 42.4061 29.2526 70.9297
47 73.3008 87.1602 46.0335 50.3483 64.5855 27.5379
48 15.6033 43.6787 30.2599 8.8094 13.3128 10.0322
49 59.3606 31.8371 38.5426 18.7758 14.2801 14.2222
50 75.5859 72.0702 87.0292 52.6250 51.2553 76.4293
51 77.2750 52.8494 67.1399 39.6012 32.7672 43.4287
52 62.1666 82.9365 71.9412 46.7023 58.0156 54.2780
53 26.6110 1.1166 31.4764 4.7746 2.8501 8.8090
54 72.6956 62.7216 37.9138 35.4036 36.9754 17.3360
55 25.4729 35.5381 87.7675 20.0717 14.7723 72.4196
56 8.8277 10.3320 54.4203 6.2598 3.7602 25.4373
57 82.2859 0.0000 26.9548 28.2702 14.9619 7.8753
58 23.6989 67.4536 33.5462 19.0723 31.8348 14.7064
59 40.1727 99.1781 86.5522 54.0510 78.4631 80.7630
60 74.3850 53.4152 49.2095 34.3354 30.7658 24.4438
61 21.7207 0.0000 11.2129 2.7460 1.9008 2.2931
62 64.2877 98.9782 35.4991 52.5279 78.7164 23.0634
63 91.5353 86.9467 86.5667 73.0250 74.9443 79.1093
64 22.1675 60.4977 55.1990 18.8203 26.7123 29.9639
65 82.3910 0.0000 12.3021 27.5401 14.6786 3.6366
66 101.0950 98.8915 72.2722 85.9145 95.0462 59.8178
67 40.4656 58.7493 75.5635 26.7716 29.1984 54.9374
68 47.5032 31.7494 18.8629 12.2156 11.0662 5.2173
69 65.6204 0.0000 56.1112 21.7116 11.1350 27.7106
70 56.7378 25.1995 87.7324 27.5669 15.9029 72.1799
71 92.3225 98.9728 81.6383 80.8808 92.2355 73.6777
72 58.5160 54.4165 58.0322 27.6567 27.6744 32.5596
73 8.0057 20.3436 27.7911 3.5765 4.0208 7.4132
74 40.3916 42.2876 25.3181 12.7115 14.8106 8.0201
75 58.8904 0.0000 35.4882 15.2814 8.1744 11.4043
76 67.1908 85.3640 86.7916 55.3507 64.2702 78.3772
77 57.1013 77.4924 54.4430 37.1215 48.6609 32.4993
78 34.8458 11.5092 26.2074 6.4569 4.3817 6.6820
79 100.8336 98.8273 46.5890 80.3066 92.6932 31.8216
80 104.2643 55.4068 22.5922 56.0693 43.3890 10.2775
81 32.6196 79.3288 62.5775 31.7190 47.2794 41.1316
82 62.8028 26.6412 23.2450 18.1630 12.8144 6.5956
83 42.2280 31.5081 45.7161 13.0539 11.1284 18.9383
84 63.5600 0.0000 27.4560 16.8123 9.0506 7.5454
85 46.6303 63.3747 25.5843 22.1435 30.7017 10.6922
86 59.4038 99.0356 57.2201 53.4340 78.8722 40.2400
87 90.5113 41.7001 47.2319 42.0329 29.4134 22.1390
88 55.4151 3.7620 0.0000 11.9803 6.8391 1.6347
89 51.5118 60.4334 57.3581 26.8855 30.7823 32.4992
90 15.5109 40.3312 49.7825 10.3751 12.5263 22.6765
91 15.3621 16.4899 0.0000 2.6068 3.0732 1.4019
92 56.8141 26.8151 47.0878 17.9190 12.4311 20.0160
93 103.5642 0.0000 87.4441 58.3508 29.0680 72.5830
94 50.7130 53.9442 87.4800 32.0920 28.7933 73.9780
95 39.3607 6.9735 14.4085 6.7313 4.2551 3.1244
96 27.4099 20.0281 24.6491 5.5029 4.9891 6.2537
97 85.1411 39.0140 57.7411 39.0073 26.6397 31.4576
98 16.4578 43.6134 44.1571 10.4738 13.9596 18.4386
99 71.5374 58.3951 13.0116 31.0472 32.2571 6.9735
100 31.5872 85.1334 85.4676 41.3802 56.8959 75.3744
101 100.0000 100.0000 100.0000 95.0500 100.0000 108.9000
102 0.0000 0.0000 0.0000 0.9505 1.0000 1.0890
103 100.0000 0.0000 0.0000 41.7781 22.0474 2.9997
104 0.0000 100.0000 0.0000 36.3529 71.8048 12.8898
105 0.0000 0.0000 100.0000 18.8200 8.1478 95.1885
106 0.0000 100.0000 100.0000 54.2224 78.9526 106.9893
107 100.0000 0.0000 100.0000 59.6476 29.1952 97.0992
108 100.0000 100.0000 0.0000 77.1805 92.8522 14.8005
END_DATA
CTI1   

DESCRIPTOR "Argyll Calibration Target chart information 1"
ORIGINATOR "ChromIQ"
DENSITY_EXTREME_VALUES "8"
CREATED "Tue Aug 11 11:21:04 2026"

NUMBER_OF_FIELDS 7
BEGIN_DATA_FORMAT
INDEX RGB_R RGB_G RGB_B XYZ_X XYZ_Y XYZ_Z
END_DATA_FORMAT

NUMBER_OF_SETS 8
BEGIN_DATA
0 100.0000 100.0000 100.0000 95.0500 100.0000 108.9000
1 0.0000 100.0000 100.0000 54.2224 78.9526 106.9893
2 100.0000 0.0000 100.0000 59.6476 29.1952 97.0992
3 0.0000 0.0000 100.0000 18.8200 8.1478 95.1885
4 100.0000 100.0000 0.0000 77.1805 92.8522 14.8005
5 0.0000 100.0000 0.0000 36.3529 71.8048 12.8898
6 100.0000 0.0000 0.0000 41.7781 22.0474 2.9997
7 0.0000 0.0000 0.0000 0.9505 1.0000 1.0890
END_DATA
CTI1   

DESCRIPTOR "Argyll Calibration Target chart information 1"
ORIGINATOR "ChromIQ"
DEVICE_COMBINATION_VALUES "9"
CREATED "Tue Aug 11 11:21:04 2026"

NUMBER_OF_FIELDS 7
BEGIN_DATA_FORMAT
INDEX RGB_R RGB_G RGB_B XYZ_X XYZ_Y XYZ_Z
END_DATA_FORMAT

NUMBER_OF_SETS 9
BEGIN_DATA
0 100.0000 100.0000 100.0000 95.0500 100.0000 108.9000
1 0.0000 100.0000 100.0000 54.2224 78.9526 106.9893
2 100.0000 0.0000 100.0000 59.6476 29.1952 97.0992
3 0.0000 0.0000 100.0000 18.8200 8.1478 95.1885
4 100.0000 100.0000 0.0000 77.1805 92.8522 14.8005
5 0.0000 100.0000 0.0000 36.3529 71.8048 12.8898
6 100.0000 0.0000 0.0000 41.7781 22.0474 2.9997
7 0.0000 0.0000 0.0000 0.9505 1.0000 1.0890
8 50.0000 50.0000 50.0000 21.0917 22.1901 24.1650
END_DATA
