assets/charts/knut/rgb/cr30/cr30_a4_77p_1page_portrait_w24_0mm/chart.ti1
CTI1   

DESCRIPTOR "Argyll Calibration Target chart information 1"
ORIGINATOR "ChromIQ"
APPROX_WHITE_POINT "95.050000 100.000000 108.900000"
COLOR_REP "iRGB"
WHITE_COLOR_PATCHES "1"
BLACK_COLOR_PATCHES "1"
CREATED "Sun Sep 06 17:48:12 2026"

NUMBER_OF_FIELDS 7
BEGIN_DATA_FORMAT
SAMPLE_ID RGB_R RGB_G RGB_B XYZ_X XYZ_Y XYZ_Z
END_DATA_FORMAT

NUMBER_OF_SETS 77
BEGIN_DATA
1 0.0000 0.0000 0.0000 0.9505 1.0000 1.0890
2 0.0000 0.0000 33.3333 2.5738 1.6493 9.6372
3 0.0000 0.0000 66.6667 8.1336 3.8733 38.9149
4 0.0000 0.0000 100.0000 18.8200 8.1478 95.1885
5 0.0000 33.3333 0.0000 4.1665 7.4320 2.1610
6 0.0000 33.3333 33.3333 5.7898 8.0813 10.7092
7 0.0000 33.3333 66.6667 11.3497 10.3053 39.9869
8 0.0000 33.3333 100.0000 22.0360 14.5798 96.2605
9 0.0000 66.6667 0.0000 15.1815 29.4620 5.8327
10 0.0000 66.6667 33.3333 16.8048 30.1113 14.3808
11 0.0000 66.6667 66.6667 22.3646 32.3352 43.6586
12 0.0000 66.6667 100.0000 33.0510 36.6098 99.9322
13 0.0000 100.0000 0.0000 36.3529 71.8048 12.8898
14 0.0000 100.0000 33.3333 37.9762 72.4541 21.4380
15 0.0000 100.0000 66.6667 43.5360 74.6781 50.7157
16 0.0000 100.0000 100.0000 54.2224 78.9526 106.9893
17 33.3333 0.0000 0.0000 4.6593 2.9120 1.2626
18 33.3333 0.0000 33.3333 6.2826 3.5613 9.8107
19 33.3333 0.0000 66.6667 11.8425 5.7852 39.0885
20 33.3333 0.0000 100.0000 22.5288 10.0598 95.3621
21 33.3333 33.3333 0.0000 7.8754 9.3440 2.3346
22 33.3333 33.3333 33.3333 9.4987 9.9933 10.8827
23 33.3333 33.3333 66.6667 15.0585 12.2173 40.1605
24 33.3333 33.3333 100.0000 25.7449 16.4918 96.4341
25 33.3333 66.6667 0.0000 18.8903 31.3739 6.0062
26 33.3333 66.6667 33.3333 20.5136 32.0233 14.5544
27 33.3333 66.6667 66.6667 26.0735 34.2472 43.8321
28 33.3333 66.6667 100.0000 36.7598 38.5217 100.1057
29 33.3333 100.0000 0.0000 40.0617 73.7168 13.0634
30 33.3333 100.0000 33.3333 41.6850 74.3661 21.6115
31 33.3333 100.0000 66.6667 47.2449 76.5900 50.8893
32 33.3333 100.0000 100.0000 57.9312 80.8646 107.1629
33 66.6667 0.0000 0.0000 17.3623 9.4606 1.8571
34 66.6667 0.0000 33.3333 18.9856 10.1099 10.4052
35 66.6667 0.0000 66.6667 24.5454 12.3338 39.6830
36 66.6667 0.0000 100.0000 35.2318 16.6084 95.9566
37 66.6667 33.3333 0.0000 20.5783 15.8926 2.9291
38 66.6667 33.3333 33.3333 22.2016 16.5419 11.4772
39 66.6667 33.3333 66.6667 27.7614 18.7659 40.7550
40 66.6667 33.3333 100.0000 38.4478 23.0404 97.0286
41 66.6667 66.6667 0.0000 31.5933 37.9225 6.6007
42 66.6667 66.6667 33.3333 33.2166 38.5719 15.1489
43 66.6667 66.6667 66.6667 38.7764 40.7958 44.4266
44 66.6667 66.6667 100.0000 49.4628 45.0703 100.7002
45 66.6667 100.0000 0.0000 52.7647 80.2654 13.6579
46 66.6667 100.0000 33.3333 54.3880 80.9147 22.2060
47 66.6667 100.0000 66.6667 59.9478 83.1386 51.4838
48 66.6667 100.0000 100.0000 70.6342 87.4132 107.7574
49 100.0000 0.0000 0.0000 41.7781 22.0474 2.9997
50 100.0000 0.0000 33.3333 43.4014 22.6967 11.5479
51 100.0000 0.0000 66.6667 48.9612 24.9207 40.8256
52 100.0000 0.0000 100.0000 59.6476 29.1952 97.0992
53 100.0000 33.3333 0.0000 44.9941 28.4794 4.0717
54 100.0000 33.3333 33.3333 46.6174 29.1287 12.6199
55 100.0000 33.3333 66.6667 52.1773 31.3527 41.8976
56 100.0000 33.3333 100.0000 62.8636 35.6272 98.1712
57 100.0000 66.6667 0.0000 56.0091 50.5094 7.7434
58 100.0000 66.6667 33.3333 57.6324 51.1587 16.2915
59 100.0000 66.6667 66.6667 63.1922 53.3826 45.5693
60 100.0000 66.6667 100.0000 73.8786 57.6572 101.8429
61 100.0000 100.0000 0.0000 77.1805 92.8522 14.8005
62 100.0000 100.0000 33.3333 78.8038 93.5015 23.3487
63 100.0000 100.0000 66.6667 84.3636 95.7255 52.6264
64 100.0000 100.0000 100.0000 95.0500 100.0000 108.9000
65 0.0000 0.0000 2.0000 0.9782 1.0111 1.2347
66 8.3333 8.3333 8.3333 1.6683 1.7552 1.9114
67 16.6667 16.6667 16.6667 3.1762 3.3416 3.6390
68 25.0000 25.0000 25.0000 5.7379 6.0367 6.5740
69 32.1786 32.1786 32.1786 8.9013 9.3648 10.1983
70 41.6667 41.6667 41.6667 14.5808 15.3402 16.7054
71 50.0000 50.0000 50.0000 21.0917 22.1901 24.1650
72 58.3333 58.3333 58.3333 29.1275 30.6444 33.3718
73 64.6667 66.6667 66.6667 37.7059 40.2439 44.3765
74 75.0000 75.0000 75.0000 50.1195 52.7296 57.4226
75 83.3333 83.3333 83.3333 63.2327 66.5257 72.4465
76 91.6667 91.6667 91.6667 78.1871 82.2589 89.5799
77 98.0000 100.0000 100.0000 93.2170 99.0551 108.8142
END_DATA
CTI1   

DESCRIPTOR "Argyll Calibration Target chart information 1"
ORIGINATOR "ChromIQ"
DENSITY_EXTREME_VALUES "8"
CREATED "Sun Sep 06 17:48:12 2026"

NUMBER_OF_FIELDS 7
BEGIN_DATA_FORMAT
INDEX RGB_R RGB_G RGB_B XYZ_X XYZ_Y XYZ_Z
END_DATA_FORMAT

NUMBER_OF_SETS 8
BEGIN_DATA
0 100.0000 100.0000 100.0000 95.0500 100.0000 108.9000
1 0.0000 100.0000 100.0000 54.2224 78.9526 106.9893
2 100.0000 0.0000 100.0000 59.6476 29.1952 97.0992
3 0.0000 0.0000 100.0000 18.8200 8.1478 95.1885
4 100.0000 100.0000 0.0000 77.1805 92.8522 14.8005
5 0.0000 100.0000 0.0000 36.3529 71.8048 12.8898
6 100.0000 0.0000 0.0000 41.7781 22.0474 2.9997
7 0.0000 0.0000 0.0000 0.9505 1.0000 1.0890
END_DATA
CTI1   

DESCRIPTOR "Argyll Calibration Target chart information 1"
ORIGINATOR "ChromIQ"
DEVICE_COMBINATION_VALUES "9"
CREATED "Sun Sep 06 17:48:12 2026"

NUMBER_OF_FIELDS 7
BEGIN_DATA_FORMAT
INDEX RGB_R RGB_G RGB_B XYZ_X XYZ_Y XYZ_Z
END_DATA_FORMAT

NUMBER_OF_SETS 9
BEGIN_DATA
0 100.0000 100.0000 100.0000 95.0500 100.0000 108.9000
1 0.0000 100.0000 100.0000 54.2224 78.9526 106.9893
2 100.0000 0.0000 100.0000 59.6476 29.1952 97.0992
3 0.0000 0.0000 100.0000 18.8200 8.1478 95.1885
4 100.0000 100.0000 0.0000 77.1805 92.8522 14.8005
5 0.0000 100.0000 0.0000 36.3529 71.8048 12.8898
6 100.0000 0.0000 0.0000 41.7781 22.0474 2.9997
7 0.0000 0.0000 0.0000 0.9505 1.0000 1.0890
8 50.0000 50.0000 50.0000 21.0917 22.1901 24.1650
END_DATA
