tests/fixtures/charts/fpg_k31/c400/FPG-verify.ti2
CTI2   

DESCRIPTOR "Argyll Calibration Target chart information 2"
ORIGINATOR "Argyll printtarg"
CREATED "Wed Sep 23 17:53:42 2026"
TARGET_INSTRUMENT "X-Rite ColorMunki"
APPROX_WHITE_POINT "95.050000 100.000000 108.900000"
COLOR_REP "iRGB"
PAPER_SIZE "210.0x297.0"
RANDOM_START "78"
STEPS_IN_PASS "15"
PASSES_IN_STRIPS2 "6,6,6,6,4"
STRIP_INDEX_PATTERN "A-Z, A-Z"
PATCH_INDEX_PATTERN "0-9,@-9,@-9;1-999"
INDEX_ORDER "STRIP_THEN_PATCH"

NUMBER_OF_FIELDS 8
BEGIN_DATA_FORMAT
SAMPLE_ID SAMPLE_LOC RGB_R RGB_G RGB_B XYZ_X XYZ_Y XYZ_Z 
END_DATA_FORMAT

NUMBER_OF_SETS 420
BEGIN_DATA
1 "Q15" 0.00000 0.00000 0.00000 0.953700 1.001600 1.091200 
2 "K11" 98.43137 98.82353 99.60784 92.38460 97.17840 108.0365 
3 "K12" 95.29412 95.68627 96.47059 85.89780 90.27040 100.4838 
4 "P7" 91.76471 92.15686 93.33333 79.16090 83.16410 92.63200 
5 "N10" 88.23529 88.23529 89.41176 72.19720 75.87970 84.49350 
6 "Y3" 84.70588 85.09804 85.88235 66.38850 69.78980 77.47800 
7 "K7" 81.56863 81.96078 82.74510 60.92670 64.02880 71.09410 
8 "I13" 78.03922 78.43137 79.21569 55.36440 58.16020 64.52010 
9 "B8" 74.50980 74.90196 75.29412 49.87390 52.49630 58.06210 
10 "I5" 71.37255 71.76471 72.15686 45.26810 47.70510 52.70440 
11 "T5" 67.84314 68.23529 68.62745 40.80180 42.98680 47.48250 
12 "K14" 64.70588 64.70588 65.49020 36.45620 38.34260 42.51230 
13 "L6" 61.17647 61.56863 61.96078 32.54500 34.18570 38.07490 
14 "D5" 58.03922 58.03922 58.82353 29.05850 30.49970 34.05970 
15 "E8" 54.50980 54.90196 55.68627 25.55900 26.84940 29.94280 
16 "U13" 50.98039 50.98039 51.76471 22.07420 23.23050 25.73070 
17 "L11" 47.84314 47.84314 48.23529 19.28340 20.30110 22.39300 
18 "R9" 44.31373 44.70588 44.70588 16.67980 17.54660 19.29260 
19 "T10" 41.17647 41.17647 41.56863 14.30640 15.01380 16.53840 
20 "N8" 38.03922 37.64706 38.03922 12.14290 12.72350 14.05750 
21 "S3" 34.50980 34.50980 34.90196 10.13940 10.61330 11.72660 
22 "O5" 30.98039 30.98039 31.37255 8.349700 8.751800 9.689600 
23 "X2" 27.05882 27.45098 27.84314 6.720200 7.088600 7.864900 
24 "K5" 23.92157 24.31373 24.70588 5.451000 5.763800 6.427400 
25 "N12" 20.78431 21.17647 21.56863 4.387200 4.641700 5.183900 
26 "I12" 17.25490 18.03922 18.43137 3.444700 3.652900 4.087400 
27 "G2" 13.72549 14.50980 14.90196 2.615300 2.780800 3.125500 
28 "Z6" 9.803922 10.58824 10.58824 1.929100 2.046800 2.285600 
29 "N15" 5.882353 6.274510 6.274510 1.420900 1.502100 1.657000 
30 "P1" 2.745098 3.137255 3.137255 1.165000 1.227600 1.343600 
31 "S8" 0.00000 34.90196 71.37255 12.85790 11.37600 46.48790 
32 "D3" 3.529412 68.62745 86.66667 29.16520 36.57840 74.22780 
33 "O11" 98.82353 3.921569 69.01961 48.68040 24.87260 43.60810 
34 "H1" 41.17647 0.00000 0.784314 6.701500 3.963300 1.424500 
35 "D12" 90.98039 56.86275 52.15686 48.02610 39.58660 27.84650 
36 "V9" 20.00000 45.09804 1.176471 8.444700 13.94720 3.283100 
37 "A11" 70.19608 93.33333 61.17647 55.47890 73.27110 43.21210 
38 "Y5" 0.00000 47.05882 37.64706 9.667200 15.06410 14.38190 
39 "G13" 68.23529 45.88235 1.960784 24.44820 22.37860 4.112900 
40 "Z7" 60.78431 34.11765 47.84314 21.10510 16.05490 21.01330 
41 "E14" 76.86275 58.03922 82.74510 45.49720 38.16800 66.67730 
42 "A4" 69.41176 25.09804 4.313725 20.78220 13.93210 2.867600 
43 "L7" 61.56863 70.98039 8.627451 31.22510 40.92630 7.927000 
44 "M6" 58.82353 89.01961 89.41176 54.28450 67.12470 83.64140 
45 "N7" 26.66667 0.00000 38.43137 5.475000 3.081000 12.66020 
46 "V10" 72.54902 68.23529 49.01961 39.31060 42.57680 26.41390 
47 "U12" 0.00000 7.843137 67.05882 8.456200 4.394000 39.40610 
48 "S13" 84.70588 2.352941 34.50980 30.71100 16.23080 11.60480 
49 "U2" 0.00000 73.33333 43.92157 21.41910 37.27350 22.28930 
50 "P8" 74.11765 58.43137 62.35294 38.68200 35.51290 38.28290 
51 "E12" 1.176471 65.49020 68.62745 22.35580 31.51310 45.97220 
52 "E15" 85.09804 2.745098 17.64706 29.71440 15.88640 4.884400 
53 "W15" 1.568627 72.94118 2.352941 18.42650 35.82950 7.050400 
54 "AB4" 35.29412 63.52941 92.54902 32.84020 34.63400 84.53390 
55 "B2" 47.84314 33.72549 24.70588 13.16660 12.13440 7.242500 
56 "X13" 67.84314 1.176471 69.01961 25.93520 13.03000 43.00340 
57 "G3" 58.03922 59.21569 71.76471 32.46950 32.52250 50.11580 
58 "U4" 39.60784 45.49020 32.94118 14.13160 16.87090 11.76790 
59 "F15" 61.56863 1.568627 42.74510 17.53350 9.303800 16.15880 
60 "Q8" 53.33333 83.52941 69.80392 42.37190 56.33030 51.15420 
61 "W5" 35.29412 9.411765 31.37255 6.869700 4.370200 9.015200 
62 "V15" 52.15686 87.45098 3.921569 36.77770 58.26770 10.54820 
63 "V14" 14.11765 85.09804 78.43137 36.68460 54.85620 63.72140 
64 "G4" 64.31373 29.01961 30.19608 19.92480 14.18580 9.558500 
65 "AA6" 41.56863 33.72549 56.86275 15.25630 12.68120 29.27200 
66 "S10" 66.27451 2.352941 33.72549 18.82610 10.11240 10.70480 
67 "Z9" 43.52941 68.62745 34.50980 24.43130 35.54210 15.70800 
68 "T12" 90.98039 45.88235 60.00000 45.76930 32.73300 34.76260 
69 "I15" 57.64706 4.313725 2.745098 13.03390 7.394800 1.883400 
70 "AA5" 49.41176 65.49020 71.37255 31.39950 35.93210 49.93460 
71 "J9" 1.176471 42.74510 61.17647 12.32740 14.16550 34.27170 
72 "R14" 14.11765 17.64706 0.00000 2.584700 3.199800 1.427500 
73 "T13" 57.64706 28.62745 58.82353 20.72630 14.10980 31.13890 
74 "A5" 40.78431 5.098039 17.64706 7.207300 4.383200 3.825700 
75 "H2" 25.88235 20.39216 29.80392 5.688900 5.099000 8.401900 
76 "F5" 85.49020 42.74510 71.76471 43.42220 29.96400 48.63070 
77 "C7" 0.784314 46.27451 54.11765 11.98580 15.76760 27.18150 
78 "E9" 72.15686 63.52941 21.17647 33.84460 36.80260 9.678500 
79 "Y9" 84.31373 62.74510 44.31373 43.99120 41.41830 21.97970 
80 "P11" 34.90196 42.35294 61.96078 16.41260 16.13000 35.27490 
81 "N9" 80.00000 70.19608 64.70588 48.32850 48.41180 42.98850 
82 "O9" 98.82353 68.62745 1.960784 55.97750 51.96580 8.169900 
83 "H8" 40.39216 36.47059 4.313725 10.49140 11.70740 2.978100 
84 "R15" 35.68627 25.88235 69.01961 14.95310 10.20340 42.72940 
85 "G12" 0.00000 80.00000 63.52941 28.82030 46.46570 42.05200 
86 "AB10" 60.00000 2.352941 21.96078 14.81750 8.170900 5.424400 
87 "T6" 49.01961 1.568627 75.29412 18.71420 9.141400 50.94280 
88 "N5" 56.07843 70.98039 67.45098 35.93820 42.57280 45.86450 
89 "M8" 24.70588 8.627451 3.529412 3.293100 2.618800 1.536600 
90 "Z1" 1.176471 90.19608 41.96078 31.50880 57.88350 24.14720 
91 "D7" 45.88235 48.23529 79.60784 25.83900 22.92460 59.77040 
92 "O14" 68.62745 50.19608 44.31373 29.17130 26.64390 20.10440 
93 "X4" 75.29412 92.15686 36.86275 53.87410 71.81930 22.52600 
94 "F3" 62.74510 44.70588 25.09804 22.05400 20.60140 8.490000 
95 "L4" 74.50980 45.88235 48.62745 31.83500 25.82770 23.17770 
96 "C15" 36.07843 94.50980 21.17647 36.97910 65.54090 15.12480 
97 "R13" 83.13725 41.56863 1.960784 33.02430 25.09610 4.189500 
98 "T1" 99.21569 38.03922 92.15686 60.05900 36.09550 82.76770 
99 "AB6" 20.39216 33.72549 28.62745 6.806200 8.744600 8.536600 
100 "Z13" 74.11765 43.13725 30.58824 28.45700 23.15100 11.05440 
101 "W4" 31.76471 19.21569 22.35294 6.100300 5.165100 5.482400 
102 "L15" 29.41176 0.784314 83.13725 15.67080 7.262600 63.39460 
103 "B11" 38.03922 16.47059 0.00000 6.670700 5.159800 1.590400 
104 "G7" 65.09804 74.50980 60.78431 40.67010 47.79840 38.79660 
105 "AA10" 19.21569 47.05882 27.05882 9.912800 15.34470 8.963000 
106 "Z14" 72.15686 65.49020 72.54902 42.91730 42.03940 52.49570 
107 "R7" 40.78431 69.01961 2.352941 21.94390 34.61690 6.651800 
108 "X5" 92.15686 45.09804 24.70588 41.64900 30.81980 9.300800 
109 "V12" 67.84314 29.80392 40.78431 23.16680 15.99730 15.86790 
110 "W1" 29.80392 24.70588 85.88235 18.33450 11.12790 68.59600 
111 "P5" 83.13725 35.29412 32.15686 33.05910 22.70430 11.53400 
112 "I10" 30.98039 7.058824 60.00000 10.09510 5.365700 31.36000 
113 "S9" 77.64706 58.82353 71.76471 43.21570 37.91250 50.41570 
114 "G1" 89.41176 26.27451 0.392157 34.74550 21.37990 3.259000 
115 "Q13" 36.86275 80.39216 35.68627 29.07000 47.42620 18.35150 
116 "K15" 83.92157 87.05882 2.745098 54.12840 66.70280 11.18040 
117 "J11" 53.72549 49.01961 41.56863 21.06060 21.85170 17.49950 
118 "M2" 41.17647 74.90196 69.01961 33.00710 44.13890 48.40010 
119 "Y2" 29.80392 23.52941 10.19608 5.725700 5.848700 2.717700 
120 "Z5" 0.00000 25.49020 0.00000 2.802300 4.703600 1.706300 
121 "A13" 76.86275 81.17647 48.62745 49.09770 58.22900 28.57550 
122 "X1" 7.843137 7.450980 22.74510 2.217100 1.902800 5.163100 
123 "G5" 65.88235 54.90196 96.47059 42.83100 34.56780 91.75890 
124 "Y1" 88.62745 4.313725 0.00000 32.10290 17.23430 2.580600 
125 "O10" 43.52941 29.80392 40.39216 12.41200 10.44930 15.00150 
126 "H13" 72.94118 7.450980 61.17647 27.26930 14.22010 33.39360 
127 "P12" 69.41176 76.07843 85.49020 50.62900 53.65430 74.17410 
128 "S4" 97.64706 78.43137 45.09804 63.26600 63.03710 25.98590 
129 "W13" 34.11765 43.92157 50.98039 14.63690 16.13640 24.34680 
130 "S5" 42.35294 17.25490 29.80392 9.264600 6.465400 8.424900 
131 "Z8" 34.50980 60.00000 77.25490 26.07230 29.45080 57.33560 
132 "B10" 0.00000 68.62745 59.21569 21.70510 33.64420 35.33690 
133 "M4" 59.21569 73.72549 93.72549 46.74460 49.23050 88.51570 
134 "N11" 100.0000 44.31373 50.58824 51.50970 35.20920 25.67020 
135 "C4" 69.01961 80.39216 82.74510 51.78990 57.78570 70.14760 
136 "T4" 30.98039 72.94118 81.96078 33.02950 42.12740 67.28060 
137 "L8" 84.31373 54.90196 25.49020 38.85910 34.19500 10.45970 
138 "O3" 37.64706 45.09804 1.176471 11.75220 15.56030 3.409600 
139 "W11" 37.25490 54.90196 44.31373 17.79580 23.01670 20.04210 
140 "K6" 80.39216 78.82353 69.41176 54.38660 58.39460 50.77930 
141 "AA9" 18.43137 61.17647 43.13725 16.66990 26.25720 19.70050 
142 "AB5" 70.58824 17.25490 23.52941 21.38560 12.74390 6.517900 
143 "P13" 72.94118 47.45098 57.64706 33.04790 27.04890 31.62760 
144 "B9" 37.25490 25.09804 0.00000 7.434100 7.062300 1.917400 
145 "Q6" 52.15686 44.70588 50.58824 20.41190 19.39880 24.12340 
146 "I14" 33.33333 6.666667 0.00000 4.834200 3.304000 1.329000 
147 "T11" 86.27451 25.49020 57.25490 37.13920 21.83180 29.98440 
148 "D4" 23.52941 61.17647 32.94118 16.12900 26.10870 13.45420 
149 "S6" 52.94118 55.29412 31.37255 21.79130 25.62620 12.19510 
150 "K13" 65.49020 35.29412 7.058824 20.38630 16.36990 3.588300 
151 "M3" 52.94118 48.62745 0.784314 18.07360 20.46100 3.997000 
152 "O15" 13.72549 0.00000 7.058824 1.732200 1.390500 1.689200 
153 "U7" 18.82353 48.62745 81.96078 20.68610 20.53300 63.30310 
154 "L9" 63.92157 65.09804 70.98039 37.61590 39.00030 49.75120 
155 "H9" 100.0000 92.94118 71.37255 80.24990 85.57030 57.19800 
156 "N13" 0.00000 78.43137 78.82353 31.81250 45.95340 63.07770 
157 "D8" 41.56863 23.13725 21.56863 9.141600 7.476900 5.482800 
158 "W8" 85.09804 2.352941 43.52941 32.23620 16.90280 17.29670 
159 "A10" 58.82353 45.49020 61.96078 25.61590 22.12400 36.02900 
160 "L10" 75.29412 72.15686 2.745098 39.42590 46.01520 7.935900 
161 "Q11" 53.33333 30.19608 34.11765 15.42000 12.20250 11.46410 
162 "O6" 37.64706 72.94118 50.58824 26.97160 39.74360 27.72990 
163 "R12" 50.98039 55.29412 49.01961 23.28290 26.17740 24.10130 
164 "S2" 38.03922 95.68627 74.50980 47.06250 71.17720 60.54680 
165 "J6" 76.07843 60.78431 32.54902 36.12100 36.22310 14.11030 
166 "J12" 65.88235 72.94118 49.41176 38.04890 45.40370 27.30750 
167 "T9" 40.39216 56.86275 19.60784 17.08550 24.12520 7.660300 
168 "O7" 29.41176 52.94118 51.37255 16.44320 21.15550 25.54900 
169 "U1" 43.52941 1.568627 29.41176 8.785200 4.963700 8.023200 
170 "T2" 58.03922 50.58824 33.72549 22.40820 23.38120 12.92530 
171 "AA14" 94.90196 77.25490 3.529412 56.91870 59.14460 9.629100 
172 "X11" 24.31373 28.62745 34.90196 7.033300 7.393700 11.41170 
173 "R2" 78.03922 71.37255 89.41176 54.80270 51.84680 80.54420 
174 "Z10" 88.23529 75.68627 61.17647 56.27690 56.69750 40.17680 
175 "O13" 54.11765 39.21569 90.19608 30.05320 21.10660 77.75040 
176 "P15" 86.66667 30.58824 99.21569 50.64860 28.57140 95.57070 
177 "B5" 42.35294 69.01961 69.80392 30.44280 38.06060 48.45430 
178 "G8" 86.27451 67.05882 65.49020 51.42110 47.68750 43.52900 
179 "B4" 58.82353 45.49020 12.54902 19.79010 19.89800 5.082900 
180 "D1" 41.56863 5.490196 41.96078 9.618700 5.386200 15.35620 
181 "F6" 89.41176 78.43137 32.54902 54.46140 58.71100 17.57670 
182 "H5" 91.37255 98.43137 72.15686 76.92790 89.79710 59.17130 
183 "U15" 6.274510 57.25490 1.960784 11.43660 21.61810 4.650000 
184 "M14" 70.98039 44.70588 65.49020 32.74090 25.46200 40.53610 
185 "J7" 73.33333 47.45098 27.45098 29.15910 25.49310 10.04660 
186 "P4" 49.01961 25.09804 0.00000 11.16560 8.958200 2.086700 
187 "AA13" 57.25490 45.09804 45.09804 21.79070 20.33980 19.73270 
188 "C5" 21.17647 24.70588 18.43137 4.755900 5.538000 4.402600 
189 "C1" 32.15686 38.43137 84.70588 20.98890 16.30240 67.44730 
190 "C6" 25.49020 34.50980 10.19608 6.755200 9.097100 3.330600 
191 "AA15" 2.745098 83.92157 3.529412 24.81140 48.52340 9.260000 
192 "Y13" 73.33333 23.92157 34.50980 24.59460 15.41900 11.77530 
193 "U10" 74.50980 1.960784 87.05882 35.05710 17.15830 70.74760 
194 "O4" 78.43137 36.86275 22.35294 29.12660 21.30550 7.327600 
195 "P2" 64.31373 52.54902 41.17647 27.15290 26.72440 18.03730 
196 "C10" 0.00000 2.745098 42.74510 3.750600 2.247800 15.44030 
197 "K4" 5.882353 22.74510 59.60784 8.198300 6.292200 30.94680 
198 "AB1" 97.64706 87.84314 4.313725 66.14300 73.75910 12.00260 
199 "U6" 36.07843 47.45098 49.01961 15.68330 18.16380 22.71960 
200 "V2" 52.94118 25.49020 17.25490 13.20690 10.06100 4.511200 
201 "E3" 22.74510 16.86275 36.47059 5.470500 4.354300 11.72400 
202 "W10" 31.76471 0.00000 21.96078 4.981100 2.995600 4.994000 
203 "M13" 70.98039 29.80392 54.50980 26.95700 17.69650 27.04170 
204 "H15" 44.70588 18.43137 60.00000 14.48220 8.799900 31.62430 
205 "M10" 25.88235 25.88235 0.00000 5.134200 6.053900 1.844000 
206 "M9" 100.0000 67.84314 29.41176 57.78950 52.06360 14.52310 
207 "M7" 62.74510 47.05882 54.90196 26.78210 23.66500 28.85340 
208 "B15" 63.92157 28.62745 81.96078 29.67020 17.97750 62.35530 
209 "Y10" 37.64706 33.33333 29.01961 10.17180 10.43020 8.907700 
210 "F4" 28.62745 61.17647 72.15686 23.94990 29.24820 50.30750 
211 "H10" 60.78431 92.94118 44.70588 47.26090 68.95750 27.45180 
212 "A3" 13.33333 34.90196 38.43137 7.321100 9.253300 13.82520 
213 "P14" 62.35294 40.78431 77.25490 29.94290 22.04700 55.72580 
214 "L3" 87.45098 22.74510 34.11765 34.14860 20.13800 11.87500 
215 "R6" 22.74510 43.92157 65.49020 15.32760 16.19680 39.29100 
216 "V5" 79.60784 20.39216 60.00000 32.34480 18.34070 32.61560 
217 "R11" 83.13725 36.47059 40.39216 34.13670 23.56270 16.40500 
218 "V4" 37.64706 92.94118 92.54902 50.60650 69.24280 90.33740 
219 "R4" 99.60784 30.98039 52.54902 48.32850 29.05960 26.37200 
220 "F13" 29.41176 40.39216 69.41176 16.44050 15.21210 43.95980 
221 "Y14" 36.07843 82.74510 100.0000 46.28520 56.56140 103.0857 
222 "H12" 0.00000 90.19608 58.43137 34.22250 58.91570 38.77990 
223 "L13" 82.35294 83.13725 65.09804 57.39360 64.05370 46.10480 
224 "W14" 30.19608 49.41176 22.35294 12.14760 17.73500 7.620500 
225 "U14" 34.11765 20.78431 36.47059 8.029400 6.280500 11.96920 
226 "U8" 96.86275 53.33333 41.56863 50.34960 39.19740 19.22780 
227 "AA8" 65.88235 63.92157 58.82353 35.23700 37.19430 34.70340 
228 "Z4" 30.58824 26.66667 56.86275 11.15630 8.701300 28.59470 
229 "H4" 81.96078 43.13725 62.35294 38.73800 27.97010 36.63890 
230 "X7" 45.88235 59.60784 40.00000 21.64530 27.80210 17.69950 
231 "G11" 55.29412 74.50980 51.76471 34.22750 44.83040 29.40750 
232 "X9" 56.86275 17.64706 36.47059 15.43780 9.605000 12.34610 
233 "H11" 39.60784 36.07843 47.84314 13.48870 12.70840 20.83510 
234 "Q12" 88.23529 89.01961 41.17647 61.26120 72.00780 24.83900 
235 "K8" 45.88235 57.25490 78.03922 28.66510 29.32410 58.49080 
236 "AB7" 63.52941 80.78431 40.39216 39.80980 53.02760 21.70450 
237 "W6" 78.82353 87.05882 81.17647 61.74620 69.27460 69.45360 
238 "S11" 51.37255 56.86275 1.568627 20.28050 25.91940 4.985800 
239 "D2" 42.74510 32.15686 30.98039 11.54360 10.70590 9.681400 
240 "X12" 40.00000 67.05882 72.94118 29.66800 36.25990 52.43200 
241 "J8" 50.98039 81.17647 49.41176 35.91390 51.54020 28.41750 
242 "A12" 40.39216 79.21569 82.35294 38.84080 50.17370 68.98370 
243 "D13" 65.88235 60.39216 32.54902 30.07670 32.93880 13.85550 
244 "I6" 63.52941 53.72549 49.41176 28.24060 27.81110 24.53420 
245 "L5" 81.56863 34.11765 8.235294 30.26740 21.13800 4.114200 
246 "W3" 82.74510 25.88235 18.03922 29.91340 18.75930 5.504300 
247 "J4" 78.43137 40.39216 79.21569 39.94730 26.96690 59.47950 
248 "Q9" 59.60784 47.45098 73.33333 29.46440 24.75740 50.65530 
249 "O1" 29.41176 0.392157 69.01961 11.62710 5.625600 42.30840 
250 "E7" 28.23529 9.019608 11.76471 4.114000 3.058800 2.563400 
251 "I11" 69.80392 9.803922 32.54902 21.02620 11.69420 10.15060 
252 "K9" 43.92157 1.568627 23.52941 8.421000 4.827600 5.718200 
253 "Q14" 66.66667 52.54902 1.960784 25.87820 26.43970 4.822900 
254 "Y15" 52.94118 5.490196 65.09804 17.73730 9.088800 37.48090 
255 "AB12" 76.86275 54.50980 42.74510 35.47140 32.15520 19.52990 
256 "S1" 96.07843 49.41176 1.176471 45.75830 35.07570 5.382700 
257 "H6" 0.00000 25.49020 47.05882 6.185000 6.055000 19.52440 
258 "V3" 83.13725 65.09804 8.627451 41.49050 41.91480 7.623400 
259 "M15" 6.274510 23.92157 73.72549 11.83920 8.018900 49.15450 
260 "U3" 81.56863 51.37255 95.68627 50.91130 36.74650 89.83450 
261 "X6" 37.64706 83.92157 55.29412 34.28310 53.02280 34.23010 
262 "AB8" 66.66667 87.05882 81.17647 54.44030 65.72950 69.25850 
263 "AB13" 38.82353 93.33333 40.39216 38.71860 65.07940 24.16670 
264 "E13" 29.01961 70.58824 69.01961 27.59420 37.78730 47.35200 
265 "K10" 38.43137 6.274510 10.58824 6.277400 3.995500 2.384200 
266 "B6" 32.15686 17.25490 27.05882 6.324500 4.974700 7.103600 
267 "L14" 52.54902 2.745098 23.92157 11.62050 6.513800 5.998500 
268 "V1" 64.31373 12.94118 0.00000 16.73970 9.955800 1.985500 
269 "P6" 0.00000 30.19608 39.60784 5.872100 7.139200 14.14880 
270 "B1" 78.82353 1.568627 23.92157 25.77570 13.76960 6.627100 
271 "AB9" 76.86275 45.88235 42.74510 32.58890 26.41500 18.57520 
272 "A6" 84.31373 55.68627 2.745098 38.47320 34.63640 5.799000 
273 "F10" 0.00000 46.66667 47.84314 11.00750 15.50900 21.72060 
274 "N6" 79.21569 45.88235 12.94118 31.72610 26.20580 5.728700 
275 "Q4" 20.78431 23.92157 36.86275 6.035700 5.827100 12.26760 
276 "W2" 82.74510 47.45098 55.68627 39.10510 30.15180 29.86610 
277 "L12" 38.43137 83.52941 63.92157 36.10830 53.39780 43.82640 
278 "Z2" 45.09804 21.96078 75.68627 18.94580 11.27090 52.14580 
279 "X8" 41.17647 38.43137 26.27451 12.01070 12.94070 8.054600 
280 "V11" 75.29412 67.84314 68.62745 44.89740 44.76560 47.22710 
281 "A1" 90.98039 21.96078 75.29412 44.62810 24.53210 52.72700 
282 "I7" 40.00000 70.19608 85.49020 34.90420 40.71660 72.79830 
283 "Q10" 97.25490 29.01961 30.58824 42.91420 26.05100 10.81670 
284 "G6" 45.09804 56.47059 53.72549 22.27260 26.14530 28.21530 
285 "C12" 30.19608 5.098039 33.72549 5.805600 3.519100 10.07190 
286 "V8" 11.37255 34.50980 33.33333 6.586200 8.900300 10.90970 
287 "C2" 70.98039 73.72549 89.80392 51.82060 52.16830 82.02020 
288 "M1" 97.25490 7.450980 60.00000 45.36850 23.58260 33.03800 
289 "S14" 34.11765 22.74510 15.29412 6.695400 6.117900 3.640800 
290 "AA12" 59.21569 58.03922 80.78431 35.13640 33.00510 63.33770 
291 "AA3" 97.64706 95.29412 34.50980 73.13140 85.13580 22.74600 
292 "B3" 24.31373 29.80392 53.33333 9.881600 8.899400 25.33140 
293 "J2" 49.01961 32.15686 51.76471 16.55170 13.02500 24.35230 
294 "Q7" 76.86275 91.37255 72.94118 61.06330 73.71730 57.94700 
295 "Y6" 18.43137 50.19608 96.07843 26.01970 23.40630 89.24450 
296 "D6" 50.58824 47.84314 93.33333 31.95090 25.38330 83.98120 
297 "B12" 58.82353 16.47059 60.00000 19.85290 11.30330 32.03180 
298 "Z11" 90.58824 61.17647 62.35294 51.45340 43.67570 39.21360 
299 "AB15" 67.84314 1.960784 40.39216 20.52170 10.88720 14.72170 
300 "L1" 38.43137 98.82353 2.352941 40.50540 72.61990 12.99520 
301 "L2" 59.60784 67.05882 67.84314 35.74040 39.52960 45.88090 
302 "F9" 47.45098 5.882353 15.68627 9.274000 5.488100 3.509800 
303 "I1" 80.00000 94.50980 19.60784 57.31600 76.36640 15.64470 
304 "Y8" 30.98039 34.50980 31.37255 9.090700 10.20450 9.980400 
305 "Y4" 30.58824 45.88235 40.78431 12.89340 16.26220 16.47720 
306 "W12" 32.94118 80.39216 69.41176 34.15910 49.36970 49.99680 
307 "V6" 75.68627 49.41176 81.56863 41.26720 31.37610 63.86490 
308 "H7" 0.00000 36.86275 65.09804 11.71830 11.60510 38.37530 
309 "N4" 47.84314 78.43137 28.62745 30.57050 46.49830 14.48140 
310 "C3" 22.35294 33.33333 21.56863 6.535100 8.566300 5.891600 
311 "U9" 83.52941 45.88235 37.64706 36.45610 28.34190 15.53440 
312 "S7" 74.50980 74.11765 30.98039 41.30700 48.30590 15.40810 
313 "D15" 32.94118 0.784314 95.68627 20.84420 9.406000 86.78170 
314 "C9" 62.74510 30.58824 14.90196 18.41070 13.95060 4.444000 
315 "D10" 0.00000 34.11765 27.45098 5.401700 8.133600 8.025700 
316 "Y12" 91.37255 29.41176 54.50980 41.39360 24.99140 27.72350 
317 "G10" 99.60784 45.49020 42.35294 50.34690 35.26720 19.23750 
318 "J1" 11.76471 0.00000 14.11765 1.807700 1.405000 2.795900 
319 "E2" 35.29412 58.82353 40.78431 18.41200 25.74640 18.02840 
320 "X3" 53.33333 61.96078 71.37255 31.57340 33.86420 49.80940 
321 "G9" 56.47059 6.274510 12.54902 12.74350 7.312300 3.069300 
322 "G14" 95.68627 81.56863 88.62745 73.83590 70.07870 81.54640 
323 "T8" 58.03922 35.68627 31.76471 18.15940 15.16970 10.58030 
324 "W7" 86.66667 27.05882 41.96078 35.20000 21.43530 17.09360 
325 "A8" 1.960784 52.15686 68.23529 16.90620 20.70340 43.73590 
326 "Z3" 5.098039 54.11765 80.00000 20.96460 23.49360 61.04490 
327 "N14" 1.960784 73.33333 32.54902 20.20870 36.93690 15.17600 
328 "P9" 0.00000 36.86275 22.35294 5.625100 9.194000 6.208700 
329 "D9" 63.13725 22.74510 18.03922 17.45420 11.65300 4.827700 
330 "A9" 73.33333 32.54902 31.37255 25.73150 18.10520 10.61660 
331 "A14" 43.13725 25.49020 53.72549 13.61790 9.816700 25.50290 
332 "P3" 1.568627 42.35294 10.98039 6.531400 11.75770 3.944700 
333 "S12" 61.96078 32.15686 54.50980 22.36960 15.90780 26.87050 
334 "J10" 47.45098 21.96078 43.13725 12.91720 8.905000 16.55650 
335 "A2" 58.43137 58.82353 45.09804 27.01280 30.07120 21.47140 
336 "F2" 65.09804 21.17647 92.94118 32.95850 17.67240 82.11290 
337 "F1" 49.80392 5.098039 91.37255 24.32720 11.58280 77.97720 
338 "M5" 49.80392 30.98039 71.76471 20.83710 14.39170 46.81080 
339 "S15" 80.78431 28.23529 82.74510 40.16380 23.31930 64.11380 
340 "AB11" 34.11765 53.33333 60.00000 19.23510 22.63760 34.16440 
341 "H3" 36.07843 40.39216 51.37255 14.18270 14.44970 24.39040 
342 "F11" 22.35294 50.19608 43.92157 13.12470 18.21070 19.03460 
343 "I9" 40.39216 20.00000 12.15686 7.895800 6.302800 3.012800 
344 "F12" 75.68627 25.49020 46.27451 27.87100 17.27380 19.71260 
345 "T3" 65.49020 68.23529 59.21569 37.39890 41.51160 35.92700 
346 "I3" 14.11765 13.72549 57.25490 7.428800 4.606500 28.53370 
347 "U5" 43.92157 60.39216 1.960784 19.05040 27.35200 5.357300 
348 "Z12" 85.88235 78.82353 50.98039 54.58460 58.89720 30.22230 
349 "V7" 47.84314 17.25490 36.07843 11.66690 7.620500 11.93110 
350 "Q3" 40.39216 36.07843 40.00000 12.65820 12.43490 15.05820 
351 "Y11" 80.39216 36.07843 45.88235 32.78610 22.68140 20.22980 
352 "O8" 27.45098 29.80392 17.25490 6.448900 7.561800 4.385600 
353 "D11" 28.62745 65.09804 8.627451 17.39530 29.56760 6.486200 
354 "V13" 41.96078 45.88235 42.74510 15.99040 17.78800 17.87320 
355 "F7" 27.05882 59.21569 62.35294 20.49160 26.53950 37.53470 
356 "Q2" 38.03922 50.58824 64.70588 20.32940 21.67490 39.43020 
357 "I4" 64.70588 63.13725 6.274510 29.07570 34.26210 6.517800 
358 "K2" 28.62745 98.82353 33.33333 39.61790 71.71450 21.20350 
359 "AA2" 91.76471 81.56863 81.96078 68.34740 67.61630 69.98340 
360 "C14" 89.41176 3.921569 87.05882 45.82070 22.78320 71.38270 
361 "X10" 92.54902 69.41176 76.07843 60.20380 53.47840 58.38040 
362 "A7" 94.50980 100.0000 95.68627 88.56760 96.85320 99.78550 
363 "Q1" 38.82353 7.843137 56.86275 11.34670 6.141700 28.18040 
364 "P10" 58.03922 58.43137 23.13725 24.43930 28.79270 9.260600 
365 "E6" 71.76471 80.39216 35.29412 43.65700 54.75310 18.72910 
