tests/fixtures/charts/fpg_k31/c400/FPG-verify-reference.ti3
CTI3   

DESCRIPTOR "ChromIQ colorimetric verification reference"
ORIGINATOR "ChromIQ"
CREATED "Mi Sep 23 17:53:43 2026"
DEVICE_CLASS "OUTPUT"
COLOR_REP "RGB_XYZ"
CHROMIQ_SET_VERSION "PROVISIONAL-r1"
CHROMIQ_INTENT "absolute"
CHROMIQ_MARGIN "safe"
CHROMIQ_MASTER_TOTAL "5960"
CHROMIQ_IN_GAMUT "5260"
CHROMIQ_REQUESTED "400"
CHROMIQ_CORNER_IDS "401 402 403 404 405 406 407 408"

NUMBER_OF_FIELDS 10
BEGIN_DATA_FORMAT
SAMPLE_ID RGB_R RGB_G RGB_B XYZ_X XYZ_Y XYZ_Z LAB_L LAB_A LAB_B
END_DATA_FORMAT

NUMBER_OF_SETS 408
BEGIN_DATA
1 0.0893 0.0000 0.0289 0.0000 0.0000 0.0000 0.0000 0.0000 0.0000
2 98.2617 98.7708 99.7841 82.8689 85.9461 70.9381 94.2893 -0.0038 -0.0130
3 95.1821 95.5480 96.6300 76.5381 79.3801 65.5187 91.4060 -0.0037 -0.0127
4 91.7874 92.1043 93.1922 70.5000 73.1179 60.3500 88.5039 -0.0036 -0.0123
5 88.0511 88.4155 89.4344 64.7489 67.1531 55.4268 85.5812 -0.0035 -0.0120
6 84.8407 85.1564 86.0042 59.2802 61.4814 50.7455 82.6369 -0.0034 -0.0116
7 81.6386 81.9020 82.7383 54.0925 56.1011 46.3047 79.6713 -0.0033 -0.0113
8 78.2225 78.3997 79.1823 49.1785 51.0046 42.0981 76.6818 -0.0032 -0.0109
9 74.5076 74.8876 75.4585 44.5352 46.1889 38.1233 73.6679 -0.0031 -0.0106
10 71.2159 71.7166 72.1873 40.1581 41.6493 34.3765 70.6285 -0.0030 -0.0102
11 67.9148 68.3572 68.8100 36.0445 37.3829 30.8551 67.5633 -0.0029 -0.0098
12 64.5111 64.7945 65.4028 32.1868 33.3820 27.5528 64.4690 -0.0028 -0.0095
13 61.1913 61.3940 62.1547 28.5808 29.6421 24.4659 61.3441 -0.0027 -0.0091
14 58.0235 58.1751 59.0038 25.2219 26.1584 21.5906 58.1871 -0.0025 -0.0088
15 54.5718 54.7840 55.5109 22.1072 22.9281 18.9244 54.9982 -0.0025 -0.0084
16 50.8678 51.1452 51.6017 19.2279 19.9419 16.4597 51.7715 -0.0024 -0.0080
17 47.6699 47.9103 48.2272 16.5797 17.1953 14.1927 48.5052 -0.0022 -0.0076
18 44.4559 44.5724 44.8098 14.1580 14.6837 12.1196 45.1979 -0.0021 -0.0072
19 41.2472 41.1790 41.4946 11.9570 12.4010 10.2355 41.8464 -0.0020 -0.0068
20 37.9597 37.8083 38.1998 9.9678 10.3379 8.5327 38.4423 -0.0019 -0.0064
21 34.5696 34.3529 34.7389 8.1876 8.4916 7.0088 34.9864 -0.0018 -0.0060
22 31.0447 30.9563 31.3333 6.6089 6.8543 5.6574 31.4729 -0.0016 -0.0056
23 27.2143 27.5601 27.8506 5.2230 5.4169 4.4710 27.8910 -0.0015 -0.0052
24 23.8682 24.3856 24.7072 4.0224 4.1718 3.4433 24.2315 -0.0014 -0.0047
25 20.6989 21.2340 21.5524 3.0014 3.1128 2.5693 20.4902 -0.0012 -0.0043
26 17.3164 17.9633 18.2635 2.1495 2.2293 1.8400 16.6475 -0.0011 -0.0039
27 13.6197 14.4201 14.7376 1.4595 1.5137 1.2494 12.6948 -0.0010 -0.0034
28 9.8238 10.4642 10.7154 0.9195 0.9537 0.7872 8.5995 -0.0009 -0.0029
29 5.8464 6.2418 6.3812 0.5179 0.5371 0.4433 4.8517 -0.0005 -0.0017
30 2.8479 2.9980 3.0619 0.2413 0.2502 0.2065 2.2605 -0.0002 -0.0008
31 0.0000 34.7661 71.5261 9.4498 9.0128 30.6576 36.0089 6.3493 -54.1060
32 3.5585 68.6235 86.6871 23.5768 30.7951 49.1084 62.3343 -24.9873 -33.1671
33 99.0061 3.8825 68.8386 43.3224 21.6346 28.3531 53.6371 82.7959 -20.0157
34 41.0779 0.0000 0.9190 4.8320 2.4656 0.1543 17.7621 38.8134 27.7118
35 90.9846 56.7191 51.9621 44.3987 35.1674 17.6527 65.8788 33.1757 21.5572
36 20.0387 45.2750 1.2415 7.3373 11.8848 1.5609 41.0324 -33.9495 45.0431
37 70.1811 93.2522 61.0955 50.7826 65.0567 27.5078 84.5129 -29.4610 34.6246
38 0.0000 46.9321 37.7813 7.9326 12.6405 9.0118 42.2165 -33.4713 4.7761
39 68.1418 45.6971 1.8745 22.3767 19.5606 2.0415 51.3367 17.0184 57.8212
40 60.6018 34.2969 47.6628 18.4437 13.6483 13.5209 43.7243 30.6573 -6.4675
41 76.7817 58.0038 82.5944 40.0034 33.0068 43.9038 64.1664 27.3705 -23.8421
42 69.3938 25.1984 4.4977 18.9614 12.0161 1.2157 41.2417 44.0285 49.6637
43 61.5223 71.0474 8.4349 28.2364 35.4460 4.8230 66.0944 -21.8226 63.9265
44 58.6737 88.8834 89.3765 47.2336 58.5907 54.9284 81.0661 -24.2382 -7.2701
45 26.5982 0.0000 38.3805 3.7601 1.7857 7.7269 14.3201 38.8648 -38.5430
46 72.3733 68.2115 49.1537 35.6940 37.3347 16.8777 67.5274 -1.0191 26.1762
47 0.0000 7.7795 66.9912 5.2651 2.5635 25.1818 18.2035 42.2621 -75.6776
48 84.5977 2.2184 34.5176 27.8714 14.1185 6.7951 44.4025 70.2407 17.1311
49 0.0000 73.2608 44.0592 18.6160 31.8411 13.9753 63.2114 -52.4443 25.9187
50 74.3115 58.4036 62.3947 34.6031 30.9384 24.3702 62.4556 17.1463 2.0814
51 1.0643 65.5688 68.6043 18.4546 26.6619 30.0119 58.6601 -33.6646 -14.0357
52 84.9571 2.7479 17.5693 27.0875 13.7957 2.3534 43.9385 69.1116 42.2374
53 1.5734 72.9647 2.2036 16.5956 30.8960 4.1847 62.4197 -59.8897 61.1782
54 35.1430 63.4371 92.5856 26.7765 29.3303 55.4078 61.0721 -5.9982 -42.2491
55 48.0001 33.8875 24.6859 11.5487 10.2546 3.9131 38.2955 12.4329 21.2221
56 67.9929 1.2670 69.2069 21.5607 10.5303 27.6660 38.7779 67.3700 -44.4943
57 57.9677 59.2041 71.9472 27.8375 27.8092 32.7490 59.7159 4.1002 -16.4296
58 39.7674 45.6762 32.9538 12.0987 14.2519 6.8903 44.5920 -10.8553 17.0536
59 61.6367 1.7445 42.7699 14.8464 7.3996 10.5441 32.6999 58.0766 -16.7693
60 53.1713 83.4488 69.7062 37.4704 49.1541 32.7043 75.5471 -29.7273 10.9324
61 35.1713 9.4884 31.5237 5.4405 3.1801 5.4278 20.7511 33.3653 -17.3690
62 52.2944 87.4752 4.0520 34.0640 51.1926 6.5975 76.7956 -46.5183 73.8329
63 14.2848 85.2650 78.4465 31.6805 47.5564 41.5235 74.5442 -45.2586 -2.9659
64 64.5062 28.8511 30.1392 17.7113 12.0348 5.3910 41.2714 37.3652 18.1937
65 41.6810 33.7378 57.0213 12.4666 10.3451 18.4652 38.4548 18.1107 -27.5334
66 66.1578 2.2401 33.8807 16.3695 8.2496 6.4288 34.4973 59.1970 1.6457
67 43.4871 68.7785 34.5992 21.9722 30.8132 9.7403 62.3496 -32.3136 36.9787
68 90.8705 45.7412 60.0687 42.0184 29.1940 21.9627 60.9525 47.3829 4.0284
69 57.6893 4.1734 2.7161 11.4070 5.9432 0.5624 29.2686 50.3297 39.8485
70 49.3729 65.3296 71.2953 27.0249 31.0062 32.6875 62.5129 -11.2031 -11.5152
71 1.0989 42.6252 61.2684 9.6051 11.8282 22.3717 40.9417 -13.6568 -31.2665
72 14.1125 17.4944 0.0000 1.3867 1.7578 0.2154 14.1610 -8.4131 20.3499
73 57.7056 28.8017 58.8199 17.5565 11.6904 19.6172 40.7197 38.9123 -26.1026
74 40.7926 5.0849 17.4723 5.7754 3.1173 1.7047 20.5075 38.2718 8.0674
75 25.9174 20.3967 29.8091 4.3839 3.7600 4.9568 22.8616 10.9487 -11.3240
76 85.4882 42.7603 71.6469 39.0977 26.4066 31.6232 58.4210 49.2994 -16.9583
77 0.6510 46.4617 54.1379 9.7116 13.3421 17.9372 43.2742 -22.8573 -18.0553
78 72.0380 63.4264 21.0392 31.1479 32.4455 5.9065 63.7094 -0.5009 54.3903
79 84.1221 62.8895 44.1673 40.9824 36.8481 14.0120 67.1629 17.4720 32.6348
80 34.7533 42.3150 62.0101 13.2498 13.3731 22.4375 43.3201 2.3262 -27.2926
81 79.9888 70.2941 64.7091 43.4505 42.3029 27.2725 71.0793 7.9913 11.8596
82 98.8574 68.7261 1.9825 52.4396 46.4653 4.8862 73.8465 20.8601 76.9547
83 40.5191 36.6021 4.4656 9.2968 10.0686 1.3915 37.9652 -3.3344 41.7564
84 35.8670 25.9577 68.9726 11.6230 7.8916 27.3112 33.7561 32.5263 -52.5560
85 0.0000 80.1193 63.3724 24.6878 39.9114 26.1623 69.4064 -50.6345 10.8777
86 60.1873 2.5403 21.8932 12.8502 6.5184 2.6162 30.6845 54.1703 17.1913
87 48.8955 1.6867 75.1905 14.5231 6.8469 32.7309 31.4557 61.4794 -65.1269
88 56.0373 71.1148 67.4162 31.2939 36.8438 29.5753 67.1597 -14.8380 1.3145
89 24.6003 8.5605 3.5667 1.7470 1.3331 0.3084 11.5053 12.7670 14.0163
90 1.1612 90.0480 41.8433 28.6827 50.7786 15.8405 76.5447 -65.1264 44.1883
91 45.9798 48.0493 79.4977 21.2001 19.1122 38.7589 50.8182 13.7706 -40.2611
92 68.7082 50.3878 44.4296 26.2620 23.2050 12.7207 55.2828 16.8523 15.6643
93 75.1444 92.2578 36.9856 50.7044 64.7182 15.3094 84.3383 -28.9155 58.9299
94 62.5526 44.6661 24.9055 19.6525 17.7540 4.7204 49.1964 13.2314 35.3468
95 74.4632 45.8239 48.6826 28.8381 22.5741 14.6662 54.6309 29.9311 9.3305
96 35.9941 94.3440 21.2468 34.4782 57.5723 9.8293 80.5004 -61.0608 67.9752
97 83.2354 41.5426 1.9302 30.9531 22.3957 2.0643 54.4444 38.7176 62.9631
98 99.0491 38.2156 92.2659 52.7626 31.6991 54.4705 63.0934 68.0455 -37.7708
99 20.2572 33.6361 28.6755 5.4730 7.0130 4.9793 31.8365 -14.0368 4.0317
100 73.9456 42.9729 30.5965 25.9548 20.2181 6.3483 52.0829 29.3768 32.3239
101 31.6679 19.0957 22.4396 4.6406 3.7452 2.8244 22.8106 14.5871 1.9790
102 29.5012 0.9267 83.2618 11.0204 4.9095 41.2154 26.4752 59.5655 -85.4491
103 38.1284 16.4263 0.0000 5.2474 3.7929 0.3494 22.9748 21.4838 33.0184
104 65.2723 74.4349 60.8453 36.2000 41.8373 24.4985 70.7586 -13.2582 16.1636
105 19.3031 47.0069 27.0677 8.5486 13.0085 5.1525 42.7760 -30.3937 21.9936
106 72.0388 65.6406 72.7328 38.1271 36.7040 34.5704 67.0544 8.9986 -6.4528
107 40.6109 68.9948 2.4908 19.7539 29.8092 3.8459 61.4892 -39.2497 61.6284
108 92.0126 44.9347 24.5578 39.0273 27.6372 5.3387 59.5595 44.1698 49.9866
109 67.9913 29.9351 40.9169 20.6876 13.7122 9.9143 43.8173 41.4951 4.4457
110 29.7018 24.7962 85.9516 13.8557 8.4877 44.6311 34.9786 42.1558 -75.0559
111 83.3073 35.1472 32.2463 30.6886 20.1635 6.5927 52.0216 48.1827 31.1403
112 31.1539 6.9397 60.0683 7.3061 3.7052 19.6812 22.6718 44.8905 -57.3542
113 77.4742 58.9485 71.8211 38.5433 33.0159 33.0492 64.1738 22.7454 -9.1913
114 89.5663 26.3127 0.2411 32.0157 18.9355 1.4461 50.6116 59.1118 62.8993
115 36.9728 80.4608 35.6598 26.5975 41.5661 11.6008 70.5707 -47.6692 45.2670
116 83.7687 86.9628 2.9277 51.2023 60.3707 7.2155 82.0393 -17.6891 80.2637
117 53.8921 49.0262 41.4905 18.4010 18.6695 10.8662 50.2983 2.0983 12.5574
118 41.1687 75.0596 69.0276 28.8190 38.3840 31.3841 68.3027 -29.0728 0.4461
119 29.9151 23.6972 10.0391 4.3640 4.3214 1.1587 24.7068 2.7256 21.9337
120 0.0000 25.3545 0.0000 1.7283 3.2175 0.4358 20.8948 -28.1768 27.8007
121 76.6737 81.2147 48.7464 44.9032 51.5769 18.3356 77.0272 -13.4209 39.2556
122 7.7856 7.3721 22.7560 1.0462 0.8332 2.1822 7.5266 9.2849 -19.0227
123 65.9911 55.0832 96.5105 36.2234 29.4361 59.8478 61.1646 28.1730 -46.6479
124 88.6076 4.2865 0.0000 28.9435 14.7687 0.9244 45.3158 70.4895 60.9664
125 43.4546 29.8901 40.3756 10.4762 8.4946 9.5870 34.9923 18.7922 -9.6716
126 73.1078 7.3937 61.1783 23.2984 11.9221 21.1156 41.0920 65.3384 -28.5379
127 69.4693 76.2421 85.4173 44.0838 46.7003 48.9750 73.9976 -2.7344 -12.9055
128 97.8208 78.3336 45.2938 57.8921 55.6680 16.3929 79.4245 10.4983 47.8277
129 34.2091 43.9929 51.1485 12.0639 13.4490 15.7721 43.4321 -6.0955 -12.7360
130 42.4032 17.2817 29.6952 7.8107 5.1023 4.8978 27.0243 30.8925 -3.8349
131 34.4550 59.8479 77.1123 21.2651 24.6794 37.3662 56.7617 -11.5399 -28.1288
132 0.0000 68.7033 59.2672 18.1534 28.4639 22.1496 60.3056 -42.3335 2.5492
133 59.2423 73.6866 93.5648 39.3911 42.3299 57.8394 71.0978 -4.4185 -27.4887
134 100.0000 44.1255 50.6810 48.3500 32.1839 16.4898 63.4946 54.5823 20.1330
135 69.0515 80.2050 82.6037 45.0954 50.2537 45.8927 76.2247 -9.4097 -5.4630
136 30.9593 73.0752 82.0983 27.7826 36.1109 44.4016 66.6045 -25.8097 -20.2486
137 84.2430 54.8642 25.5174 36.3525 30.4061 6.1522 62.0031 24.9868 50.3124
138 37.4675 45.0598 1.0962 10.4304 13.4625 1.6596 43.4520 -18.0202 48.1146
139 37.2004 54.7078 44.4807 15.1430 19.3879 12.5062 51.1379 -19.6247 9.1239
140 80.2278 78.8974 69.6005 48.8189 51.3695 32.4430 76.9023 -1.9296 13.6614
141 18.5050 61.1810 43.0824 14.4320 22.3165 12.3848 54.3613 -37.8082 15.0276
142 70.7829 17.1036 23.5492 19.4536 11.0504 3.2958 39.6652 53.3184 27.6103
143 73.0315 47.5676 57.5262 29.3215 23.3617 19.8740 55.4430 28.2890 -1.2559
144 37.1755 25.2184 0.0000 6.0467 5.4232 0.5741 27.9080 9.3894 37.2827
145 52.2377 44.6463 50.5287 17.7403 16.5701 15.5130 47.7137 9.7513 -4.7195
146 33.2087 6.7911 0.0000 2.9544 1.8724 0.1538 14.8030 23.6878 22.6194
147 86.2689 25.4344 57.1184 33.1854 19.0921 18.7806 50.7948 62.4885 -6.9449
148 23.3973 61.1694 32.9703 14.0985 22.1633 8.0899 54.1998 -39.1736 28.8145
149 53.1012 55.3818 31.2448 19.2267 21.9837 7.1658 54.0097 -9.6558 32.1410
150 65.3778 35.2606 6.9701 18.6917 14.3452 1.7616 44.7240 27.6336 49.2160
151 53.0812 48.7173 0.7471 16.5435 17.9454 2.0771 49.4299 -4.1902 54.1974
152 13.5788 0.0000 7.0538 0.5476 0.2743 0.3089 2.4780 11.4311 -1.5581
153 18.7596 48.7917 81.8176 16.1401 16.9003 41.2726 48.1342 -0.8822 -48.1795
154 63.8266 65.1153 70.9664 32.9516 33.8554 32.7669 64.8476 1.0909 -7.6085
155 100.0000 93.0813 71.4831 73.2983 76.0767 36.9617 89.8949 -0.1171 29.5537
156 0.0000 78.3161 78.9728 26.9625 39.6684 41.3885 69.2327 -40.4195 -11.9513
157 41.7447 23.3158 21.5593 7.7449 5.9712 2.7919 29.3398 20.3026 13.4865
158 85.1884 2.4652 43.3899 28.9677 14.6068 10.9031 45.0909 71.5523 3.4641
159 58.6843 45.3486 62.0821 21.7911 18.6622 22.8839 50.2896 18.8278 -16.1298
160 75.2219 72.1494 2.5657 36.3683 40.4872 4.7351 69.8151 -8.6336 70.8163
161 53.4564 30.3509 34.2077 13.4879 10.2111 6.8970 38.2187 25.8514 6.0367
162 37.4971 72.9115 50.5574 23.8932 34.4617 17.6393 65.3274 -36.4964 20.6368
163 51.0803 55.4613 49.1631 20.3705 22.5009 15.3443 54.5545 -6.3228 7.4918
164 38.1511 95.6218 74.5889 42.2681 62.6101 39.5598 83.2368 -47.9212 14.5695
165 76.0325 60.8547 32.4991 33.4374 32.0306 8.7075 63.3682 9.1773 42.3327
166 65.9784 72.8215 49.4840 34.2832 39.7900 17.4500 69.3197 -13.5383 27.9495
167 40.4416 56.8486 19.5046 15.1405 20.6641 4.4100 52.5800 -25.8553 42.9080
168 29.5382 52.7633 51.5152 13.7943 17.8834 16.4035 49.3544 -20.1958 -4.0423
169 43.6611 1.7164 29.3942 7.2766 3.6356 4.6603 22.4282 45.6551 -10.4773
170 57.9599 50.5333 33.5961 19.7823 20.1287 7.7292 51.9824 1.8694 26.3828
171 94.8204 77.2017 3.6817 52.9094 52.7531 5.8868 77.7290 5.3401 78.6547
172 24.2286 28.4800 34.9962 5.5230 5.7236 7.1557 28.7040 0.0487 -11.4479
173 78.1578 71.5006 89.3106 47.8580 44.8582 52.9478 72.7984 13.1276 -19.4001
174 88.0473 75.4912 61.2791 51.2507 50.0218 25.1376 76.0826 8.1134 24.1927
175 54.1336 39.3382 90.3036 24.5795 17.4831 50.3547 48.8631 37.4492 -57.8045
176 86.6540 30.4752 99.1113 43.1819 24.6374 61.9355 56.7204 69.0914 -56.3758
177 42.5404 68.9661 69.8551 26.0083 32.5770 31.4351 63.8169 -20.9792 -7.3665
178 86.1516 67.1465 65.4042 46.8383 42.0007 27.7700 70.8714 18.6017 10.6655
179 58.6605 45.5755 12.4728 17.7310 17.1714 2.7838 48.4753 6.4192 46.5412
180 41.5207 5.3424 42.1135 7.7934 4.0320 9.9967 23.7768 44.7306 -30.3797
181 89.2403 78.3747 32.6797 50.3641 52.1751 11.1171 77.3854 0.1489 58.4821
182 91.4143 98.3644 72.1952 71.5289 80.9448 38.9622 92.1071 -13.3540 30.6553
183 6.2623 57.4433 1.8478 10.0770 18.4512 2.4906 50.0389 -49.1335 51.5903
184 70.9820 44.7827 65.6594 28.5141 21.7622 25.8282 53.7738 32.3684 -15.4919
185 73.3998 47.5137 27.4039 26.4976 22.1663 5.7257 54.2031 22.4729 38.8563
186 49.0975 25.0870 0.0000 9.9344 7.4081 0.6984 32.7184 24.4072 43.2297
187 57.3037 44.9553 45.0346 18.9439 17.2650 12.4132 48.5922 12.2557 4.9999
188 21.3331 24.8121 18.3407 3.5054 4.0107 2.1829 23.7067 -5.5122 8.8678
189 32.1057 38.3570 84.7904 16.5045 13.2785 43.9263 43.1800 22.5303 -60.0533
190 25.5226 34.5024 10.3111 5.6297 7.4545 1.6017 32.8199 -16.4587 30.4237
191 2.5667 83.8040 3.5262 22.6916 42.2448 5.7219 71.0394 -66.4726 67.9028
192 73.2878 23.8176 34.5265 22.2671 13.3359 6.8538 43.2650 51.3074 14.9201
193 74.4951 2.0112 87.0144 29.2707 14.1442 46.2463 44.4390 75.5258 -60.6873
194 78.3108 36.8073 22.2683 26.9558 18.8225 3.9309 50.4789 40.3886 42.1184
195 64.4441 52.5148 41.3715 24.1130 23.0142 11.2738 55.0869 8.6036 19.5571
196 0.0000 2.9141 42.6533 1.9340 0.9478 9.2296 8.5484 30.0385 -54.0364
197 5.7939 22.6183 59.4319 5.7942 4.4795 19.8119 25.1972 18.2696 -53.2741
198 97.7356 87.8270 4.2121 61.8535 66.3890 7.6507 85.1945 -4.9625 83.9535
199 36.0426 47.3216 48.8847 13.0280 15.1794 14.5360 45.8790 -10.1509 -5.4252
200 53.0401 25.5628 17.0941 11.7570 8.4186 2.2491 34.8398 28.8013 27.4663
201 22.7445 16.7145 36.4253 4.0777 3.0965 7.3087 20.4264 17.1907 -26.3457
202 31.5749 0.0000 22.0480 3.3387 1.6644 2.3502 13.6172 35.3078 -10.0129
203 70.9280 29.8915 54.4258 23.7309 15.1272 17.0087 45.8079 46.9267 -11.5751
204 44.6765 18.3356 59.9152 11.6881 6.9248 19.9199 31.6351 42.1294 -42.3996
205 25.9282 26.0370 0.0000 3.7950 4.3722 0.5181 24.8656 -6.0672 33.0933
206 100.0000 67.7669 29.3754 54.9074 47.0999 9.1969 74.2536 25.4094 59.3622
207 62.9278 47.1099 55.0944 23.4301 20.3228 18.3723 52.2003 18.0440 -3.6301
208 64.0520 28.5538 81.8292 24.7569 14.8841 40.4189 45.4751 52.8136 -51.6619
209 37.5035 33.4864 29.1776 8.5195 8.5662 5.0764 35.1352 2.2874 9.2126
210 28.5660 61.0349 72.2176 19.6348 24.5732 32.6420 56.6572 -19.0153 -21.5430
211 60.7967 92.8698 44.6077 43.3002 60.7248 17.9707 82.2306 -40.5172 49.0360
212 13.4496 34.8121 38.4940 5.9668 7.5815 9.0563 33.0957 -13.8509 -11.1064
213 62.3799 40.7154 77.1277 25.1802 18.5038 35.9204 50.1016 34.6728 -37.6048
214 87.3089 22.7185 33.9601 31.5430 18.0024 6.8021 49.4990 62.1953 25.8884
215 22.7246 44.0755 65.3534 12.1476 13.4130 25.3057 43.3790 -5.2897 -32.4922
216 79.7503 20.4469 59.9987 28.3185 15.7732 20.4988 46.6756 62.2011 -17.6626
217 83.1624 36.4160 40.4018 31.5672 20.9215 10.0410 52.8634 47.7812 19.6240
218 37.5404 92.8229 92.6166 43.3887 59.8633 58.8528 81.7638 -38.2446 -10.1306
219 99.4626 31.0511 52.5873 44.2416 26.2353 16.6461 58.2597 65.5605 10.7390
220 29.4286 40.3949 69.2333 13.0051 12.4819 28.4127 41.9720 6.5389 -40.2260
221 36.1594 82.7673 100.0000 38.7444 48.8804 67.5076 75.3768 -24.9043 -29.5045
222 0.0000 90.0043 58.5412 29.9502 50.8014 23.8873 76.5585 -60.3404 27.2824
223 82.2005 83.2922 65.1840 51.8343 56.5605 28.9980 79.9318 -6.9462 24.2658
224 30.1080 49.5861 22.5316 10.6562 15.2325 4.3242 45.9510 -27.0848 31.9702
225 34.0519 20.7003 36.4393 6.3900 4.7489 7.5356 26.0069 21.2745 -17.6374
226 96.9744 53.4977 41.3796 46.8178 35.0907 12.0872 65.8192 40.3211 35.6409
227 65.8401 63.7673 58.7011 31.4184 32.4972 22.1310 63.7517 0.3068 8.5268
228 30.5429 26.6110 56.8989 8.4876 6.6051 18.0105 30.8905 20.3050 -39.5702
229 82.0462 43.1572 62.2334 34.8393 24.4986 23.1670 56.5836 43.2637 -5.8139
230 45.8461 59.4568 40.1266 19.0394 23.8254 10.9973 55.9126 -18.8099 21.8296
231 55.2676 74.6214 51.7656 30.8005 39.3348 18.7588 68.9931 -24.5559 24.4788
232 56.9325 17.5472 36.6531 13.4706 7.9681 7.7301 33.9164 44.2850 -4.7690
233 39.4673 36.1404 47.7439 11.1762 10.4483 13.3349 38.6353 8.2897 -14.7372
234 88.1866 88.8617 41.1645 57.0934 64.6189 16.3347 84.2870 -12.4094 56.3496
235 45.9301 57.4403 77.9760 23.8373 24.6999 38.0372 56.7818 0.0927 -29.0079
236 63.4509 80.6026 40.2679 36.2455 46.7453 13.8890 74.0266 -27.1933 44.7936
237 78.9155 86.8892 81.1452 55.4353 61.5072 45.4788 82.6507 -9.4609 6.1121
238 51.2904 56.9955 1.4580 18.4058 22.4593 2.7172 54.5110 -16.0350 57.4668
239 42.7241 32.0541 30.8850 9.8168 8.8286 5.5919 35.6521 10.8339 7.5168
240 40.1521 67.1552 72.9844 25.1021 30.9819 34.3041 62.4923 -19.0665 -13.9331
241 50.8589 81.3438 49.2648 32.4930 45.2407 17.9941 73.0501 -35.8940 33.1553
242 40.2726 79.1386 82.3755 33.2942 43.4551 45.3903 71.8627 -27.9394 -12.3813
243 66.0043 60.5866 32.6175 27.2111 28.7703 8.4951 60.5784 -2.1150 38.2976
244 63.3383 53.7819 49.6071 25.0712 24.0890 15.7260 56.1767 8.0249 9.3499
245 81.6240 34.2190 8.0792 28.1260 18.7020 2.0478 50.3368 45.6654 56.0378
246 82.6694 25.9764 17.8660 27.8130 16.6331 2.8124 47.7944 55.3891 45.1465
247 78.5303 40.2765 79.2893 34.8203 23.2030 38.5815 55.2809 48.8139 -32.3293
248 59.6799 47.5256 73.2909 24.7518 20.7628 32.7149 52.6890 21.6975 -28.4940
249 29.3479 0.5611 69.1917 8.2014 3.7151 27.1494 22.7065 53.0526 -71.3335
250 28.0953 9.0870 11.9275 2.6379 1.8280 0.9721 14.5573 18.9473 7.1779
251 69.8220 9.9457 32.4583 18.7576 9.9763 5.8533 37.7999 57.8188 9.9687
252 43.8908 1.7414 23.6773 6.9314 3.4896 2.9257 21.9067 44.5079 -0.3467
253 66.6799 52.6710 1.8948 23.6367 23.0449 2.5448 55.1186 6.3793 59.9001
254 52.7720 5.3147 65.0978 14.2683 7.0916 23.7454 32.0144 57.5066 -49.2554
255 76.9462 54.7018 42.6375 32.5036 28.2166 12.2996 60.0840 20.0327 25.1385
256 96.2123 49.4398 1.0765 43.0917 31.4836 2.9236 62.9138 42.1293 70.3708
257 0.0000 25.3474 47.2376 4.3068 4.3391 13.2098 24.7623 1.7050 -38.3145
258 83.1617 65.0869 8.8008 38.6269 37.0974 4.5908 67.3500 9.3205 67.3580
259 6.4335 23.8979 73.8539 8.5610 5.8954 31.9168 29.1471 28.4591 -67.8787
260 81.7186 51.2225 95.5602 44.7130 31.9622 58.7112 63.3117 45.1497 -41.8012
261 37.5594 83.9714 55.2018 30.6825 46.3296 21.3683 73.7589 -45.5355 27.2798
262 66.7049 87.1140 81.2095 48.2886 57.9362 45.4651 80.7033 -19.7616 2.7711
263 38.8672 93.2927 40.3862 35.9086 57.3897 15.7264 80.3983 -55.7794 51.1103
264 28.9027 70.5350 68.9455 23.4268 32.3227 30.6761 63.6087 -31.1448 -6.5490
265 38.3103 6.2573 10.3988 4.7937 2.7496 0.8814 19.0120 32.9380 16.3203
266 32.0682 17.2730 26.9532 4.9721 3.6977 4.0476 22.6458 19.5284 -6.5796
267 52.6024 2.7138 24.0248 10.0096 5.0661 3.0242 26.9222 49.9812 7.5713
268 64.4722 13.1025 0.0000 14.8426 8.2693 0.6110 34.5376 50.1326 48.0168
269 0.0000 30.0783 39.5235 4.2862 5.4527 9.4084 27.9874 -12.4798 -21.1392
270 78.9659 1.6781 23.9526 23.3302 11.8576 3.4282 40.9889 65.9246 28.9893
271 76.9203 46.0425 42.6394 29.7976 23.1780 11.6204 55.2552 30.9086 18.8020
272 84.4624 55.8317 2.6926 36.0477 30.7715 3.1683 62.3143 22.6329 67.5536
273 0.0000 46.7433 48.0049 9.0354 13.1405 14.4082 42.9742 -27.0935 -10.1040
274 79.3368 45.9337 12.7895 29.4111 23.1325 3.1570 55.2085 29.6417 55.3824
275 20.6608 23.8458 36.9151 4.5801 4.2843 7.7498 24.5899 6.1236 -20.9262
276 82.7418 47.4257 55.5108 35.6835 26.5763 18.7638 58.5801 37.5116 6.5146
277 38.4090 83.5975 64.0671 31.8290 46.4975 27.4881 73.8672 -41.8024 16.3030
278 45.2175 22.0605 75.7372 15.2097 8.9277 33.6040 35.8448 46.6896 -58.8547
279 41.2160 38.2472 26.2410 10.3207 10.9257 4.4338 39.4550 -1.6298 20.1436
280 75.2609 67.8852 68.5157 40.2243 39.1846 30.5914 68.8847 7.7179 2.6801
281 90.8457 22.1026 75.3128 39.1759 21.3803 34.2157 53.3632 71.3469 -29.5447
282 40.0984 70.1602 85.5862 29.1985 34.7875 47.9602 65.5829 -15.8884 -26.2446
283 97.1164 28.9223 30.5216 39.6376 23.3543 6.2546 55.4354 63.8638 38.5248
284 45.0292 56.4917 53.6900 18.9735 22.1190 17.7850 54.1531 -11.5617 1.0422
285 30.2667 5.0469 33.7938 4.2739 2.2987 6.0772 16.9828 34.7836 -26.9650
286 11.4039 34.6905 33.4934 5.2947 7.1919 6.7542 32.2399 -17.8846 -3.6640
287 71.0461 73.9002 89.9922 44.7841 45.1050 53.9127 72.9610 3.7630 -20.1613
288 97.4239 7.4784 60.0874 40.4373 20.6057 20.8200 52.5152 78.9349 -8.2475
289 34.1911 22.6057 15.1403 5.3157 4.6258 1.7503 25.6410 10.8091 16.4331
290 59.1353 58.1985 80.8243 29.6919 27.9863 41.4727 59.8764 10.5890 -28.1904
291 97.6448 95.3170 34.6577 68.1275 76.0177 14.7739 89.8676 -10.9921 69.8086
292 24.1628 29.8355 53.4700 7.6002 6.9005 16.2921 31.5792 9.2979 -34.4243
293 49.2096 32.2546 51.9333 14.1716 10.8910 15.6856 39.3964 25.0891 -19.4832
294 76.8760 91.2953 72.9416 55.7217 65.8045 37.6402 84.8966 -18.4269 20.0051
295 18.5220 50.2268 95.8949 20.0089 19.1067 57.8821 50.8118 8.0367 -62.5083
296 50.4947 47.6977 93.1993 26.1852 21.2051 54.3824 53.1733 25.6294 -54.7806
297 58.6408 16.4860 60.1048 16.5776 9.2272 20.1891 36.4180 52.0862 -34.7117
298 90.5570 60.9951 62.4193 47.2186 38.7540 24.9965 68.5727 29.5709 11.4967
299 67.8844 1.9428 40.4705 17.7472 8.8998 9.4917 35.7906 61.1809 -7.9708
300 38.5211 98.8861 2.3021 39.0369 65.5012 8.6745 84.7414 -64.3425 79.3026
301 59.6896 67.1382 67.8812 31.1184 34.2106 29.8228 65.1294 -6.7301 -2.5812
302 47.3788 5.6927 15.7120 7.9432 4.2352 1.5476 24.4343 43.2730 16.5772
303 79.8622 94.6419 19.5795 54.7389 69.3740 10.8045 86.6889 -28.6156 75.4928
304 31.0900 34.6580 31.4344 7.3764 8.2705 5.8485 34.5400 -5.5887 4.3709
305 30.6397 45.9847 40.9417 10.8048 13.6208 10.4053 43.6841 -16.2037 2.6132
306 33.1205 80.4776 69.5199 29.6833 42.8240 32.0302 71.4354 -39.2668 4.8597
307 75.5969 49.2623 81.5440 36.1124 27.0937 41.9109 59.0610 36.8712 -30.1544
308 0.0000 36.7449 65.1731 8.7964 9.4225 25.1336 36.7854 -2.4385 -43.5542
309 47.9607 78.4433 28.4701 28.0999 40.8403 9.0470 70.0639 -39.4681 52.6645
310 22.4138 33.3108 21.7513 5.2299 6.8347 3.0905 31.4277 -15.1622 14.8579
311 83.5035 45.7276 37.7839 33.8116 25.1174 9.4466 57.1896 37.1146 29.0784
312 74.4735 74.0168 30.9638 37.9584 42.7091 9.7504 71.3571 -10.0899 52.4749
313 33.0153 0.6480 95.8784 14.7824 6.5660 56.3941 30.7977 65.8900 -95.4793
314 62.9079 30.5310 14.7143 16.6819 12.0354 2.2618 41.2723 31.7447 38.4437
