assets/charts/knut/rgb/i1pro75max/i1_w75max_a4_3348p_4pages_portrait_w7_5mm_maximised_no_clip_border/chart.ti1
CTI1   

DESCRIPTOR "Argyll Calibration Target chart information 1"
ORIGINATOR "ChromIQ"
APPROX_WHITE_POINT "95.050000 100.000000 108.900000"
COLOR_REP "iRGB"
WHITE_COLOR_PATCHES "2"
BLACK_COLOR_PATCHES "2"
CREATED "Tue Sep 22 17:22:59 2026"

NUMBER_OF_FIELDS 7
BEGIN_DATA_FORMAT
SAMPLE_ID RGB_R RGB_G RGB_B XYZ_X XYZ_Y XYZ_Z
END_DATA_FORMAT

NUMBER_OF_SETS 3348
BEGIN_DATA
1 0.0000 0.0000 0.0000 0.9505 1.0000 1.0890
2 0.0000 0.0000 7.6923 1.0721 1.0487 1.7295
3 0.0000 0.0000 15.3846 1.3168 1.1465 3.0181
4 0.0000 0.0000 23.0769 1.7281 1.3110 5.1837
5 0.0000 0.0000 30.7692 2.3283 1.5511 8.3446
6 0.0000 0.0000 38.4615 3.1367 1.8745 12.6011
7 0.0000 0.0000 46.1538 4.1697 2.2877 18.0413
8 0.0000 0.0000 53.8462 5.4426 2.7968 24.7440
9 0.0000 0.0000 61.5385 6.9689 3.4074 32.7817
10 0.0000 0.0000 69.2308 8.7615 4.1244 42.2210
11 0.0000 0.0000 76.9231 10.8320 4.9526 53.1244
12 0.0000 0.0000 84.6154 13.1917 5.8965 65.5503
13 0.0000 0.0000 92.3077 15.8510 6.9602 79.5541
14 0.0000 0.0000 100.0000 18.8200 8.1478 95.1885
15 0.0000 7.6923 0.0000 1.1915 1.4820 1.1693
16 0.0000 7.6923 7.6923 1.3131 1.5306 1.8099
17 0.0000 7.6923 15.3846 1.5578 1.6285 3.0985
18 0.0000 7.6923 23.0769 1.9691 1.7930 5.2640
19 0.0000 7.6923 30.7692 2.5693 2.0331 8.4249
20 0.0000 7.6923 38.4615 3.3776 2.3564 12.6815
21 0.0000 7.6923 46.1538 4.4107 2.7697 18.1216
22 0.0000 7.6923 53.8462 5.6836 3.2788 24.8244
23 0.0000 7.6923 61.5385 7.2099 3.8894 32.8620
24 0.0000 7.6923 69.2308 9.0025 4.6064 42.3014
25 0.0000 7.6923 76.9231 11.0730 5.4346 53.2047
26 0.0000 7.6923 84.6154 13.4327 6.3785 65.6306
27 0.0000 7.6923 92.3077 16.0920 7.4422 79.6344
28 0.0000 7.6923 100.0000 19.0610 8.6298 95.2688
29 0.0000 15.3846 0.0000 1.6763 2.4516 1.3309
30 0.0000 15.3846 7.6923 1.7979 2.5002 1.9715
31 0.0000 15.3846 15.3846 2.0426 2.5981 3.2601
32 0.0000 15.3846 23.0769 2.4539 2.7626 5.4256
33 0.0000 15.3846 30.7692 3.0541 3.0027 8.5865
34 0.0000 15.3846 38.4615 3.8624 3.3260 12.8431
35 0.0000 15.3846 46.1538 4.8955 3.7393 18.2832
36 0.0000 15.3846 53.8462 6.1684 4.2484 24.9860
37 0.0000 15.3846 61.5385 7.6947 4.8590 33.0236
38 0.0000 15.3846 69.2308 9.4873 5.5760 42.4630
39 0.0000 15.3846 76.9231 11.5578 6.4042 53.3663
40 0.0000 15.3846 84.6154 13.9175 7.3481 65.7922
41 0.0000 15.3846 92.3077 16.5768 8.4118 79.7960
42 0.0000 15.3846 100.0000 19.5458 9.5994 95.4304
43 0.0000 23.0769 0.0000 2.4910 4.0810 1.6025
44 0.0000 23.0769 7.6923 2.6126 4.1297 2.2431
45 0.0000 23.0769 15.3846 2.8574 4.2276 3.5316
46 0.0000 23.0769 23.0769 3.2686 4.3920 5.6972
47 0.0000 23.0769 30.7692 3.8688 4.6322 8.8581
48 0.0000 23.0769 38.4615 4.6772 4.9555 13.1146
49 0.0000 23.0769 46.1538 5.7102 5.3687 18.5548
50 0.0000 23.0769 53.8462 6.9831 5.8779 25.2575
51 0.0000 23.0769 61.5385 8.5095 6.4884 33.2952
52 0.0000 23.0769 69.2308 10.3020 7.2054 42.7345
53 0.0000 23.0769 76.9231 12.3725 8.0336 53.6379
54 0.0000 23.0769 84.6154 14.7322 8.9775 66.0638
55 0.0000 23.0769 92.3077 17.3915 10.0412 80.0676
56 0.0000 23.0769 100.0000 20.3605 11.2288 95.7020
57 0.0000 30.7692 0.0000 3.6802 6.4594 1.9989
58 0.0000 30.7692 7.6923 3.8019 6.5081 2.6395
59 0.0000 30.7692 15.3846 4.0466 6.6060 3.9281
60 0.0000 30.7692 23.0769 4.4578 6.7705 6.0936
61 0.0000 30.7692 30.7692 5.0581 7.0106 9.2545
62 0.0000 30.7692 38.4615 5.8664 7.3339 13.5111
63 0.0000 30.7692 46.1538 6.8995 7.7471 18.9512
64 0.0000 30.7692 53.8462 8.1723 8.2563 25.6539
65 0.0000 30.7692 61.5385 9.6987 8.8668 33.6916
66 0.0000 30.7692 69.2308 11.4912 9.5838 43.1309
67 0.0000 30.7692 76.9231 13.5617 10.4121 54.0343
68 0.0000 30.7692 84.6154 15.9214 11.3559 66.4602
69 0.0000 30.7692 92.3077 18.5808 12.4197 80.4640
70 0.0000 30.7692 100.0000 21.5497 13.6072 96.0984
71 0.0000 38.4615 0.0000 5.2816 9.6623 2.5327
72 0.0000 38.4615 7.6923 5.4033 9.7109 3.1733
73 0.0000 38.4615 15.3846 5.6480 9.8088 4.4619
74 0.0000 38.4615 23.0769 6.0592 9.9733 6.6274
75 0.0000 38.4615 30.7692 6.6595 10.2134 9.7883
76 0.0000 38.4615 38.4615 7.4678 10.5367 14.0449
77 0.0000 38.4615 46.1538 8.5009 10.9500 19.4850
78 0.0000 38.4615 53.8462 9.7737 11.4591 26.1877
79 0.0000 38.4615 61.5385 11.3001 12.0696 34.2254
80 0.0000 38.4615 69.2308 13.0926 12.7867 43.6647
81 0.0000 38.4615 76.9231 15.1632 13.6149 54.5681
82 0.0000 38.4615 84.6154 17.5228 14.5587 66.9940
83 0.0000 38.4615 92.3077 20.1822 15.6225 80.9978
84 0.0000 38.4615 100.0000 23.1511 16.8101 96.6322
85 0.0000 46.1538 0.0000 7.3283 13.7557 3.2149
86 0.0000 46.1538 7.6923 7.4500 13.8043 3.8555
87 0.0000 46.1538 15.3846 7.6947 13.9022 5.1441
88 0.0000 46.1538 23.0769 8.1059 14.0667 7.3096
89 0.0000 46.1538 30.7692 8.7062 14.3068 10.4705
90 0.0000 46.1538 38.4615 9.5145 14.6301 14.7271
91 0.0000 46.1538 46.1538 10.5476 15.0434 20.1672
92 0.0000 46.1538 53.8462 11.8204 15.5525 26.8700
93 0.0000 46.1538 61.5385 13.3468 16.1630 34.9076
94 0.0000 46.1538 69.2308 15.1393 16.8801 44.3470
95 0.0000 46.1538 76.9231 17.2099 17.7083 55.2503
96 0.0000 46.1538 84.6154 19.5695 18.6521 67.6762
97 0.0000 46.1538 92.3077 22.2289 19.7159 81.6801
98 0.0000 46.1538 100.0000 25.1978 20.9035 97.3144
99 0.0000 53.8462 0.0000 9.8501 18.7991 4.0555
100 0.0000 53.8462 7.6923 9.9717 18.8478 4.6961
101 0.0000 53.8462 15.3846 10.2164 18.9457 5.9847
102 0.0000 53.8462 23.0769 10.6276 19.1102 8.1502
103 0.0000 53.8462 30.7692 11.2279 19.3503 11.3111
104 0.0000 53.8462 38.4615 12.0362 19.6736 15.5677
105 0.0000 53.8462 46.1538 13.0693 20.0868 21.0078
106 0.0000 53.8462 53.8462 14.3422 20.5960 27.7106
107 0.0000 53.8462 61.5385 15.8685 21.2065 35.7482
108 0.0000 53.8462 69.2308 17.6610 21.9235 45.1875
109 0.0000 53.8462 76.9231 19.7316 22.7517 56.0909
110 0.0000 53.8462 84.6154 22.0913 23.6956 68.5168
111 0.0000 53.8462 92.3077 24.7506 24.7594 82.5206
112 0.0000 53.8462 100.0000 27.7196 25.9469 98.1550
113 0.0000 61.5385 0.0000 12.8740 24.8470 5.0635
114 0.0000 61.5385 7.6923 12.9957 24.8957 5.7041
115 0.0000 61.5385 15.3846 13.2404 24.9936 6.9927
116 0.0000 61.5385 23.0769 13.6516 25.1581 9.1582
117 0.0000 61.5385 30.7692 14.2519 25.3982 12.3191
118 0.0000 61.5385 38.4615 15.0602 25.7215 16.5757
119 0.0000 61.5385 46.1538 16.0933 26.1347 22.0158
120 0.0000 61.5385 53.8462 17.3661 26.6439 28.7185
121 0.0000 61.5385 61.5385 18.8925 27.2544 36.7562
122 0.0000 61.5385 69.2308 20.6850 27.9714 46.1955
123 0.0000 61.5385 76.9231 22.7555 28.7996 57.0989
124 0.0000 61.5385 84.6154 25.1152 29.7435 69.5248
125 0.0000 61.5385 92.3077 27.7746 30.8073 83.5286
126 0.0000 61.5385 100.0000 30.7435 31.9948 99.1630
127 0.0000 69.2308 0.0000 16.4253 31.9496 6.2473
128 0.0000 69.2308 7.6923 16.5470 31.9983 6.8878
129 0.0000 69.2308 15.3846 16.7917 32.0962 8.1764
130 0.0000 69.2308 23.0769 17.2029 32.2607 10.3419
131 0.0000 69.2308 30.7692 17.8032 32.5008 13.5029
132 0.0000 69.2308 38.4615 18.6115 32.8241 17.7594
133 0.0000 69.2308 46.1538 19.6446 33.2373 23.1995
134 0.0000 69.2308 53.8462 20.9174 33.7465 29.9023
135 0.0000 69.2308 61.5385 22.4438 34.3570 37.9400
136 0.0000 69.2308 69.2308 24.2363 35.0740 47.3793
137 0.0000 69.2308 76.9231 26.3068 35.9022 58.2826
138 0.0000 69.2308 84.6154 28.6665 36.8461 70.7085
139 0.0000 69.2308 92.3077 31.3258 37.9098 84.7124
140 0.0000 69.2308 100.0000 34.2948 39.0974 100.3468
141 0.0000 76.9231 0.0000 20.5274 40.1538 7.6146
142 0.0000 76.9231 7.6923 20.6490 40.2025 8.2552
143 0.0000 76.9231 15.3846 20.8937 40.3003 9.5438
144 0.0000 76.9231 23.0769 21.3050 40.4648 11.7093
145 0.0000 76.9231 30.7692 21.9052 40.7049 14.8702
146 0.0000 76.9231 38.4615 22.7136 41.0283 19.1268
147 0.0000 76.9231 46.1538 23.7466 41.4415 24.5669
148 0.0000 76.9231 53.8462 25.0195 41.9506 31.2697
149 0.0000 76.9231 61.5385 26.5458 42.5612 39.3073
150 0.0000 76.9231 69.2308 28.3384 43.2782 48.7467
151 0.0000 76.9231 76.9231 30.4089 44.1064 59.6500
152 0.0000 76.9231 84.6154 32.7686 45.0503 72.0759
153 0.0000 76.9231 92.3077 35.4279 46.1140 86.0798
154 0.0000 76.9231 100.0000 38.3969 47.3016 101.7141
155 0.0000 84.6154 0.0000 25.2023 49.5036 9.1729
156 0.0000 84.6154 7.6923 25.3240 49.5523 9.8135
157 0.0000 84.6154 15.3846 25.5687 49.6502 11.1021
158 0.0000 84.6154 23.0769 25.9799 49.8147 13.2676
159 0.0000 84.6154 30.7692 26.5802 50.0548 16.4285
160 0.0000 84.6154 38.4615 27.3885 50.3781 20.6851
161 0.0000 84.6154 46.1538 28.4216 50.7913 26.1252
162 0.0000 84.6154 53.8462 29.6944 51.3005 32.8280
163 0.0000 84.6154 61.5385 31.2208 51.9110 40.8656
164 0.0000 84.6154 69.2308 33.0133 52.6280 50.3050
165 0.0000 84.6154 76.9231 35.0838 53.4562 61.2083
166 0.0000 84.6154 84.6154 37.4435 54.4001 73.6342
167 0.0000 84.6154 92.3077 40.1028 55.4638 87.6381
168 0.0000 84.6154 100.0000 43.0718 56.6514 103.2724
169 0.0000 92.3077 0.0000 30.4709 60.0408 10.9291
170 0.0000 92.3077 7.6923 30.5925 60.0894 11.5697
171 0.0000 92.3077 15.3846 30.8372 60.1873 12.8583
172 0.0000 92.3077 23.0769 31.2485 60.3518 15.0238
173 0.0000 92.3077 30.7692 31.8487 60.5919 18.1847
174 0.0000 92.3077 38.4615 32.6570 60.9152 22.4413
175 0.0000 92.3077 46.1538 33.6901 61.3285 27.8814
176 0.0000 92.3077 53.8462 34.9630 61.8376 34.5842
177 0.0000 92.3077 61.5385 36.4893 62.4481 42.6218
178 0.0000 92.3077 69.2308 38.2819 63.1652 52.0612
179 0.0000 92.3077 76.9231 40.3524 63.9934 62.9645
180 0.0000 92.3077 84.6154 42.7121 64.9373 75.3904
181 0.0000 92.3077 92.3077 45.3714 66.0010 89.3942
182 0.0000 92.3077 100.0000 48.3404 67.1886 105.0286
183 0.0000 100.0000 0.0000 36.3529 71.8048 12.8898
184 0.0000 100.0000 7.6923 36.4745 71.8535 13.5303
185 0.0000 100.0000 15.3846 36.7192 71.9513 14.8189
186 0.0000 100.0000 23.0769 37.1305 72.1158 16.9845
187 0.0000 100.0000 30.7692 37.7307 72.3559 20.1454
188 0.0000 100.0000 38.4615 38.5391 72.6793 24.4019
189 0.0000 100.0000 46.1538 39.5721 73.0925 29.8421
190 0.0000 100.0000 53.8462 40.8450 73.6016 36.5448
191 0.0000 100.0000 61.5385 42.3713 74.2122 44.5825
192 0.0000 100.0000 69.2308 44.1639 74.9292 54.0218
193 0.0000 100.0000 76.9231 46.2344 75.7574 64.9252
194 0.0000 100.0000 84.6154 48.5941 76.7013 77.3511
195 0.0000 100.0000 92.3077 51.2534 77.7650 91.3549
196 0.0000 100.0000 100.0000 54.2224 78.9526 106.9893
197 7.6923 0.0000 0.0000 1.2284 1.1433 1.1020
198 7.6923 0.0000 7.6923 1.3501 1.1919 1.7426
199 7.6923 0.0000 15.3846 1.5948 1.2898 3.0312
200 7.6923 0.0000 23.0769 2.0060 1.4543 5.1967
201 7.6923 0.0000 30.7692 2.6063 1.6944 8.3576
202 7.6923 0.0000 38.4615 3.4146 2.0177 12.6142
203 7.6923 0.0000 46.1538 4.4477 2.4310 18.0543
204 7.6923 0.0000 53.8462 5.7205 2.9401 24.7570
205 7.6923 0.0000 61.5385 7.2469 3.5506 32.7947
206 7.6923 0.0000 69.2308 9.0394 4.2677 42.2340
207 7.6923 0.0000 76.9231 11.1099 5.0959 53.1374
208 7.6923 0.0000 84.6154 13.4696 6.0398 65.5633
209 7.6923 0.0000 92.3077 16.1289 7.1035 79.5671
210 7.6923 0.0000 100.0000 19.0979 8.2911 95.2015
211 7.6923 7.6923 0.0000 1.4694 1.6252 1.1823
212 7.6923 7.6923 7.6923 1.5910 1.6739 1.8229
213 7.6923 7.6923 15.3846 1.8358 1.7718 3.1115
214 7.6923 7.6923 23.0769 2.2470 1.9363 5.2770
215 7.6923 7.6923 30.7692 2.8472 2.1764 8.4379
216 7.6923 7.6923 38.4615 3.6556 2.4997 12.6945
217 7.6923 7.6923 46.1538 4.6886 2.9129 18.1346
218 7.6923 7.6923 53.8462 5.9615 3.4221 24.8374
219 7.6923 7.6923 61.5385 7.4879 4.0326 32.8750
220 7.6923 7.6923 69.2308 9.2804 4.7496 42.3144
221 7.6923 7.6923 76.9231 11.3509 5.5779 53.2177
222 7.6923 7.6923 84.6154 13.7106 6.5217 65.6436
223 7.6923 7.6923 92.3077 16.3699 7.5855 79.6475
224 7.6923 7.6923 100.0000 19.3389 8.7730 95.2818
225 7.6923 15.3846 0.0000 1.9542 2.5949 1.3439
226 7.6923 15.3846 7.6923 2.0758 2.6435 1.9845
227 7.6923 15.3846 15.3846 2.3206 2.7414 3.2731
228 7.6923 15.3846 23.0769 2.7318 2.9059 5.4386
229 7.6923 15.3846 30.7692 3.3320 3.1460 8.5995
230 7.6923 15.3846 38.4615 4.1404 3.4693 12.8561
231 7.6923 15.3846 46.1538 5.1734 3.8825 18.2962
232 7.6923 15.3846 53.8462 6.4463 4.3917 24.9990
233 7.6923 15.3846 61.5385 7.9727 5.0022 33.0366
234 7.6923 15.3846 69.2308 9.7652 5.7192 42.4760
235 7.6923 15.3846 76.9231 11.8357 6.5475 53.3793
236 7.6923 15.3846 84.6154 14.1954 7.4913 65.8052
237 7.6923 15.3846 92.3077 16.8547 8.5551 79.8091
238 7.6923 15.3846 100.0000 19.8237 9.7427 95.4434
239 7.6923 23.0769 0.0000 2.7689 4.2243 1.6155
240 7.6923 23.0769 7.6923 2.8906 4.2729 2.2561
241 7.6923 23.0769 15.3846 3.1353 4.3708 3.5447
242 7.6923 23.0769 23.0769 3.5465 4.5353 5.7102
243 7.6923 23.0769 30.7692 4.1468 4.7754 8.8711
244 7.6923 23.0769 38.4615 4.9551 5.0988 13.1277
245 7.6923 23.0769 46.1538 5.9882 5.5120 18.5678
246 7.6923 23.0769 53.8462 7.2610 6.0211 25.2705
247 7.6923 23.0769 61.5385 8.7874 6.6317 33.3082
248 7.6923 23.0769 69.2308 10.5799 7.3487 42.7475
249 7.6923 23.0769 76.9231 12.6504 8.1769 53.6509
250 7.6923 23.0769 84.6154 15.0101 9.1208 66.0768
251 7.6923 23.0769 92.3077 17.6695 10.1845 80.0806
252 7.6923 23.0769 100.0000 20.6384 11.3721 95.7150
253 7.6923 30.7692 0.0000 3.9581 6.6027 2.0119
254 7.6923 30.7692 7.6923 4.0798 6.6514 2.6525
255 7.6923 30.7692 15.3846 4.3245 6.7493 3.9411
256 7.6923 30.7692 23.0769 4.7357 6.9138 6.1066
257 7.6923 30.7692 30.7692 5.3360 7.1539 9.2675
258 7.6923 30.7692 38.4615 6.1443 7.4772 13.5241
259 7.6923 30.7692 46.1538 7.1774 7.8904 18.9642
260 7.6923 30.7692 53.8462 8.4502 8.3996 25.6669
261 7.6923 30.7692 61.5385 9.9766 9.0101 33.7046
262 7.6923 30.7692 69.2308 11.7691 9.7271 43.1439
263 7.6923 30.7692 76.9231 13.8397 10.5553 54.0473
264 7.6923 30.7692 84.6154 16.1993 11.4992 66.4732
265 7.6923 30.7692 92.3077 18.8587 12.5629 80.4770
266 7.6923 30.7692 100.0000 21.8276 13.7505 96.1114
267 7.6923 38.4615 0.0000 5.5596 9.8055 2.5457
268 7.6923 38.4615 7.6923 5.6812 9.8542 3.1863
269 7.6923 38.4615 15.3846 5.9259 9.9521 4.4749
270 7.6923 38.4615 23.0769 6.3371 10.1166 6.6404
271 7.6923 38.4615 30.7692 6.9374 10.3567 9.8013
272 7.6923 38.4615 38.4615 7.7457 10.6800 14.0579
273 7.6923 38.4615 46.1538 8.7788 11.0932 19.4980
274 7.6923 38.4615 53.8462 10.0516 11.6024 26.2008
275 7.6923 38.4615 61.5385 11.5780 12.2129 34.2384
276 7.6923 38.4615 69.2308 13.3705 12.9299 43.6777
277 7.6923 38.4615 76.9231 15.4411 13.7581 54.5811
278 7.6923 38.4615 84.6154 17.8008 14.7020 67.0070
279 7.6923 38.4615 92.3077 20.4601 15.7658 81.0108
280 7.6923 38.4615 100.0000 23.4291 16.9533 96.6452
281 7.6923 46.1538 0.0000 7.6063 13.8989 3.2280
282 7.6923 46.1538 7.6923 7.7279 13.9476 3.8685
283 7.6923 46.1538 15.3846 7.9726 14.0455 5.1571
284 7.6923 46.1538 23.0769 8.3838 14.2100 7.3226
285 7.6923 46.1538 30.7692 8.9841 14.4501 10.4836
286 7.6923 46.1538 38.4615 9.7924 14.7734 14.7401
287 7.6923 46.1538 46.1538 10.8255 15.1866 20.1802
288 7.6923 46.1538 53.8462 12.0983 15.6958 26.8830
289 7.6923 46.1538 61.5385 13.6247 16.3063 34.9206
290 7.6923 46.1538 69.2308 15.4172 17.0233 44.3600
291 7.6923 46.1538 76.9231 17.4878 17.8515 55.2633
292 7.6923 46.1538 84.6154 19.8475 18.7954 67.6892
293 7.6923 46.1538 92.3077 22.5068 19.8592 81.6931
294 7.6923 46.1538 100.0000 25.4758 21.0467 97.3275
295 7.6923 53.8462 0.0000 10.1280 18.9424 4.0685
296 7.6923 53.8462 7.6923 10.2496 18.9911 4.7091
297 7.6923 53.8462 15.3846 10.4943 19.0889 5.9977
298 7.6923 53.8462 23.0769 10.9056 19.2534 8.1632
299 7.6923 53.8462 30.7692 11.5058 19.4935 11.3241
300 7.6923 53.8462 38.4615 12.3141 19.8169 15.5807
301 7.6923 53.8462 46.1538 13.3472 20.2301 21.0208
302 7.6923 53.8462 53.8462 14.6201 20.7392 27.7236
303 7.6923 53.8462 61.5385 16.1464 21.3498 35.7612
304 7.6923 53.8462 69.2308 17.9390 22.0668 45.2006
305 7.6923 53.8462 76.9231 20.0095 22.8950 56.1039
306 7.6923 53.8462 84.6154 22.3692 23.8389 68.5298
307 7.6923 53.8462 92.3077 25.0285 24.9026 82.5336
308 7.6923 53.8462 100.0000 27.9975 26.0902 98.1680
309 7.6923 61.5385 0.0000 13.1519 24.9903 5.0765
310 7.6923 61.5385 7.6923 13.2736 25.0390 5.7171
311 7.6923 61.5385 15.3846 13.5183 25.1369 7.0057
312 7.6923 61.5385 23.0769 13.9295 25.3013 9.1712
313 7.6923 61.5385 30.7692 14.5298 25.5414 12.3321
314 7.6923 61.5385 38.4615 15.3381 25.8648 16.5887
315 7.6923 61.5385 46.1538 16.3712 26.2780 22.0288
316 7.6923 61.5385 53.8462 17.6440 26.7871 28.7315
317 7.6923 61.5385 61.5385 19.1704 27.3977 36.7692
318 7.6923 61.5385 69.2308 20.9629 28.1147 46.2085
319 7.6923 61.5385 76.9231 23.0335 28.9429 57.1119
320 7.6923 61.5385 84.6154 25.3931 29.8868 69.5378
321 7.6923 61.5385 92.3077 28.0525 30.9505 83.5416
322 7.6923 61.5385 100.0000 31.0214 32.1381 99.1760
323 7.6923 69.2308 0.0000 16.7032 32.0929 6.2603
324 7.6923 69.2308 7.6923 16.8249 32.1416 6.9008
325 7.6923 69.2308 15.3846 17.0696 32.2394 8.1894
326 7.6923 69.2308 23.0769 17.4808 32.4039 10.3549
327 7.6923 69.2308 30.7692 18.0811 32.6440 13.5159
328 7.6923 69.2308 38.4615 18.8894 32.9674 17.7724
329 7.6923 69.2308 46.1538 19.9225 33.3806 23.2125
330 7.6923 69.2308 53.8462 21.1953 33.8897 29.9153
331 7.6923 69.2308 61.5385 22.7217 34.5003 37.9530
332 7.6923 69.2308 69.2308 24.5142 35.2173 47.3923
333 7.6923 69.2308 76.9231 26.5848 36.0455 58.2956
334 7.6923 69.2308 84.6154 28.9444 36.9894 70.7216
335 7.6923 69.2308 92.3077 31.6038 38.0531 84.7254
336 7.6923 69.2308 100.0000 34.5727 39.2407 100.3598
337 7.6923 76.9231 0.0000 20.8053 40.2971 7.6276
338 7.6923 76.9231 7.6923 20.9270 40.3457 8.2682
339 7.6923 76.9231 15.3846 21.1717 40.4436 9.5568
340 7.6923 76.9231 23.0769 21.5829 40.6081 11.7223
341 7.6923 76.9231 30.7692 22.1832 40.8482 14.8832
342 7.6923 76.9231 38.4615 22.9915 41.1715 19.1398
343 7.6923 76.9231 46.1538 24.0246 41.5848 24.5799
344 7.6923 76.9231 53.8462 25.2974 42.0939 31.2827
345 7.6923 76.9231 61.5385 26.8238 42.7045 39.3203
346 7.6923 76.9231 69.2308 28.6163 43.4215 48.7597
347 7.6923 76.9231 76.9231 30.6868 44.2497 59.6630
348 7.6923 76.9231 84.6154 33.0465 45.1936 72.0889
349 7.6923 76.9231 92.3077 35.7059 46.2573 86.0928
350 7.6923 76.9231 100.0000 38.6748 47.4449 101.7271
351 7.6923 84.6154 0.0000 25.4802 49.6469 9.1859
352 7.6923 84.6154 7.6923 25.6019 49.6956 9.8265
353 7.6923 84.6154 15.3846 25.8466 49.7934 11.1151
354 7.6923 84.6154 23.0769 26.2578 49.9579 13.2806
355 7.6923 84.6154 30.7692 26.8581 50.1980 16.4415
356 7.6923 84.6154 38.4615 27.6664 50.5214 20.6981
357 7.6923 84.6154 46.1538 28.6995 50.9346 26.1382
358 7.6923 84.6154 53.8462 29.9723 51.4437 32.8410
359 7.6923 84.6154 61.5385 31.4987 52.0543 40.8786
360 7.6923 84.6154 69.2308 33.2912 52.7713 50.3180
361 7.6923 84.6154 76.9231 35.3618 53.5995 61.2213
362 7.6923 84.6154 84.6154 37.7214 54.5434 73.6472
363 7.6923 84.6154 92.3077 40.3808 55.6071 87.6511
364 7.6923 84.6154 100.0000 43.3497 56.7947 103.2854
365 7.6923 92.3077 0.0000 30.7488 60.1840 10.9421
366 7.6923 92.3077 7.6923 30.8704 60.2327 11.5827
367 7.6923 92.3077 15.3846 31.1151 60.3306 12.8713
368 7.6923 92.3077 23.0769 31.5264 60.4951 15.0368
369 7.6923 92.3077 30.7692 32.1266 60.7352 18.1977
370 7.6923 92.3077 38.4615 32.9350 61.0585 22.4543
371 7.6923 92.3077 46.1538 33.9680 61.4717 27.8944
372 7.6923 92.3077 53.8462 35.2409 61.9809 34.5972
373 7.6923 92.3077 61.5385 36.7672 62.5914 42.6348
374 7.6923 92.3077 69.2308 38.5598 63.3084 52.0742
375 7.6923 92.3077 76.9231 40.6303 64.1367 62.9775
376 7.6923 92.3077 84.6154 42.9900 65.0805 75.4034
377 7.6923 92.3077 92.3077 45.6493 66.1443 89.4073
378 7.6923 92.3077 100.0000 48.6183 67.3318 105.0416
379 7.6923 100.0000 0.0000 36.6308 71.9481 12.9028
380 7.6923 100.0000 7.6923 36.7525 71.9967 13.5434
381 7.6923 100.0000 15.3846 36.9972 72.0946 14.8320
382 7.6923 100.0000 23.0769 37.4084 72.2591 16.9975
383 7.6923 100.0000 30.7692 38.0087 72.4992 20.1584
384 7.6923 100.0000 38.4615 38.8170 72.8225 24.4150
385 7.6923 100.0000 46.1538 39.8501 73.2358 29.8551
386 7.6923 100.0000 53.8462 41.1229 73.7449 36.5578
387 7.6923 100.0000 61.5385 42.6493 74.3554 44.5955
388 7.6923 100.0000 69.2308 44.4418 75.0725 54.0348
389 7.6923 100.0000 76.9231 46.5123 75.9007 64.9382
390 7.6923 100.0000 84.6154 48.8720 76.8446 77.3641
391 7.6923 100.0000 92.3077 51.5313 77.9083 91.3679
392 7.6923 100.0000 100.0000 54.5003 79.0959 107.0023
393 15.3846 0.0000 0.0000 1.7875 1.4315 1.1282
394 15.3846 0.0000 7.6923 1.9092 1.4802 1.7687
395 15.3846 0.0000 15.3846 2.1539 1.5780 3.0573
396 15.3846 0.0000 23.0769 2.5651 1.7425 5.2228
397 15.3846 0.0000 30.7692 3.1654 1.9826 8.3838
398 15.3846 0.0000 38.4615 3.9737 2.3060 12.6403
399 15.3846 0.0000 46.1538 5.0067 2.7192 18.0804
400 15.3846 0.0000 53.8462 6.2796 3.2283 24.7832
401 15.3846 0.0000 61.5385 7.8060 3.8389 32.8209
402 15.3846 0.0000 69.2308 9.5985 4.5559 42.2602
403 15.3846 0.0000 76.9231 11.6690 5.3841 53.1635
404 15.3846 0.0000 84.6154 14.0287 6.3280 65.5894
405 15.3846 0.0000 92.3077 16.6880 7.3917 79.5933
406 15.3846 0.0000 100.0000 19.6570 8.5793 95.2277
407 15.3846 7.6923 0.0000 2.0285 1.9135 1.2085
408 15.3846 7.6923 7.6923 2.1501 1.9621 1.8490
409 15.3846 7.6923 15.3846 2.3948 2.0600 3.1376
410 15.3846 7.6923 23.0769 2.8061 2.2245 5.3032
411 15.3846 7.6923 30.7692 3.4063 2.4646 8.4641
412 15.3846 7.6923 38.4615 4.2147 2.7879 12.7206
413 15.3846 7.6923 46.1538 5.2477 3.2012 18.1608
414 15.3846 7.6923 53.8462 6.5206 3.7103 24.8635
415 15.3846 7.6923 61.5385 8.0469 4.3209 32.9012
416 15.3846 7.6923 69.2308 9.8395 5.0379 42.3405
417 15.3846 7.6923 76.9231 11.9100 5.8661 53.2439
418 15.3846 7.6923 84.6154 14.2697 6.8100 65.6698
419 15.3846 7.6923 92.3077 16.9290 7.8737 79.6736
420 15.3846 7.6923 100.0000 19.8980 9.0613 95.3080
421 15.3846 15.3846 0.0000 2.5133 2.8831 1.3701
422 15.3846 15.3846 7.6923 2.6349 2.9317 2.0106
423 15.3846 15.3846 15.3846 2.8796 3.0296 3.2992
424 15.3846 15.3846 23.0769 3.2909 3.1941 5.4648
425 15.3846 15.3846 30.7692 3.8911 3.4342 8.6257
426 15.3846 15.3846 38.4615 4.6995 3.7575 12.8822
427 15.3846 15.3846 46.1538 5.7325 4.1708 18.3224
428 15.3846 15.3846 53.8462 7.0054 4.6799 25.0251
429 15.3846 15.3846 61.5385 8.5317 5.2905 33.0628
430 15.3846 15.3846 69.2308 10.3243 6.0075 42.5021
431 15.3846 15.3846 76.9231 12.3948 6.8357 53.4055
432 15.3846 15.3846 84.6154 14.7545 7.7796 65.8314
433 15.3846 15.3846 92.3077 17.4138 8.8433 79.8352
434 15.3846 15.3846 100.0000 20.3828 10.0309 95.4696
435 15.3846 23.0769 0.0000 3.3280 4.5125 1.6417
436 15.3846 23.0769 7.6923 3.4497 4.5612 2.2822
437 15.3846 23.0769 15.3846 3.6944 4.6590 3.5708
438 15.3846 23.0769 23.0769 4.1056 4.8235 5.7363
439 15.3846 23.0769 30.7692 4.7059 5.0636 8.8973
440 15.3846 23.0769 38.4615 5.5142 5.3870 13.1538
441 15.3846 23.0769 46.1538 6.5473 5.8002 18.5939
442 15.3846 23.0769 53.8462 7.8201 6.3093 25.2967
443 15.3846 23.0769 61.5385 9.3465 6.9199 33.3344
444 15.3846 23.0769 69.2308 11.1390 7.6369 42.7737
445 15.3846 23.0769 76.9231 13.2095 8.4651 53.6770
446 15.3846 23.0769 84.6154 15.5692 9.4090 66.1029
447 15.3846 23.0769 92.3077 18.2285 10.4727 80.1068
448 15.3846 23.0769 100.0000 21.1975 11.6603 95.7412
449 15.3846 30.7692 0.0000 4.5172 6.8909 2.0381
450 15.3846 30.7692 7.6923 4.6389 6.9396 2.6786
451 15.3846 30.7692 15.3846 4.8836 7.0375 3.9672
452 15.3846 30.7692 23.0769 5.2948 7.2020 6.1327
453 15.3846 30.7692 30.7692 5.8951 7.4421 9.2937
454 15.3846 30.7692 38.4615 6.7034 7.7654 13.5502
455 15.3846 30.7692 46.1538 7.7365 8.1786 18.9903
456 15.3846 30.7692 53.8462 9.0093 8.6878 25.6931
457 15.3846 30.7692 61.5385 10.5357 9.2983 33.7308
458 15.3846 30.7692 69.2308 12.3282 10.0153 43.1701
459 15.3846 30.7692 76.9231 14.3988 10.8436 54.0734
460 15.3846 30.7692 84.6154 16.7584 11.7874 66.4994
461 15.3846 30.7692 92.3077 19.4178 12.8512 80.5032
462 15.3846 30.7692 100.0000 22.3867 14.0387 96.1376
463 15.3846 38.4615 0.0000 6.1186 10.0938 2.5719
464 15.3846 38.4615 7.6923 6.2403 10.1424 3.2124
465 15.3846 38.4615 15.3846 6.4850 10.2403 4.5010
466 15.3846 38.4615 23.0769 6.8962 10.4048 6.6665
467 15.3846 38.4615 30.7692 7.4965 10.6449 9.8275
468 15.3846 38.4615 38.4615 8.3048 10.9682 14.0840
469 15.3846 38.4615 46.1538 9.3379 11.3815 19.5242
470 15.3846 38.4615 53.8462 10.6107 11.8906 26.2269
471 15.3846 38.4615 61.5385 12.1371 12.5011 34.2646
472 15.3846 38.4615 69.2308 13.9296 13.2182 43.7039
473 15.3846 38.4615 76.9231 16.0002 14.0464 54.6072
474 15.3846 38.4615 84.6154 18.3598 14.9902 67.0332
475 15.3846 38.4615 92.3077 21.0192 16.0540 81.0370
