demo-projects/Demo-Report-Matrix/runs/run1/verifications/2026-07-10_100000/Demo-Report-Matrix-verify.ti3
CTI3   
KEYWORD "CHROMIQ_VERIFICATION"
CHROMIQ_VERIFICATION "true"

DESCRIPTOR "Argyll Calibration Target chart information 3"
ORIGINATOR "Argyll fakeread"
CREATED "Tue Aug 11 11:21:04 2026"
DEVICE_CLASS "DISPLAY"
COLOR_REP "iRGB_XYZ"

KEYWORD "CHROMIQ_MEASURED"
CHROMIQ_MEASURED "2026-07-10T10:00:00"
TARGET_INSTRUMENT "X-Rite ColorMunki"
NUMBER_OF_FIELDS 7
BEGIN_DATA_FORMAT
SAMPLE_ID RGB_R RGB_G RGB_B XYZ_X XYZ_Y XYZ_Z 
END_DATA_FORMAT

NUMBER_OF_SETS 105
BEGIN_DATA
1 100.0000 100.0000 100.0000 94.85323 99.89440 108.3550 
2 100.0000 100.0000 100.0000 94.82257 99.50046 108.6553 
3 100.0000 100.0000 100.0000 94.51276 99.77263 105.8160 
4 100.0000 100.0000 100.0000 94.95645 99.76757 108.7007 
5 0.00000 0.00000 0.00000 0.00148857 0.00297007 0.000505028 
6 0.00000 0.00000 0.00000 7.89299e-06 4.08305e-06 4.13606e-07 
7 0.00000 0.00000 0.00000 0.000148855 0.000297002 0.0000505020 
8 0.00000 0.00000 0.00000 0.00891074 0.00469045 0.000482643 
9 100.0000 100.0000 0.00000 76.00602 91.41343 14.09537 
10 0.00000 0.00000 100.0000 18.06451 7.332376 94.29370 
11 100.0000 0.00000 0.00000 40.67838 21.04662 2.132321 
12 0.00000 100.0000 100.0000 52.45431 75.90270 106.1089 
13 0.00000 100.0000 0.00000 34.97677 69.78706 11.86653 
14 100.0000 0.00000 100.0000 58.28601 28.13660 96.51332 
15 0.00000 38.69451 100.0000 22.61542 16.36518 95.98517 
16 0.00000 61.01825 0.00000 12.80245 25.54053 4.354178 
17 0.00000 0.00000 49.66734 3.806002 1.546084 19.86449 
18 100.0000 0.00000 49.59690 44.51912 22.58318 23.19514 
19 100.0000 51.96322 100.0000 67.38826 45.07028 99.40744 
20 100.0000 51.02120 0.00000 48.78904 36.43736 4.751136 
21 49.79587 0.00000 0.00000 9.006785 4.659224 0.471971 
22 100.0000 100.0000 50.20307 80.76651 94.19317 34.05672 
23 0.00000 100.0000 50.70625 39.51772 72.45588 33.01648 
24 49.48561 100.0000 100.0000 62.54902 81.71135 106.7518 
25 51.72588 100.0000 0.00000 44.94883 76.08652 12.61053 
26 50.05958 0.00000 100.0000 27.13434 12.03831 94.12210 
27 0.00000 47.79621 60.34591 13.33314 17.08160 33.76390 
28 100.0000 59.17416 43.63085 54.70524 44.32428 22.36270 
29 47.31399 48.98978 0.00000 15.43018 19.12497 2.971402 
30 52.09288 0.00000 45.52943 12.96944 6.349317 17.53390 
31 55.39583 47.66229 100.0000 36.67264 28.45849 97.65764 
32 49.20125 100.0000 50.84061 48.14198 77.27740 34.15844 
33 48.29114 47.33520 50.18713 20.08091 19.92883 24.88550 
34 0.00000 30.94905 0.00000 2.821848 5.630138 0.957341 
35 100.0000 21.19106 79.12555 53.73437 28.71773 60.32480 
36 33.94804 70.69041 100.0000 38.02900 42.07975 100.2364 
37 74.96124 25.82053 0.00000 23.78400 14.99201 1.768161 
38 0.00000 77.61705 71.72771 30.60157 46.74346 54.34179 
39 24.97790 0.00000 23.41364 3.371633 1.657432 4.206598 
40 76.31808 100.0000 28.35106 59.23671 82.22464 18.42824 
41 0.00000 77.00365 31.43299 22.12307 41.48850 15.65045 
42 75.41143 77.79628 100.0000 61.82061 60.07248 102.5866 
43 100.0000 23.29829 20.42453 43.15105 24.27340 5.533571 
44 100.0000 80.02238 22.27702 64.55232 66.79903 13.36330 
45 75.35445 100.0000 76.01304 67.29791 86.35282 64.84838 
46 75.31505 74.81469 0.00000 40.94540 47.41342 7.237420 
47 100.0000 79.49395 78.19811 73.18871 68.56136 63.76959 
48 26.41218 100.0000 75.99234 47.76367 76.42473 64.61259 
49 28.19308 28.22301 100.0000 23.07711 13.40007 95.38748 
50 76.81359 0.00000 23.55016 23.97664 12.30782 5.678503 
51 75.25932 0.00000 74.69026 32.18341 15.57016 51.76661 
52 29.89921 74.23536 0.00000 21.24573 38.11970 6.398622 
53 25.50439 100.0000 24.78846 38.81936 72.81749 16.84625 
54 77.21225 23.71451 100.0000 42.94413 22.39410 94.20665 
55 0.00000 21.07405 72.23364 10.30927 6.069585 48.01845 
56 26.28049 0.00000 71.93547 11.03679 4.727868 46.10447 
57 0.00000 19.89483 30.07019 2.370727 2.674649 7.116976 
58 26.28079 33.45692 23.52814 6.929679 9.069735 6.119415 
59 66.56754 70.38587 52.30860 38.12726 45.05627 29.52241 
60 75.09479 52.62129 65.01886 37.40490 31.51282 38.31722 
61 26.64973 49.33561 81.42125 21.52958 21.70563 60.58528 
62 45.91179 68.61670 63.70484 30.42026 38.05499 43.17539 
63 71.11740 50.49568 34.71935 29.97159 27.28216 13.03927 
64 54.43736 27.35888 62.61652 19.92302 12.76895 35.06368 
65 34.69612 74.79966 32.60823 25.68359 42.78379 14.72004 
66 74.85889 20.44437 50.18860 27.37215 15.47649 23.63869 
67 47.85106 20.11464 33.14580 11.36249 7.469346 9.922095 
68 27.20651 32.63652 48.27367 9.431085 9.130911 21.04461 
69 27.58870 24.69734 0.00000 4.199752 4.633428 0.697738 
70 0.00000 69.14068 100.0000 33.45114 38.06042 99.43421 
71 20.53684 59.80271 49.57175 17.16883 26.01650 23.55531 
72 0.00000 46.98630 28.11508 7.856322 13.84821 8.276442 
73 73.54294 75.32966 75.96305 51.00028 54.39930 58.69093 
74 63.36650 75.70063 29.24590 35.86013 46.52508 14.53290 
75 100.0000 50.88622 71.33775 57.34607 41.09985 50.63895 
76 23.55356 85.77019 53.26247 31.20190 52.24288 31.78429 
77 100.0000 29.41094 48.41781 46.74026 27.52427 21.80906 
78 72.19800 51.56213 8.666635 29.38772 27.79911 4.493137 
79 21.36322 53.66478 11.70929 10.51666 18.55224 3.718798 
80 12.24937 81.96187 10.32227 23.91353 46.84075 8.794081 
81 50.32410 91.80251 71.76533 46.83981 66.76743 55.28575 
82 48.45094 95.04594 23.03440 40.63497 68.04586 15.19936 
83 47.91670 54.94911 27.45694 20.49604 25.87031 10.07848 
84 3.781525 53.33689 81.63552 20.32960 21.52472 65.00894 
85 76.14076 97.71765 95.89858 74.46495 88.25891 98.18827 
86 74.72769 92.97172 51.48222 56.66643 75.98290 32.39002 
87 91.51768 77.11623 49.84954 55.77657 56.41051 28.39283 
88 55.99479 23.67844 88.16304 26.02504 14.33525 69.37269 
89 76.02370 54.61404 92.04182 48.56309 38.54377 86.34413 
90 52.92777 23.07148 11.01567 11.92758 8.266326 1.853765 
91 2.113597 97.73685 76.72762 44.86124 73.39804 64.49421 
92 77.95688 25.26049 74.12841 35.69571 19.83707 47.74593 
93 5.158119 95.50651 28.71841 32.50323 63.07756 16.18923 
94 4.213096 24.16053 51.05457 5.893919 5.202103 21.84384 
95 51.24030 47.80404 76.36550 27.49649 22.87129 57.26226 
96 97.40498 100.0000 75.01152 84.57728 94.36844 63.68493 
97 49.19419 5.350316 74.01136 18.56611 8.634813 50.13802 
98 91.32533 51.59153 22.20459 43.29657 34.40595 8.194531 
99 74.48121 24.34677 26.05584 24.85578 15.08352 7.220090 
100 94.19953 74.22767 93.65841 68.09381 58.78206 91.11146 
101 23.32810 75.54038 80.93191 32.90792 44.62116 67.86975 
102 56.07175 76.90790 5.268606 30.88351 45.01580 7.509931 
103 27.55381 8.135545 46.48987 5.793579 2.777234 17.99160 
104 27.88054 25.86915 72.11177 13.80185 8.892079 49.73522 
105 51.80627 80.99682 89.24284 46.81092 55.07870 83.94828 
END_DATA
