demo-projects/old/Demo-Report-Matrix-2026-08-11_112103/runs/run1/verifications/2026-08-10_090000/Demo-Report-Matrix-verify.ti3
CTI3   
KEYWORD "CHROMIQ_VERIFICATION"
CHROMIQ_VERIFICATION "true"

DESCRIPTOR "Argyll Calibration Target chart information 3"
ORIGINATOR "Argyll fakeread"
CREATED "Mon Aug 10 23:21:27 2026"
DEVICE_CLASS "DISPLAY"
COLOR_REP "iRGB_XYZ"

KEYWORD "CHROMIQ_MEASURED"
CHROMIQ_MEASURED "2026-08-10T09:00:00"
TARGET_INSTRUMENT "X-Rite ColorMunki"
NUMBER_OF_FIELDS 7
BEGIN_DATA_FORMAT
SAMPLE_ID RGB_R RGB_G RGB_B XYZ_X XYZ_Y XYZ_Z 
END_DATA_FORMAT

NUMBER_OF_SETS 105
BEGIN_DATA
1 100.0000 100.0000 100.0000 95.07290 100.0015 108.8516 
2 100.0000 100.0000 100.0000 95.05753 99.99527 108.7715 
3 100.0000 100.0000 100.0000 92.81740 97.74410 105.5556 
4 100.0000 100.0000 100.0000 94.41588 99.44442 108.7755 
5 0.00000 0.00000 0.00000 0.00000 0.00000 0.00000 
6 0.00000 0.00000 0.00000 0.00174639 0.00119126 0.000270454 
7 0.00000 0.00000 0.00000 0.0000212839 0.0000110247 1.10003e-06 
8 0.00000 0.00000 0.00000 0.0000203514 0.0000105417 1.05184e-06 
9 100.0000 100.0000 0.00000 76.32103 92.29156 14.19790 
10 0.00000 0.00000 100.0000 18.12337 7.388900 94.41205 
11 100.0000 0.00000 0.00000 41.17239 21.32665 2.128208 
12 0.00000 100.0000 100.0000 52.59067 76.06263 106.2801 
13 0.00000 100.0000 0.00000 34.57246 68.94740 11.70609 
14 100.0000 0.00000 100.0000 58.95579 28.57690 94.77036 
15 0.00000 38.69451 100.0000 22.63242 16.31723 96.13638 
16 0.00000 61.01825 0.00000 12.53018 24.98864 4.243137 
17 0.00000 0.00000 49.66734 3.908322 1.593856 20.33981 
18 100.0000 0.00000 49.59690 44.97942 22.87875 21.96088 
19 100.0000 51.96322 100.0000 66.97172 44.93794 99.52676 
20 100.0000 51.02120 0.00000 48.41605 36.90884 4.801441 
21 49.79587 0.00000 0.00000 9.179098 4.754624 0.474409 
22 100.0000 100.0000 50.20307 81.00912 94.26775 35.58668 
23 0.00000 100.0000 50.70625 39.54157 72.25261 33.66387 
24 49.48561 100.0000 100.0000 62.10332 82.42492 107.0506 
25 51.72588 100.0000 0.00000 45.14697 76.14390 12.58671 
26 50.05958 0.00000 100.0000 27.08061 12.02691 95.08469 
27 0.00000 47.79621 60.34591 12.98341 16.20345 34.14013 
28 100.0000 59.17416 43.63085 54.79019 44.51178 22.64604 
29 47.31399 48.98978 0.00000 16.45952 21.15235 3.305101 
30 52.09288 0.00000 45.52943 13.54653 6.673091 16.77846 
31 55.39583 47.66229 100.0000 35.63054 26.73551 97.06976 
32 49.20125 100.0000 50.84061 48.48559 77.42575 33.68805 
33 48.29114 47.33520 50.18713 19.20592 19.23586 25.15303 
34 0.00000 30.94905 0.00000 2.676192 5.336206 0.908886 
35 100.0000 21.19106 79.12555 53.33179 28.45919 59.13484 
36 33.94804 70.69041 100.0000 37.59532 40.62187 98.99046 
37 74.96124 25.82053 0.00000 24.44944 15.52447 1.822617 
38 0.00000 77.61705 71.72771 29.72145 45.40067 52.64109 
39 24.97790 0.00000 23.41364 2.538273 1.244763 3.405952 
40 76.31808 100.0000 28.35106 58.74531 82.57561 18.74878 
41 0.00000 77.00365 31.43299 21.50130 40.58877 14.31374 
42 75.41143 77.79628 100.0000 60.63099 59.19008 101.7972 
43 100.0000 23.29829 20.42453 41.73352 23.74352 5.288522 
44 100.0000 80.02238 22.27702 63.36796 64.64639 12.54349 
45 75.35445 100.0000 76.01304 67.78649 86.64789 64.35472 
46 75.31505 74.81469 0.00000 41.87072 50.35749 7.737007 
47 100.0000 79.49395 78.19811 72.88492 68.13185 63.89447 
48 26.41218 100.0000 75.99234 47.92903 76.50319 63.32255 
49 28.19308 28.22301 100.0000 22.79620 13.31255 92.74895 
50 76.81359 0.00000 23.55016 25.09960 12.91694 5.237276 
51 75.25932 0.00000 74.69026 32.57865 15.81025 51.49120 
52 29.89921 74.23536 0.00000 21.69673 39.16198 6.548145 
53 25.50439 100.0000 24.78846 38.34269 71.97124 16.90731 
54 77.21225 23.71451 100.0000 43.21579 22.75747 96.37976 
55 0.00000 21.07405 72.23364 10.22751 6.350010 46.58644 
56 26.28049 0.00000 71.93547 10.58166 4.565753 43.35702 
57 0.00000 19.89483 30.07019 2.465334 2.763716 7.444131 
58 26.28079 33.45692 23.52814 6.146593 8.092188 4.911517 
59 66.56754 70.38587 52.30860 37.81038 43.21739 29.75218 
60 75.09479 52.62129 65.01886 37.40659 31.57421 41.09374 
61 26.64973 49.33561 81.42125 20.83662 20.63521 61.33216 
62 45.91179 68.61670 63.70484 30.43712 38.56843 40.60086 
63 71.11740 50.49568 34.71935 28.81798 25.84080 13.23430 
64 54.43736 27.35888 62.61652 18.48806 11.84637 32.36572 
65 34.69612 74.79966 32.60823 24.87891 41.24235 14.63084 
66 74.85889 20.44437 50.18860 27.74272 15.34930 22.68560 
67 47.85106 20.11464 33.14580 10.53548 6.819786 9.873048 
68 27.20651 32.63652 48.27367 9.019111 8.602011 20.58124 
69 27.58870 24.69734 0.00000 4.231875 4.731101 0.714050 
70 0.00000 69.14068 100.0000 33.38803 38.16027 98.57087 
71 20.53684 59.80271 49.57175 16.17117 24.10148 23.60579 
72 0.00000 46.98630 28.11508 8.212757 14.67410 8.009592 
73 73.54294 75.32966 75.96305 51.58024 55.95967 58.75717 
74 63.36650 75.70063 29.24590 35.49186 47.00780 13.69538 
75 100.0000 50.88622 71.33775 58.02887 41.44579 49.27353 
76 23.55356 85.77019 53.26247 31.76129 53.42974 32.98571 
77 100.0000 29.41094 48.41781 45.90873 26.93549 22.60970 
78 72.19800 51.56213 8.666635 28.63224 27.30565 4.431620 
79 21.36322 53.66478 11.70929 10.05835 17.91321 3.653171 
80 12.24937 81.96187 10.32227 23.45222 46.05016 8.452039 
81 50.32410 91.80251 71.76533 48.42101 68.59233 57.49008 
82 48.45094 95.04594 23.03440 41.56989 68.06080 14.83293 
83 47.91670 54.94911 27.45694 19.43501 24.07185 9.678093 
84 3.781525 53.33689 81.63552 21.03729 22.99281 65.17479 
85 76.14076 97.71765 95.89858 72.72927 85.53138 99.48814 
86 74.72769 92.97172 51.48222 56.55051 74.33260 32.75827 
87 91.51768 77.11623 49.84954 58.78591 61.05110 29.83443 
88 55.99479 23.67844 88.16304 27.02242 14.61727 75.03928 
89 76.02370 54.61404 92.04182 47.72735 37.67318 81.47787 
90 52.92777 23.07148 11.01567 11.82299 7.980218 1.948577 
91 2.113597 97.73685 76.72762 45.40480 74.25505 65.35733 
92 77.95688 25.26049 74.12841 34.87423 19.93734 50.40945 
93 5.158119 95.50651 28.71841 33.14479 63.99443 17.36153 
94 4.213096 24.16053 51.05457 5.968714 4.814406 23.58549 
95 51.24030 47.80404 76.36550 27.96952 24.08686 56.66775 
96 97.40498 100.0000 75.01152 83.71501 95.04261 65.03834 
97 49.19419 5.350316 74.01136 18.99561 8.879053 50.46606 
98 91.32533 51.59153 22.20459 42.80684 34.54586 7.956743 
99 74.48121 24.34677 26.05584 24.76959 14.94961 6.552690 
100 94.19953 74.22767 93.65841 67.42900 60.45191 86.55597 
101 23.32810 75.54038 80.93191 33.07492 45.12406 65.46386 
102 56.07175 76.90790 5.268606 32.10064 46.77890 7.720738 
103 27.55381 8.135545 46.48987 6.109762 2.943070 18.22542 
104 27.88054 25.86915 72.11177 13.74975 8.970540 49.49884 
105 51.80627 80.99682 89.24284 47.33424 57.57669 82.80905 
END_DATA
