demo-projects/old/Demo-Report-Matrix-2026-08-10_232125/runs/run1/verifications/2026-06-01_100000/Demo-Report-Matrix-verify.ti3
CTI3   
KEYWORD "CHROMIQ_VERIFICATION"
CHROMIQ_VERIFICATION "true"

DESCRIPTOR "Argyll Calibration Target chart information 3"
ORIGINATOR "Argyll fakeread"
CREATED "Mon Aug 10 23:19:49 2026"
DEVICE_CLASS "DISPLAY"
COLOR_REP "iRGB_XYZ"

KEYWORD "CHROMIQ_MEASURED"
CHROMIQ_MEASURED "2026-06-01T10:00:00"
TARGET_INSTRUMENT "X-Rite ColorMunki"
NUMBER_OF_FIELDS 7
BEGIN_DATA_FORMAT
SAMPLE_ID RGB_R RGB_G RGB_B XYZ_X XYZ_Y XYZ_Z 
END_DATA_FORMAT

NUMBER_OF_SETS 105
BEGIN_DATA
1 100.0000 100.0000 100.0000 94.83442 99.89117 108.8951 
2 100.0000 100.0000 100.0000 94.27480 98.45865 108.6482 
3 100.0000 100.0000 100.0000 94.54837 99.74367 108.8817 
4 100.0000 100.0000 100.0000 95.04547 100.0000 108.9050 
5 0.00000 0.00000 0.00000 0.0253169 0.0506337 0.00843832 
6 0.00000 0.00000 0.00000 0.0188141 0.00824452 0.0666240 
7 0.00000 0.00000 0.00000 0.0130602 0.00673438 0.000611999 
8 0.00000 0.00000 0.00000 0.0700001 0.0429267 0.104005 
9 100.0000 100.0000 0.00000 76.99679 92.78095 13.85099 
10 0.00000 0.00000 100.0000 18.06366 7.249007 95.05903 
11 100.0000 0.00000 0.00000 41.23828 21.26423 1.932425 
12 0.00000 100.0000 100.0000 52.89578 76.91296 106.6688 
13 0.00000 100.0000 0.00000 35.80189 71.53908 11.92060 
14 100.0000 0.00000 100.0000 58.65830 28.15912 96.95700 
15 0.00000 38.69451 100.0000 22.30190 15.65958 96.45895 
16 0.00000 61.01825 0.00000 10.24064 20.48120 3.413280 
17 0.00000 0.00000 49.66734 4.007376 1.604261 21.04169 
18 100.0000 0.00000 49.59690 42.94703 21.72641 20.91738 
19 100.0000 51.96322 100.0000 67.21329 44.33588 99.62836 
20 100.0000 51.02120 0.00000 47.92790 36.94793 4.615407 
21 49.79587 0.00000 0.00000 7.916513 4.180452 0.389948 
22 100.0000 100.0000 50.20307 79.65832 92.36346 32.43752 
23 0.00000 100.0000 50.70625 38.10697 69.78000 32.53768 
24 49.48561 100.0000 100.0000 61.48983 80.23590 106.8576 
25 51.72588 100.0000 0.00000 45.91717 76.75476 12.40366 
26 50.05958 0.00000 100.0000 26.62471 11.64123 95.45591 
27 0.00000 47.79621 60.34591 13.43711 16.66788 35.89865 
28 100.0000 59.17416 43.63085 55.23967 43.89522 23.16134 
29 47.31399 48.98978 0.00000 16.91795 21.36431 3.261498 
30 52.09288 0.00000 45.52943 12.45708 6.055773 17.17390 
31 55.39583 47.66229 100.0000 35.63215 26.06648 96.89130 
32 49.20125 100.0000 50.84061 48.77231 77.73131 34.90606 
33 48.29114 47.33520 50.18713 19.70936 19.70128 22.78704 
34 0.00000 30.94905 0.00000 2.895257 5.783893 0.985345 
35 100.0000 21.19106 79.12555 54.51079 28.87030 64.74920 
36 33.94804 70.69041 100.0000 39.30835 43.62560 100.9604 
37 74.96124 25.82053 0.00000 23.81049 15.07463 1.655505 
38 0.00000 77.61705 71.72771 29.73208 46.50282 49.87208 
39 24.97790 0.00000 23.41364 2.882561 1.377356 5.054667 
40 76.31808 100.0000 28.35106 58.01806 80.10571 19.67732 
41 0.00000 77.00365 31.43299 19.51771 36.56740 14.08223 
42 75.41143 77.79628 100.0000 59.85076 57.72138 102.4128 
43 100.0000 23.29829 20.42453 42.77049 24.25544 5.797413 
44 100.0000 80.02238 22.27702 62.38047 65.27477 12.96880 
45 75.35445 100.0000 76.01304 67.62702 86.53668 62.27155 
46 75.31505 74.81469 0.00000 39.85267 48.03054 7.170696 
47 100.0000 79.49395 78.19811 72.97054 69.06523 66.00946 
48 26.41218 100.0000 75.99234 47.20523 76.30455 62.75298 
49 28.19308 28.22301 100.0000 22.10956 12.34135 95.82873 
50 76.81359 0.00000 23.55016 23.96172 12.25767 5.546522 
51 75.25932 0.00000 74.69026 31.69403 15.34308 50.34080 
52 29.89921 74.23536 0.00000 21.34617 38.38767 6.284159 
53 25.50439 100.0000 24.78846 37.73560 71.32700 15.61002 
54 77.21225 23.71451 100.0000 42.66577 22.32135 95.70796 
55 0.00000 21.07405 72.23364 10.61255 6.041624 50.35130 
56 26.28049 0.00000 71.93547 10.38123 4.368508 44.91407 
57 0.00000 19.89483 30.07019 2.195783 2.382476 6.902741 
58 26.28079 33.45692 23.52814 6.401017 8.187877 6.114425 
59 66.56754 70.38587 52.30860 36.36378 43.25848 27.96878 
60 75.09479 52.62129 65.01886 38.23058 32.56954 40.19205 
61 26.64973 49.33561 81.42125 21.60622 20.72213 62.01670 
62 45.91179 68.61670 63.70484 28.58548 35.78991 39.10916 
63 71.11740 50.49568 34.71935 28.47172 26.18799 13.16495 
64 54.43736 27.35888 62.61652 18.08240 11.99693 33.09343 
65 34.69612 74.79966 32.60823 25.93014 43.29861 14.62117 
66 74.85889 20.44437 50.18860 25.75786 14.44918 21.90193 
67 47.85106 20.11464 33.14580 10.26252 7.412553 8.714041 
68 27.20651 32.63652 48.27367 8.911293 8.671057 19.81831 
69 27.58870 24.69734 0.00000 4.985190 5.007347 0.813244 
70 0.00000 69.14068 100.0000 33.58817 38.53447 99.25894 
71 20.53684 59.80271 49.57175 15.62229 22.94764 22.33763 
72 0.00000 46.98630 28.11508 8.268497 14.36056 9.260996 
73 73.54294 75.32966 75.96305 48.65619 52.14261 58.78724 
74 63.36650 75.70063 29.24590 32.95687 43.36365 12.37534 
75 100.0000 50.88622 71.33775 55.46563 37.48578 49.05725 
76 23.55356 85.77019 53.26247 34.55407 58.03181 34.31245 
77 100.0000 29.41094 48.41781 47.05247 27.11359 21.68831 
78 72.19800 51.56213 8.666635 26.68043 24.28701 4.182266 
79 21.36322 53.66478 11.70929 11.10257 19.10384 4.452662 
80 12.24937 81.96187 10.32227 22.43654 43.85556 8.117415 
81 50.32410 91.80251 71.76533 46.89860 67.87186 57.07003 
82 48.45094 95.04594 23.03440 41.45478 70.40390 15.60595 
83 47.91670 54.94911 27.45694 19.28896 24.72358 9.546858 
84 3.781525 53.33689 81.63552 20.63600 21.48894 67.29929 
85 76.14076 97.71765 95.89858 71.35909 83.88537 99.36735 
86 74.72769 92.97172 51.48222 54.16939 71.97224 31.98978 
87 91.51768 77.11623 49.84954 57.14250 56.88157 27.15440 
88 55.99479 23.67844 88.16304 25.75833 13.75340 69.51380 
89 76.02370 54.61404 92.04182 46.96554 35.88192 83.40364 
90 52.92777 23.07148 11.01567 11.47743 8.442938 2.065838 
91 2.113597 97.73685 76.72762 42.90317 69.38854 64.26510 
92 77.95688 25.26049 74.12841 33.76923 19.30820 48.76436 
93 5.158119 95.50651 28.71841 35.09221 67.84964 17.55910 
94 4.213096 24.16053 51.05457 6.580747 5.700963 24.55598 
95 51.24030 47.80404 76.36550 25.44054 21.67394 51.56695 
96 97.40498 100.0000 75.01152 83.40610 93.39977 61.98491 
97 49.19419 5.350316 74.01136 18.25625 8.375081 51.63830 
98 91.32533 51.59153 22.20459 42.89054 33.31043 7.545942 
99 74.48121 24.34677 26.05584 24.22913 15.47601 6.212211 
100 94.19953 74.22767 93.65841 72.15843 65.09288 92.44265 
101 23.32810 75.54038 80.93191 31.56043 42.64475 65.84611 
102 56.07175 76.90790 5.268606 29.60085 44.24630 7.322119 
103 27.55381 8.135545 46.48987 5.662258 2.907098 16.46148 
104 27.88054 25.86915 72.11177 12.74553 7.936219 47.63428 
105 51.80627 80.99682 89.24284 47.26267 58.73095 83.63926 
END_DATA
