assets/charts/knut/rgb/i1pro3/p3_a4_308p_2pages_portrait_w16_0mm/chart.ti1
CTI1   

DESCRIPTOR "Argyll Calibration Target chart information 1"
ORIGINATOR "ChromIQ"
APPROX_WHITE_POINT "95.050000 100.000000 108.900000"
COLOR_REP "iRGB"
WHITE_COLOR_PATCHES "1"
BLACK_COLOR_PATCHES "1"
CREATED "Tue Aug 18 16:54:38 2026"

NUMBER_OF_FIELDS 7
BEGIN_DATA_FORMAT
SAMPLE_ID RGB_R RGB_G RGB_B XYZ_X XYZ_Y XYZ_Z
END_DATA_FORMAT

NUMBER_OF_SETS 308
BEGIN_DATA
1 0.0000 0.0000 0.0000 0.9505 1.0000 1.0890
2 0.0000 0.0000 25.0000 1.8596 1.3637 5.8764
3 0.0000 0.0000 50.0000 4.7753 2.5299 21.2302
4 0.0000 0.0000 75.0000 10.2877 4.7349 50.2580
5 0.0000 0.0000 100.0000 18.8200 8.1478 95.1885
6 0.0000 25.0000 0.0000 2.7516 4.6023 1.6894
7 0.0000 25.0000 25.0000 3.6608 4.9659 6.4768
8 0.0000 25.0000 50.0000 6.5764 6.1322 21.8305
9 0.0000 25.0000 75.0000 12.0888 8.3372 50.8584
10 0.0000 25.0000 100.0000 20.6211 11.7501 95.7889
11 0.0000 50.0000 0.0000 8.5281 16.1551 3.6149
12 0.0000 50.0000 25.0000 9.4372 16.5188 8.4023
13 0.0000 50.0000 50.0000 12.3529 17.6851 23.7560
14 0.0000 50.0000 75.0000 17.8653 19.8900 52.7839
15 0.0000 50.0000 100.0000 26.3976 23.3029 97.7144
16 0.0000 75.0000 0.0000 19.4490 37.9970 7.2552
17 0.0000 75.0000 25.0000 20.3581 38.3607 12.0426
18 0.0000 75.0000 50.0000 23.2738 39.5270 27.3963
19 0.0000 75.0000 75.0000 28.7862 41.7319 56.4242
20 0.0000 75.0000 100.0000 37.3185 45.1448 101.3547
21 0.0000 100.0000 0.0000 36.3529 71.8048 12.8898
22 0.0000 100.0000 25.0000 37.2620 72.1685 17.6772
23 0.0000 100.0000 50.0000 40.1777 73.3347 33.0310
24 0.0000 100.0000 75.0000 45.6901 75.5397 62.0588
25 0.0000 100.0000 100.0000 54.2224 78.9526 106.9893
26 25.0000 0.0000 0.0000 3.0276 2.0708 1.1862
27 25.0000 0.0000 25.0000 3.9368 2.4345 5.9736
28 25.0000 0.0000 50.0000 6.8525 3.6007 21.3274
29 25.0000 0.0000 75.0000 12.3648 5.8057 50.3552
30 25.0000 0.0000 100.0000 20.8971 9.2186 95.2857
31 25.0000 25.0000 0.0000 4.8288 5.6731 1.7866
32 25.0000 25.0000 25.0000 5.7379 6.0367 6.5740
33 25.0000 25.0000 50.0000 8.6536 7.2030 21.9278
34 25.0000 25.0000 75.0000 14.1660 9.4080 50.9556
35 25.0000 25.0000 100.0000 22.6983 12.8209 95.8861
36 25.0000 50.0000 0.0000 10.6052 17.2259 3.7121
37 25.0000 50.0000 25.0000 11.5143 17.5896 8.4995
38 25.0000 50.0000 50.0000 14.4300 18.7559 23.8532
39 25.0000 50.0000 75.0000 19.9424 20.9608 52.8811
40 25.0000 50.0000 100.0000 28.4747 24.3737 97.8116
41 25.0000 75.0000 0.0000 21.5262 39.0678 7.3524
42 25.0000 75.0000 25.0000 22.4353 39.4315 12.1398
43 25.0000 75.0000 50.0000 25.3510 40.5978 27.4935
44 25.0000 75.0000 75.0000 30.8634 42.8027 56.5214
45 25.0000 75.0000 100.0000 39.3957 46.2156 101.4519
46 25.0000 100.0000 0.0000 38.4300 72.8756 12.9870
47 25.0000 100.0000 25.0000 39.3392 73.2393 17.7744
48 25.0000 100.0000 50.0000 42.2549 74.4055 33.1282
49 25.0000 100.0000 75.0000 47.7672 76.6105 62.1560
50 25.0000 100.0000 100.0000 56.2995 80.0234 107.0865
51 50.0000 0.0000 0.0000 9.6893 5.5050 1.4980
52 50.0000 0.0000 25.0000 10.5984 5.8687 6.2854
53 50.0000 0.0000 50.0000 13.5141 7.0349 21.6391
54 50.0000 0.0000 75.0000 19.0265 9.2399 50.6670
55 50.0000 0.0000 100.0000 27.5588 12.6528 95.5975
56 50.0000 25.0000 0.0000 11.4904 9.1073 2.0983
57 50.0000 25.0000 25.0000 12.3996 9.4709 6.8858
58 50.0000 25.0000 50.0000 15.3152 10.6372 22.2395
59 50.0000 25.0000 75.0000 20.8276 12.8422 51.2674
60 50.0000 25.0000 100.0000 29.3599 16.2551 96.1978
61 50.0000 50.0000 0.0000 17.2669 20.6601 4.0238
62 50.0000 50.0000 25.0000 18.1760 21.0238 8.8112
63 50.0000 50.0000 50.0000 21.0917 22.1901 24.1650
64 50.0000 50.0000 75.0000 26.6041 24.3950 53.1928
65 50.0000 50.0000 100.0000 35.1364 27.8079 98.1233
66 50.0000 75.0000 0.0000 28.1878 42.5020 7.6641
67 50.0000 75.0000 25.0000 29.0969 42.8657 12.4516
68 50.0000 75.0000 50.0000 32.0126 44.0320 27.8053
69 50.0000 75.0000 75.0000 37.5250 46.2369 56.8332
70 50.0000 75.0000 100.0000 46.0573 49.6498 101.7636
71 50.0000 100.0000 0.0000 45.0917 76.3098 13.2988
72 50.0000 100.0000 25.0000 46.0008 76.6735 18.0862
73 50.0000 100.0000 50.0000 48.9165 77.8397 33.4399
74 50.0000 100.0000 75.0000 54.4289 80.0447 62.4678
75 50.0000 100.0000 100.0000 62.9612 83.4576 107.3983
76 75.0000 0.0000 0.0000 22.2838 11.9977 2.0874
77 75.0000 0.0000 25.0000 23.1929 12.3614 6.8748
78 75.0000 0.0000 50.0000 26.1086 13.5276 22.2285
79 75.0000 0.0000 75.0000 31.6210 15.7326 51.2564
80 75.0000 0.0000 100.0000 40.1533 19.1455 96.1869
81 75.0000 25.0000 0.0000 24.0849 15.6000 2.6878
82 75.0000 25.0000 25.0000 24.9941 15.9636 7.4752
83 75.0000 25.0000 50.0000 27.9097 17.1299 22.8289
84 75.0000 25.0000 75.0000 33.4221 19.3349 51.8568
85 75.0000 25.0000 100.0000 41.9544 22.7478 96.7873
86 75.0000 50.0000 0.0000 29.8614 27.1529 4.6132
87 75.0000 50.0000 25.0000 30.7705 27.5165 9.4007
88 75.0000 50.0000 50.0000 33.6862 28.6828 24.7544
89 75.0000 50.0000 75.0000 39.1986 30.8877 53.7823
90 75.0000 50.0000 100.0000 47.7309 34.3007 98.7127
91 75.0000 75.0000 0.0000 40.7823 48.9948 8.2536
92 75.0000 75.0000 25.0000 41.6914 49.3584 13.0410
93 75.0000 75.0000 50.0000 44.6071 50.5247 28.3947
94 75.0000 75.0000 75.0000 50.1195 52.7296 57.4226
95 75.0000 75.0000 100.0000 58.6518 56.1426 102.3531
96 75.0000 100.0000 0.0000 57.6862 82.8025 13.8882
97 75.0000 100.0000 25.0000 58.5953 83.1662 18.6756
98 75.0000 100.0000 50.0000 61.5110 84.3324 34.0293
99 75.0000 100.0000 75.0000 67.0234 86.5374 63.0572
100 75.0000 100.0000 100.0000 75.5557 89.9503 107.9877
101 100.0000 0.0000 0.0000 41.7781 22.0474 2.9997
102 100.0000 0.0000 25.0000 42.6872 22.4111 7.7871
103 100.0000 0.0000 50.0000 45.6029 23.5773 23.1409
104 100.0000 0.0000 75.0000 51.1153 25.7823 52.1687
105 100.0000 0.0000 100.0000 59.6476 29.1952 97.0992
106 100.0000 25.0000 0.0000 43.5792 25.6497 3.6001
107 100.0000 25.0000 25.0000 44.4884 26.0133 8.3875
108 100.0000 25.0000 50.0000 47.4040 27.1796 23.7412
109 100.0000 25.0000 75.0000 52.9164 29.3846 52.7691
110 100.0000 25.0000 100.0000 61.4487 32.7975 97.6996
111 100.0000 50.0000 0.0000 49.3557 37.2025 5.5256
112 100.0000 50.0000 25.0000 50.2648 37.5662 10.3130
113 100.0000 50.0000 50.0000 53.1805 38.7325 25.6667
114 100.0000 50.0000 75.0000 58.6929 40.9374 54.6946
115 100.0000 50.0000 100.0000 67.2252 44.3503 99.6251
116 100.0000 75.0000 0.0000 60.2766 59.0444 9.1659
117 100.0000 75.0000 25.0000 61.1857 59.4081 13.9533
118 100.0000 75.0000 50.0000 64.1014 60.5744 29.3070
119 100.0000 75.0000 75.0000 69.6138 62.7793 58.3349
120 100.0000 75.0000 100.0000 78.1461 66.1922 103.2654
121 100.0000 100.0000 0.0000 77.1805 92.8522 14.8005
122 100.0000 100.0000 25.0000 78.0896 93.2159 19.5879
123 100.0000 100.0000 50.0000 81.0053 94.3821 34.9417
124 100.0000 100.0000 75.0000 86.5177 96.5871 63.9695
125 100.0000 100.0000 100.0000 95.0500 100.0000 108.9000
126 12.5000 0.0000 0.0000 1.5364 1.3020 1.1164
127 37.5000 0.0000 0.0000 5.6872 3.4418 1.3107
128 62.5000 0.0000 0.0000 15.1793 8.3352 1.7549
129 87.5000 0.0000 0.0000 31.1158 16.5508 2.5007
130 0.0000 12.5000 0.0000 1.4585 2.0160 1.2583
131 0.0000 37.5000 0.0000 5.0577 9.2145 2.4581
132 0.0000 62.5000 0.0000 13.2886 25.6762 5.2017
133 0.0000 87.5000 0.0000 27.1074 53.3138 9.8080
134 0.0000 0.0000 12.5000 1.2069 1.1026 2.4393
135 0.0000 0.0000 37.5000 3.0237 1.8293 12.0061
136 0.0000 0.0000 62.5000 7.1782 3.4911 33.8836
137 0.0000 0.0000 87.5000 14.1533 6.2811 70.6139
138 100.0000 12.5000 0.0000 42.2861 23.0634 3.1690
139 100.0000 37.5000 0.0000 45.8853 30.2619 4.3688
140 100.0000 62.5000 0.0000 54.1162 46.7236 7.1124
141 100.0000 87.5000 0.0000 67.9350 74.3612 11.7187
142 100.0000 0.0000 12.5000 42.0345 22.1500 4.3500
143 100.0000 0.0000 37.5000 43.8513 22.8767 13.9168
144 100.0000 0.0000 62.5000 48.0058 24.5385 35.7943
145 100.0000 0.0000 87.5000 54.9809 27.3285 72.5246
146 12.5000 100.0000 0.0000 36.9388 72.1068 12.9172
147 37.5000 100.0000 0.0000 41.0896 74.2466 13.1115
148 62.5000 100.0000 0.0000 50.5817 79.1400 13.5557
149 87.5000 100.0000 0.0000 66.5182 87.3556 14.3015
150 0.0000 100.0000 12.5000 36.6093 71.9074 14.2401
151 0.0000 100.0000 37.5000 38.4261 72.6341 23.8069
152 0.0000 100.0000 62.5000 42.5806 74.2959 45.6844
153 0.0000 100.0000 87.5000 49.5557 77.0859 82.4147
154 0.0000 12.5000 100.0000 19.3280 9.1638 95.3578
155 0.0000 37.5000 100.0000 22.9272 16.3623 96.5576
156 0.0000 62.5000 100.0000 31.1581 32.8240 99.3012
157 0.0000 87.5000 100.0000 44.9769 60.4616 103.9075
158 12.5000 0.0000 100.0000 19.4059 8.4498 95.2159
159 37.5000 0.0000 100.0000 23.5567 10.5896 95.4102
160 62.5000 0.0000 100.0000 33.0488 15.4830 95.8544
161 87.5000 0.0000 100.0000 48.9853 23.6986 96.6002
162 100.0000 100.0000 12.5000 77.4369 92.9548 16.1508
163 100.0000 100.0000 37.5000 79.2537 93.6815 25.7176
164 100.0000 100.0000 62.5000 83.4082 95.3433 47.5951
165 100.0000 100.0000 87.5000 90.3833 98.1333 84.3254
166 12.5000 100.0000 100.0000 54.8083 79.2546 107.0167
167 37.5000 100.0000 100.0000 58.9591 81.3944 107.2110
168 62.5000 100.0000 100.0000 68.4512 86.2878 107.6552
169 87.5000 100.0000 100.0000 84.3877 94.5034 108.4010
170 100.0000 12.5000 100.0000 60.1556 30.2112 97.2685
171 100.0000 37.5000 100.0000 63.7548 37.4097 98.4683
172 100.0000 62.5000 100.0000 71.9857 53.8714 101.2119
173 100.0000 87.5000 100.0000 85.8045 81.5090 105.8182
174 0.0000 0.0000 2.0000 0.9782 1.0111 1.2347
175 3.8462 3.8462 3.8462 1.2306 1.2947 1.4099
176 7.6923 7.6923 7.6923 1.5910 1.6739 1.8229
177 11.5385 11.5385 11.5385 2.1341 2.2453 2.4451
178 15.3846 15.3846 15.3846 2.8796 3.0296 3.2992
179 19.2308 19.2308 19.2308 3.8449 4.0451 4.4051
180 23.0769 23.0769 23.0769 5.0452 5.3079 5.7803
181 26.9231 26.9231 26.9231 6.4946 6.8328 7.4410
182 30.7692 30.7692 30.7692 8.2061 8.6335 9.4018
183 34.6154 34.6154 34.6154 10.1917 10.7224 11.6767
184 38.4615 38.4615 38.4615 12.4626 13.1117 14.2786
185 42.3077 42.3077 42.3077 15.0296 15.8123 17.2196
186 46.1538 46.1538 46.1538 17.9028 18.8351 20.5114
187 48.8453 48.8453 48.8453 20.1006 21.1474 23.0295
188 53.8462 53.8462 53.8462 24.6055 25.8869 28.1909
189 57.6923 57.6923 57.6923 28.4532 29.9350 32.5992
190 61.5385 61.5385 61.5385 32.6432 34.3432 37.3997
191 65.3846 65.3846 65.3846 37.1837 39.1201 42.6018
192 69.2308 69.2308 69.2308 42.0825 44.2741 48.2145
193 73.0769 73.0769 73.0769 47.3475 49.8132 54.2466
194 76.9231 76.9231 76.9231 52.9859 55.7453 60.7066
195 80.7692 80.7692 80.7692 59.0050 62.0778 67.6027
196 84.6154 84.6154 84.6154 65.4118 68.8183 74.9431
197 88.4615 88.4615 88.4615 72.2131 75.9738 82.7355
198 92.3077 92.3077 92.3077 79.4156 83.5514 90.9875
199 96.1538 96.1538 96.1538 87.0258 91.5579 99.7066
200 98.0000 100.0000 100.0000 93.2170 99.0551 108.8142
201 2.6667 0.0000 0.0000 1.0348 1.0434 1.0929
202 0.1786 2.4880 0.0000 1.0243 1.1393 1.1120
203 0.0000 2.6667 2.0000 1.0512 1.1572 1.2590
204 2.0000 1.3333 1.3333 1.0687 1.1130 1.2012
205 0.0000 0.0000 4.0809 1.0070 1.0226 1.3863
206 2.7475 0.0000 2.7475 1.0753 1.0600 1.2932
207 8.5490 4.5490 4.5490 1.4624 1.4428 1.4793
208 7.2157 7.2157 3.2157 1.4700 1.5902 1.4087
209 4.5490 8.5490 4.5490 1.4387 1.6604 1.5225
210 3.2157 7.2157 7.2157 1.3841 1.5382 1.7537
211 4.5490 4.5490 8.5490 1.3620 1.3820 1.8825
212 7.2157 3.2157 7.2157 1.4044 1.3519 1.7167
213 14.4314 10.4314 10.4314 2.2690 2.2202 2.2577
214 13.0980 13.0980 9.0980 2.2888 2.4877 2.1186
215 10.4314 14.4314 10.4314 2.2277 2.5995 2.3331
216 9.0980 13.0980 13.0980 2.1317 2.3926 2.7492
217 10.4314 10.4314 14.4314 2.0941 2.1143 2.9603
218 13.0980 9.0980 13.0980 2.1688 2.0522 2.6816
219 20.3137 16.3137 16.3137 3.5547 3.4916 3.5643
220 18.9804 18.9804 14.9804 3.5882 3.8969 3.3413
221 16.3137 20.3137 16.3137 3.4933 4.0555 3.6764
222 14.9804 18.9804 18.9804 3.3482 3.7516 4.3051
223 16.3137 16.3137 20.3137 3.2946 3.3341 4.6090
224 18.9804 14.9804 18.9804 3.4049 3.2314 4.2017
225 26.1961 22.1961 22.1961 5.3788 5.3209 5.4702
226 24.8627 24.8627 20.8627 5.4278 5.8791 5.1532
227 22.1961 26.1961 22.1961 5.2951 6.0887 5.6228
228 20.8627 24.8627 24.8627 5.0955 5.6779 6.4873
229 22.1961 22.1961 26.1961 5.0245 5.1064 6.8929
230 24.8627 20.8627 24.8627 5.1740 4.9579 6.3442
231 32.0784 28.0784 28.0784 7.7920 7.7624 8.0358
232 30.7451 30.7451 26.7451 7.8579 8.4866 7.6159
233 28.0784 32.0784 28.0784 7.6842 8.7512 8.2323
234 26.7451 30.7451 30.7451 7.4254 8.2248 9.3526
235 28.0784 28.0784 32.0784 7.3357 7.4862 9.8678
236 30.7451 26.7451 30.7451 7.5276 7.2874 9.1663
237 37.9608 33.9608 33.9608 10.8390 10.8642 11.3139
238 36.6275 36.6275 32.6275 10.9232 11.7661 10.7834
239 33.9608 37.9608 33.9608 10.7054 12.0891 11.5573
240 32.6275 36.6275 36.6275 10.3833 11.4392 12.9514
241 33.9608 33.9608 37.9608 10.2738 10.5220 13.5834
242 36.6275 32.6275 36.6275 10.5109 10.2690 12.7188
243 43.8431 39.8431 39.8431 14.5603 14.6693 15.3521
244 42.5098 42.5098 38.5098 14.6640 15.7595 14.7039
245 39.8431 43.8431 39.8431 14.3995 16.1441 15.6452
246 38.5098 42.5098 42.5098 14.0102 15.3637 17.3294
247 39.8431 39.8431 43.8431 13.8798 14.2573 18.0847
248 42.5098 38.5098 42.5098 14.1647 13.9466 17.0477
249 49.7255 45.7255 45.7255 18.9931 19.2172 20.1938
250 48.3922 48.3922 44.3922 19.1173 20.5056 19.4215
251 45.7255 49.7255 45.7255 18.8036 20.9548 20.5392
252 44.3922 48.3922 48.3922 18.3436 20.0372 22.5286
253 45.7255 45.7255 49.7255 18.1914 18.7318 23.4132
254 48.3922 44.3922 48.3922 18.5264 18.3602 22.1952
255 55.6078 51.6078 51.6078 24.1716 24.5445 25.8794
256 54.2745 54.2745 50.2745 24.3175 26.0403 24.9769
257 51.6078 55.6078 51.6078 23.9522 26.5567 26.2793
258 50.2745 54.2745 54.2745 23.4182 25.4958 28.5879
259 51.6078 51.6078 55.6078 23.2432 23.9824 29.6075
260 54.2745 50.2745 54.2745 23.6307 23.5469 28.2005
261 61.4902 57.4902 57.4902 30.1282 30.6854 32.4461
262 60.1569 60.1569 56.1569 30.2965 32.3970 31.4080
263 57.4902 61.4902 57.4902 29.8776 32.9834 32.9029
264 56.1569 60.1569 60.1569 29.2665 31.7734 35.5438
265 57.4902 57.4902 61.4902 29.0679 30.0435 36.7038
266 60.1569 56.1569 60.1569 29.5099 29.5412 35.1001
267 67.3725 63.3725 63.3725 36.8929 37.6720 39.9294
268 66.0392 66.0392 62.0392 37.0846 39.6075 38.7502
269 63.3725 67.3725 63.3725 36.6100 40.2663 40.4450
270 62.0392 66.0392 66.0392 35.9190 38.9018 43.4308
271 63.3725 63.3725 67.3725 35.6959 36.9473 44.7360
272 66.0392 62.0392 66.0392 36.1945 36.3756 42.9287
273 73.2549 69.2549 69.2549 44.4945 45.5346 48.3624
274 71.9216 71.9216 67.9216 44.7105 47.7018 47.0373
275 69.2549 73.2549 69.2549 44.1782 48.4353 48.9390
276 67.9216 71.9216 71.9216 43.4046 46.9111 52.2813
277 69.2549 69.2549 73.2549 43.1561 44.7243 53.7367
278 71.9216 67.9216 71.9216 43.7132 44.0807 51.7187
279 79.1373 75.1373 75.1373 52.9603 54.3022 57.7769
280 77.8039 77.8039 73.8039 53.2013 56.7082 56.3010
281 75.1373 79.1373 75.1373 52.6096 57.5187 58.4162
282 73.8039 77.8039 77.8039 51.7506 55.8299 62.1264
283 75.1373 75.1373 79.1373 51.4761 53.4036 63.7364
284 77.8039 73.8039 77.8039 52.0934 52.6858 61.5014
285 85.0196 81.0196 81.0196 62.3162 64.0022 68.2030
286 83.6863 83.6863 79.6863 62.5830 66.6542 66.5718
287 81.0196 85.0196 81.0196 61.9300 67.5438 68.9069
288 79.6863 83.6863 83.6863 60.9833 65.6856 72.9956
289 81.0196 81.0196 85.0196 60.6821 63.0129 74.7647
290 83.6863 79.6863 83.6863 61.3613 62.2185 72.3065
291 90.9020 86.9020 86.9020 72.5871 74.6611 79.6696
292 89.5686 89.5686 85.5686 72.8806 77.5657 77.8788
293 86.9020 90.9020 86.9020 72.1646 78.5365 80.4399
294 85.5686 89.5686 89.5686 71.1277 76.5044 84.9174
295 86.9020 86.9020 90.9020 70.7990 73.5785 86.8498
296 89.5686 85.5686 89.5686 71.5419 72.7055 84.1623
297 96.7843 92.7843 92.7843 83.7971 86.3042 92.2044
298 95.4510 95.4510 91.4510 84.1178 89.4678 90.2499
299 92.7843 96.7843 92.7843 83.3372 90.5218 93.0427
300 91.4510 95.4510 95.4510 82.2079 88.3115 97.9190
301 92.7843 92.7843 96.7843 81.8511 85.1260 100.0187
302 95.4510 91.4510 95.4510 82.6592 84.1722 97.0963
303 98.8453 97.5120 97.5120 91.0202 95.1119 102.9549
304 100.0000 100.0000 97.3333 93.9851 99.5740 103.2923
305 97.2525 98.5858 98.6667 90.8790 96.2369 105.5777
306 95.3333 100.0000 100.0000 90.8491 97.8344 108.7034
307 98.6667 96.6667 100.0000 91.1971 94.1164 107.9674
308 100.0000 95.9191 98.5858 91.2824 93.3761 104.8350
END_DATA
CTI1   

DESCRIPTOR "Argyll Calibration Target chart information 1"
ORIGINATOR "ChromIQ"
DENSITY_EXTREME_VALUES "8"
CREATED "Tue Aug 18 16:54:38 2026"

NUMBER_OF_FIELDS 7
BEGIN_DATA_FORMAT
INDEX RGB_R RGB_G RGB_B XYZ_X XYZ_Y XYZ_Z
END_DATA_FORMAT

NUMBER_OF_SETS 8
BEGIN_DATA
0 100.0000 100.0000 100.0000 95.0500 100.0000 108.9000
1 0.0000 100.0000 100.0000 54.2224 78.9526 106.9893
2 100.0000 0.0000 100.0000 59.6476 29.1952 97.0992
3 0.0000 0.0000 100.0000 18.8200 8.1478 95.1885
4 100.0000 100.0000 0.0000 77.1805 92.8522 14.8005
5 0.0000 100.0000 0.0000 36.3529 71.8048 12.8898
6 100.0000 0.0000 0.0000 41.7781 22.0474 2.9997
7 0.0000 0.0000 0.0000 0.9505 1.0000 1.0890
END_DATA
CTI1   

DESCRIPTOR "Argyll Calibration Target chart information 1"
ORIGINATOR "ChromIQ"
DEVICE_COMBINATION_VALUES "9"
CREATED "Tue Aug 18 16:54:38 2026"

NUMBER_OF_FIELDS 7
BEGIN_DATA_FORMAT
INDEX RGB_R RGB_G RGB_B XYZ_X XYZ_Y XYZ_Z
END_DATA_FORMAT

NUMBER_OF_SETS 9
BEGIN_DATA
0 100.0000 100.0000 100.0000 95.0500 100.0000 108.9000
1 0.0000 100.0000 100.0000 54.2224 78.9526 106.9893
2 100.0000 0.0000 100.0000 59.6476 29.1952 97.0992
3 0.0000 0.0000 100.0000 18.8200 8.1478 95.1885
4 100.0000 100.0000 0.0000 77.1805 92.8522 14.8005
5 0.0000 100.0000 0.0000 36.3529 71.8048 12.8898
6 100.0000 0.0000 0.0000 41.7781 22.0474 2.9997
7 0.0000 0.0000 0.0000 0.9505 1.0000 1.0890
8 50.0000 50.0000 50.0000 21.0917 22.1901 24.1650
END_DATA
