demo-projects/Demo-Report-Matrix/runs/run1/verifications/2026-06-01_100000/Demo-Report-Matrix-verify.ti3
CTI3   
KEYWORD "CHROMIQ_VERIFICATION"
CHROMIQ_VERIFICATION "true"

DESCRIPTOR "Argyll Calibration Target chart information 3"
ORIGINATOR "Argyll fakeread"
CREATED "Tue Aug 11 11:21:04 2026"
DEVICE_CLASS "DISPLAY"
COLOR_REP "iRGB_XYZ"

KEYWORD "CHROMIQ_MEASURED"
CHROMIQ_MEASURED "2026-06-01T10:00:00"
TARGET_INSTRUMENT "X-Rite ColorMunki"
NUMBER_OF_FIELDS 7
BEGIN_DATA_FORMAT
SAMPLE_ID RGB_R RGB_G RGB_B XYZ_X XYZ_Y XYZ_Z 
END_DATA_FORMAT

NUMBER_OF_SETS 105
BEGIN_DATA
1 100.0000 100.0000 100.0000 94.70223 99.83606 108.3003 
2 100.0000 100.0000 100.0000 94.65409 99.21725 108.7746 
3 100.0000 100.0000 100.0000 94.17590 99.65219 104.3254 
4 100.0000 100.0000 100.0000 94.86326 99.63558 108.8443 
5 0.00000 0.00000 0.00000 0.0403951 0.0807899 0.0134640 
6 0.00000 0.00000 0.00000 0.00399649 0.00206076 0.000187275 
7 0.00000 0.00000 0.00000 0.0142355 0.0284708 0.00474478 
8 0.00000 0.00000 0.00000 0.108588 0.0693468 0.00766548 
9 100.0000 100.0000 0.00000 75.48539 90.84114 13.60947 
10 0.00000 0.00000 100.0000 18.04873 7.228833 94.80845 
11 100.0000 0.00000 0.00000 40.42206 20.91903 1.908782 
12 0.00000 100.0000 100.0000 51.65031 74.42202 106.2537 
13 0.00000 100.0000 0.00000 34.56538 69.11421 11.51775 
14 100.0000 0.00000 100.0000 57.66868 27.65038 96.84097 
15 0.00000 38.69451 100.0000 22.52925 16.12338 96.53648 
16 0.00000 61.01825 0.00000 12.77434 25.49506 4.422793 
17 0.00000 0.00000 49.66734 3.651536 1.509487 19.08000 
18 100.0000 0.00000 49.59690 44.07345 22.33868 22.74703 
19 100.0000 51.96322 100.0000 66.83609 44.06491 99.59593 
20 100.0000 51.02120 0.00000 48.28849 35.34889 4.511261 
21 49.79587 0.00000 0.00000 8.729866 4.501494 0.409081 
22 100.0000 100.0000 50.20307 80.54870 94.20163 32.55724 
23 0.00000 100.0000 50.70625 39.27184 72.29793 32.00723 
24 49.48561 100.0000 100.0000 62.06552 80.70362 106.9176 
25 51.72588 100.0000 0.00000 44.40012 75.97270 12.32352 
26 50.05958 0.00000 100.0000 26.77243 11.76339 94.20181 
27 0.00000 47.79621 60.34591 13.00315 16.75223 32.86620 
28 100.0000 59.17416 43.63085 53.79838 43.10393 22.03358 
29 47.31399 48.98978 0.00000 14.89398 18.53461 2.792641 
30 52.09288 0.00000 45.52943 12.50819 6.158480 17.12251 
31 55.39583 47.66229 100.0000 36.12386 28.24730 98.16041 
32 49.20125 100.0000 50.84061 47.52512 77.12154 33.34330 
33 48.29114 47.33520 50.18713 19.78606 19.32927 24.69786 
34 0.00000 30.94905 0.00000 2.870679 5.723073 0.953294 
35 100.0000 21.19106 79.12555 53.82506 28.97345 59.97410 
36 33.94804 70.69041 100.0000 37.22888 40.83857 100.5321 
37 74.96124 25.82053 0.00000 23.34045 14.80972 1.629128 
38 0.00000 77.61705 71.72771 30.62043 47.01235 54.07512 
39 24.97790 0.00000 23.41364 3.793747 1.878479 4.512998 
40 76.31808 100.0000 28.35106 58.49433 81.34137 17.81321 
41 0.00000 77.00365 31.43299 21.94904 41.04883 16.01539 
42 75.41143 77.79628 100.0000 61.29652 58.92914 102.7561 
43 100.0000 23.29829 20.42453 43.24707 24.30922 5.600632 
44 100.0000 80.02238 22.27702 64.55870 66.77285 13.24481 
45 75.35445 100.0000 76.01304 66.26326 85.82970 63.52400 
46 75.31505 74.81469 0.00000 39.95958 45.44054 6.688283 
47 100.0000 79.49395 78.19811 72.41832 67.50026 62.03848 
48 26.41218 100.0000 75.99234 47.54974 76.45799 63.86140 
49 28.19308 28.22301 100.0000 23.17692 13.47824 95.99193 
50 76.81359 0.00000 23.55016 23.54387 12.03220 5.978424 
51 75.25932 0.00000 74.69026 31.71556 15.30038 51.15332 
52 29.89921 74.23536 0.00000 20.71397 37.07613 6.289495 
53 25.50439 100.0000 24.78846 38.99603 73.07898 16.90510 
54 77.21225 23.71451 100.0000 42.42900 22.09387 93.54085 
55 0.00000 21.07405 72.23364 10.33316 6.197674 47.81466 
56 26.28049 0.00000 71.93547 10.86758 4.612593 45.23909 
57 0.00000 19.89483 30.07019 2.492395 2.915851 7.209701 
58 26.28079 33.45692 23.52814 7.313136 9.567100 6.731295 
59 66.56754 70.38587 52.30860 37.19244 44.64778 28.61017 
60 75.09479 52.62129 65.01886 36.18208 30.43660 35.91394 
61 26.64973 49.33561 81.42125 21.11886 21.39332 58.52202 
62 45.91179 68.61670 63.70484 29.76794 37.07314 43.15027 
63 71.11740 50.49568 34.71935 29.47929 26.69278 12.69761 
64 54.43736 27.35888 62.61652 19.58478 12.67766 34.07572 
65 34.69612 74.79966 32.60823 25.77227 43.14139 14.45894 
66 74.85889 20.44437 50.18860 27.00376 15.45644 23.52103 
67 47.85106 20.11464 33.14580 11.39033 7.709756 10.18594 
68 27.20651 32.63652 48.27367 9.461400 9.168786 20.81186 
69 27.58870 24.69734 0.00000 4.347988 4.813946 0.705538 
70 0.00000 69.14068 100.0000 32.70932 36.62695 99.57602 
71 20.53684 59.80271 49.57175 16.95932 25.60048 22.46992 
72 0.00000 46.98630 28.11508 7.606063 13.33201 8.331795 
73 73.54294 75.32966 75.96305 50.22822 53.74393 57.09839 
74 63.36650 75.70063 29.24590 34.95354 45.16028 14.58823 
75 100.0000 50.88622 71.33775 56.42781 40.33359 49.69365 
76 23.55356 85.77019 53.26247 30.43545 50.83748 30.49689 
77 100.0000 29.41094 48.41781 46.27938 27.31313 20.84540 
78 72.19800 51.56213 8.666635 29.00635 27.28115 4.593433 
79 21.36322 53.66478 11.70929 10.28812 17.83534 3.730201 
80 12.24937 81.96187 10.32227 23.85459 46.48583 9.013774 
81 50.32410 91.80251 71.76533 45.70901 65.77692 53.60928 
82 48.45094 95.04594 23.03440 40.01714 67.54272 15.19524 
83 47.91670 54.94911 27.45694 20.64085 26.03322 10.35076 
84 3.781525 53.33689 81.63552 19.80352 20.34540 64.93817 
85 76.14076 97.71765 95.89858 74.47943 88.97661 97.59680 
86 74.72769 92.97172 51.48222 56.00518 76.62892 30.93124 
87 91.51768 77.11623 49.84954 53.72295 53.79506 26.99401 
88 55.99479 23.67844 88.16304 25.10954 13.98577 67.09682 
89 76.02370 54.61404 92.04182 48.26216 38.34095 87.66974 
90 52.92777 23.07148 11.01567 11.77634 8.287709 2.171875 
91 2.113597 97.73685 76.72762 45.07162 74.14704 63.49216 
92 77.95688 25.26049 74.12841 35.40892 19.66554 45.17944 
93 5.158119 95.50651 28.71841 31.91690 61.95435 15.66488 
94 4.213096 24.16053 51.05457 5.974639 5.469334 21.09733 
95 51.24030 47.80404 76.36550 27.12669 22.00595 57.31598 
96 97.40498 100.0000 75.01152 84.40942 93.72476 61.97170 
97 49.19419 5.350316 74.01136 18.31820 8.593420 49.63942 
98 91.32533 51.59153 22.20459 43.03259 33.68252 8.146242 
99 74.48121 24.34677 26.05584 24.77393 15.08514 7.520083 
100 94.19953 74.22767 93.65841 66.12240 55.98915 91.31987 
101 23.32810 75.54038 80.93191 32.58479 43.99551 67.84438 
102 56.07175 76.90790 5.268606 29.70016 43.48398 7.430629 
103 27.55381 8.135545 46.48987 5.751869 2.866950 17.62991 
104 27.88054 25.86915 72.11177 13.95436 9.030777 50.30594 
105 51.80627 80.99682 89.24284 46.08689 53.67703 84.51316 
END_DATA
