demo-projects/old/Demo-Report-Matrix-2026-08-11_112103/runs/run1/verifications/2026-08-09_100000/chart/Demo-Report-Matrix-verify.ti2
CTI2   

DESCRIPTOR "Argyll Calibration Target chart information 2"
ORIGINATOR "Argyll printtarg"
CREATED "Mon Aug 10 23:21:26 2026"
TARGET_INSTRUMENT "X-Rite ColorMunki"
APPROX_WHITE_POINT "95.050000 100.000000 108.900000"
COLOR_REP "iRGB"
PAPER_SIZE "210.0x297.0"
RANDOM_START "98"
STEPS_IN_PASS "15"
PASSES_IN_STRIPS2 "6,2"
STRIP_INDEX_PATTERN "A-Z, A-Z"
PATCH_INDEX_PATTERN "0-9,@-9,@-9;1-999"
INDEX_ORDER "STRIP_THEN_PATCH"

NUMBER_OF_FIELDS 8
BEGIN_DATA_FORMAT
SAMPLE_ID SAMPLE_LOC RGB_R RGB_G RGB_B XYZ_X XYZ_Y XYZ_Z 
END_DATA_FORMAT

NUMBER_OF_SETS 120
BEGIN_DATA
1 "C13" 107.8431 98.82353 86.27451 96.56980 100.0752 81.88650 
2 "D2" 107.8431 98.82353 86.27451 96.56980 100.0752 81.88650 
3 "E6" 107.8431 98.82353 86.27451 96.56980 100.0752 81.88650 
4 "B2" 107.8431 98.82353 86.27451 96.56980 100.0752 81.88650 
5 "D1" 0.00000 0.00000 0.00000 0.950500 1.000000 1.089000 
6 "B9" 0.00000 0.00000 0.00000 0.950500 1.000000 1.089000 
7 "G14" 0.00000 0.00000 0.00000 0.950500 1.000000 1.089000 
8 "A12" 0.00000 0.00000 0.00000 0.950500 1.000000 1.089000 
9 "G9" 103.9216 95.68627 83.13725 89.44030 92.69140 75.90630 
10 "C8" 100.3922 92.15686 80.39216 82.65220 85.66110 70.21030 
11 "D13" 96.86275 89.01961 77.64706 76.19700 78.97520 64.79160 
12 "B10" 93.33333 85.88235 74.50980 70.07040 72.62960 59.64660 
13 "A10" 89.80392 82.35294 71.76471 64.26380 66.61520 54.76840 
14 "C4" 86.27451 79.21569 69.01961 58.77010 60.92480 50.15070 
15 "B8" 82.74510 76.07843 66.27451 53.58490 55.55390 45.79030 
16 "E14" 79.21569 72.54902 63.13725 48.69840 50.49200 41.67900 
17 "B7" 75.68627 69.41176 60.39216 44.10480 45.73350 37.81170 
18 "H5" 72.15686 66.27451 57.64706 39.79700 41.27080 34.18290 
19 "G2" 68.62745 63.13725 54.90196 35.76940 37.09820 30.78770 
20 "B12" 65.09804 60.00000 52.15686 32.01190 33.20520 27.61790 
21 "A4" 61.96078 56.86275 49.41176 28.51740 29.58470 24.66760 
22 "E5" 58.43137 53.72549 46.66667 25.27900 26.22920 21.93100 
23 "H14" 54.90196 50.58824 43.92157 22.29090 23.13290 19.40360 
24 "C2" 51.37255 47.45098 41.17647 19.54200 20.28410 17.07580 
25 "E8" 48.23529 44.31373 38.43137 17.02500 17.67560 14.94190 
26 "E4" 44.70588 41.17647 35.68627 14.73310 15.30020 12.99620 
27 "A3" 41.56863 38.03922 33.33333 12.65790 13.14910 11.23170 
28 "C3" 38.03922 34.90196 30.58824 10.78830 11.21090 9.639200 
29 "G7" 34.90196 32.15686 27.84314 9.118800 9.480000 8.214400 
30 "D8" 31.76471 29.01961 25.09804 7.639900 7.946400 6.949300 
31 "E15" 28.23529 26.27451 22.74510 6.340700 6.598900 5.834800 
32 "E7" 25.09804 23.13725 20.00000 5.211700 5.427800 4.863400 
33 "F3" 21.96078 20.39216 17.64706 4.245200 4.425000 4.028500 
34 "G11" 18.82353 17.25490 15.29412 3.429400 3.578300 3.320500 
35 "D14" 15.68627 14.50980 12.54902 2.755500 2.878600 2.732300 
36 "G4" 12.94118 11.76471 10.19608 2.211000 2.313000 2.253400 
37 "B14" 9.803922 9.019608 7.843137 1.783900 1.869000 1.874000 
38 "G15" 7.058824 6.274510 5.490196 1.460900 1.533000 1.583200 
39 "H6" 13.33333 7.058824 87.84314 15.16040 7.103000 71.41840 
40 "C10" 14.11765 33.33333 58.82353 10.29860 9.940000 30.77940 
41 "A5" 106.2745 86.27451 25.49020 74.20500 76.42050 16.79020 
42 "F6" 35.68627 99.21569 70.58824 48.10560 75.92300 56.01700 
43 "E10" 23.92157 63.52941 70.98039 23.85080 30.81310 48.73110 
44 "B6" 96.86275 0.00000 55.68627 43.80000 22.52870 28.43830 
45 "H12" 90.98039 51.76471 40.39216 44.44190 35.21950 18.14060 
46 "B15" 78.03922 43.52941 85.88235 42.49000 29.32280 70.92370 
47 "B4" 73.33333 87.05882 46.27451 50.47210 64.70940 27.65590 
48 "C7" 15.68627 43.92157 30.19608 8.864700 13.39900 10.09860 
49 "G8" 59.60784 31.76471 38.82353 18.87920 14.36070 14.30760 
50 "F13" 75.68627 72.15686 87.05882 52.71800 51.35890 76.42620 
51 "D12" 77.25490 52.94118 67.05882 39.72120 32.87620 43.52070 
52 "F7" 62.35294 83.13725 72.15686 46.80680 58.13090 54.35660 
53 "B11" 26.66667 0.00000 31.76471 4.778600 2.805600 8.853700 
54 "G10" 72.94118 62.74510 38.03922 35.54020 37.11360 17.44040 
55 "A9" 25.49020 35.68627 87.84314 20.08750 14.80720 72.37750 
56 "G13" 8.627451 10.19608 54.50980 6.271800 3.764000 25.51010 
57 "A7" 82.35294 0.00000 27.05882 28.36910 15.01150 7.944200 
58 "H13" 23.92157 67.45098 33.72549 19.15150 31.96000 14.79010 
59 "H2" 40.39216 99.21569 86.66667 54.07650 78.50750 80.75000 
60 "H7" 74.50980 53.33333 49.41176 34.46680 30.88800 24.55510 
61 "A2" 21.96078 0.00000 11.37255 2.767600 1.911600 2.308100 
62 "G6" 64.31373 98.82353 35.68627 52.62510 78.80740 23.16320 
63 "C9" 91.76471 87.05882 86.66667 73.09900 75.02040 79.12000 
64 "D3" 22.35294 60.78431 55.29412 18.89240 26.82360 30.06050 
65 "G1" 82.35294 0.00000 12.54902 27.63480 14.72660 3.679100 
66 "H4" 101.1765 98.82353 72.15686 85.97460 95.08880 59.91200 
67 "G3" 40.39216 58.82353 75.68627 26.85030 29.30220 54.98640 
68 "D6" 47.84314 31.76471 18.82353 12.30120 11.14410 5.262700 
69 "H1" 65.88235 0.00000 56.07843 21.80290 11.18020 27.79960 
70 "D4" 56.86275 25.09804 87.84314 27.61530 15.92990 72.14220 
71 "D9" 92.54902 98.82353 81.56863 80.94030 92.27940 73.72060 
72 "A11" 58.82353 54.50980 58.03922 27.77420 27.79400 32.66140 
73 "C5" 8.235294 20.39216 27.84314 3.599900 4.051000 7.463100 
74 "D7" 40.39216 42.35294 25.49020 12.79930 14.90880 8.081400 
75 "E11" 59.21569 0.00000 35.68627 15.36610 8.216500 11.47700 
76 "F8" 67.45098 85.49020 86.66667 55.43100 64.36320 78.37400 
77 "H8" 57.25490 77.64706 54.50980 37.24070 48.79490 32.61100 
78 "C15" 34.90196 11.37255 26.27451 6.505700 4.410200 6.730000 
79 "E1" 100.7843 98.82353 46.66667 80.38580 92.75420 31.95110 
80 "E2" 104.3137 55.68627 22.74510 56.17290 43.48940 10.36670 
81 "C14" 32.54902 79.60784 62.74510 31.79850 47.39530 41.22650 
82 "H15" 63.13725 26.66667 23.52941 18.26190 12.88520 6.652600 
83 "C12" 42.35294 31.76471 45.88235 13.13440 11.19930 19.02520 
84 "D15" 63.52941 0.00000 27.45098 16.90050 9.094800 7.605600 
85 "F15" 46.66667 63.52941 25.88235 22.25420 30.83800 10.76530 
86 "A15" 59.60784 99.21569 57.25490 53.52180 78.95420 40.34930 
87 "A14" 90.58824 41.96078 47.45098 42.14980 29.50330 22.25160 
88 "F11" 55.68627 3.529412 0.00000 12.04160 6.859000 1.635300 
89 "H3" 51.76471 60.39216 57.25490 26.99830 30.90840 32.60180 
90 "E3" 15.68627 40.39216 49.80392 10.42620 12.60020 22.76380 
91 "F1" 15.29412 16.47059 0.00000 2.627300 3.098600 1.405700 
92 "F14" 56.86275 27.05882 47.05882 18.01340 12.49690 20.10630 
93 "H11" 103.5294 0.00000 87.45098 58.40000 29.09360 72.57440 
94 "B3" 50.98039 54.11765 87.45098 32.16100 28.88010 73.95440 
95 "B1" 39.60784 7.058824 14.50980 6.780500 4.279300 3.149400 
96 "B13" 27.45098 20.00000 24.70588 5.548000 5.029100 6.299900 
97 "F9" 85.09804 39.21569 57.64706 39.12130 26.72330 31.56400 
98 "F12" 16.47059 43.92157 44.31373 10.53050 14.04340 18.52490 
99 "A1" 71.76471 58.43137 13.33333 31.17760 32.39250 7.031300 
100 "D10" 31.76471 85.09804 85.49020 41.42080 56.97900 75.36890 
101 "E9" 100.0000 100.0000 100.0000 95.05000 100.0000 108.9000 
102 "F5" 0.00000 0.00000 0.00000 0.950500 1.000000 1.089000 
103 "A6" 100.0000 0.00000 0.00000 41.77810 22.04740 2.999700 
104 "C1" 0.00000 100.0000 0.00000 36.35290 71.80480 12.88980 
105 "D11" 0.00000 0.00000 100.0000 18.82000 8.147800 95.18850 
106 "B5" 0.00000 100.0000 100.0000 54.22240 78.95260 106.9893 
107 "E13" 100.0000 0.00000 100.0000 59.64760 29.19520 97.09920 
108 "H9" 100.0000 100.0000 0.00000 77.18050 92.85220 14.80050 
0 "A8" 100.0000 100.0000 100.0000 95.05000 100.0000 108.9000 
0 "C11" 100.0000 100.0000 100.0000 95.05000 100.0000 108.9000 
0 "G5" 100.0000 100.0000 100.0000 95.05000 100.0000 108.9000 
0 "H10" 100.0000 100.0000 100.0000 95.05000 100.0000 108.9000 
0 "G12" 100.0000 100.0000 100.0000 95.05000 100.0000 108.9000 
0 "E12" 100.0000 100.0000 100.0000 95.05000 100.0000 108.9000 
0 "C6" 100.0000 100.0000 100.0000 95.05000 100.0000 108.9000 
0 "A13" 100.0000 100.0000 100.0000 95.05000 100.0000 108.9000 
0 "F2" 100.0000 100.0000 100.0000 95.05000 100.0000 108.9000 
0 "F10" 100.0000 100.0000 100.0000 95.05000 100.0000 108.9000 
0 "F4" 100.0000 100.0000 100.0000 95.05000 100.0000 108.9000 
0 "D5" 100.0000 100.0000 100.0000 95.05000 100.0000 108.9000 
END_DATA
