assets/charts/knut/rgb/colormunki/cm_letter_2142p_7pages_portrait_w10_0mm_slow_reading_speed/chart.ti1
CTI1   

DESCRIPTOR "Argyll Calibration Target chart information 1"
ORIGINATOR "ChromIQ"
APPROX_WHITE_POINT "95.050000 100.000000 108.900000"
COLOR_REP "iRGB"
WHITE_COLOR_PATCHES "2"
BLACK_COLOR_PATCHES "2"
CREATED "Sun Aug 16 16:32:02 2026"

NUMBER_OF_FIELDS 7
BEGIN_DATA_FORMAT
SAMPLE_ID RGB_R RGB_G RGB_B XYZ_X XYZ_Y XYZ_Z
END_DATA_FORMAT

NUMBER_OF_SETS 2142
BEGIN_DATA
1 0.0000 0.0000 0.0000 0.9505 1.0000 1.0890
2 0.0000 0.0000 10.0000 1.1296 1.0716 2.0321
3 0.0000 0.0000 20.0000 1.5421 1.2366 4.2041
4 0.0000 0.0000 30.0000 2.2592 1.5235 7.9807
5 0.0000 0.0000 40.0000 3.3248 1.9497 13.5918
6 0.0000 0.0000 50.0000 4.7753 2.5299 21.2302
7 0.0000 0.0000 60.0000 6.6428 3.2769 31.0641
8 0.0000 0.0000 70.0000 8.9558 4.2021 43.2445
9 0.0000 0.0000 80.0000 11.7406 5.3160 57.9089
10 0.0000 0.0000 90.0000 15.0212 6.6283 75.1841
11 0.0000 0.0000 100.0000 18.8200 8.1478 95.1885
12 0.0000 10.0000 0.0000 1.3053 1.7097 1.2073
13 0.0000 10.0000 10.0000 1.4844 1.7813 2.1504
14 0.0000 10.0000 20.0000 1.8969 1.9463 4.3224
15 0.0000 10.0000 30.0000 2.6141 2.2332 8.0990
16 0.0000 10.0000 40.0000 3.6796 2.6594 13.7101
17 0.0000 10.0000 50.0000 5.1301 3.2396 21.3484
18 0.0000 10.0000 60.0000 6.9976 3.9866 31.1824
19 0.0000 10.0000 70.0000 9.3107 4.9118 43.3628
20 0.0000 10.0000 80.0000 12.0954 6.0257 58.0271
21 0.0000 10.0000 90.0000 15.3760 7.3379 75.3024
22 0.0000 10.0000 100.0000 19.1748 8.8575 95.3068
23 0.0000 20.0000 0.0000 2.1225 3.3440 1.4797
24 0.0000 20.0000 10.0000 2.3016 3.4156 2.4228
25 0.0000 20.0000 20.0000 2.7141 3.5806 4.5948
26 0.0000 20.0000 30.0000 3.4312 3.8675 8.3714
27 0.0000 20.0000 40.0000 4.4968 4.2937 13.9825
28 0.0000 20.0000 50.0000 5.9473 4.8739 21.6208
29 0.0000 20.0000 60.0000 7.8148 5.6209 31.4548
30 0.0000 20.0000 70.0000 10.1278 6.5461 43.6351
31 0.0000 20.0000 80.0000 12.9126 7.6600 58.2995
32 0.0000 20.0000 90.0000 16.1932 8.9722 75.5748
33 0.0000 20.0000 100.0000 19.9920 10.4918 95.5792
34 0.0000 30.0000 0.0000 3.5433 6.1857 1.9533
35 0.0000 30.0000 10.0000 3.7224 6.2573 2.8964
36 0.0000 30.0000 20.0000 4.1349 6.4223 5.0684
37 0.0000 30.0000 30.0000 4.8521 6.7092 8.8450
38 0.0000 30.0000 40.0000 5.9176 7.1354 14.4561
39 0.0000 30.0000 50.0000 7.3681 7.7156 22.0944
40 0.0000 30.0000 60.0000 9.2356 8.4626 31.9284
41 0.0000 30.0000 70.0000 11.5487 9.3878 44.1088
42 0.0000 30.0000 80.0000 14.3334 10.5017 58.7731
43 0.0000 30.0000 90.0000 17.6140 11.8139 76.0484
44 0.0000 30.0000 100.0000 21.4128 13.3335 96.0528
45 0.0000 40.0000 0.0000 5.6544 10.4077 2.6570
46 0.0000 40.0000 10.0000 5.8335 10.4794 3.6001
47 0.0000 40.0000 20.0000 6.2459 10.6443 5.7721
48 0.0000 40.0000 30.0000 6.9631 10.9312 9.5487
49 0.0000 40.0000 40.0000 8.0286 11.3574 15.1598
50 0.0000 40.0000 50.0000 9.4792 11.9376 22.7981
51 0.0000 40.0000 60.0000 11.3466 12.6846 32.6320
52 0.0000 40.0000 70.0000 13.6597 13.6098 44.8124
53 0.0000 40.0000 80.0000 16.4445 14.7238 59.4768
54 0.0000 40.0000 90.0000 19.7250 16.0360 76.7521
55 0.0000 40.0000 100.0000 23.5239 17.5555 96.7565
56 0.0000 50.0000 0.0000 8.5281 16.1551 3.6149
57 0.0000 50.0000 10.0000 8.7072 16.2268 4.5580
58 0.0000 50.0000 20.0000 9.1196 16.3918 6.7300
59 0.0000 50.0000 30.0000 9.8368 16.6786 10.5066
60 0.0000 50.0000 40.0000 10.9024 17.1049 16.1177
61 0.0000 50.0000 50.0000 12.3529 17.6851 23.7560
62 0.0000 50.0000 60.0000 14.2203 18.4320 33.5899
63 0.0000 50.0000 70.0000 16.5334 19.3573 45.7703
64 0.0000 50.0000 80.0000 19.3182 20.4712 60.4347
65 0.0000 50.0000 90.0000 22.5987 21.7834 77.7100
66 0.0000 50.0000 100.0000 26.3976 23.3029 97.7144
67 0.0000 60.0000 0.0000 12.2278 23.5546 4.8481
68 0.0000 60.0000 10.0000 12.4069 23.6263 5.7912
69 0.0000 60.0000 20.0000 12.8194 23.7913 7.9632
70 0.0000 60.0000 30.0000 13.5366 24.0781 11.7399
71 0.0000 60.0000 40.0000 14.6021 24.5044 17.3509
72 0.0000 60.0000 50.0000 16.0526 25.0846 24.9893
73 0.0000 60.0000 60.0000 17.9201 25.8315 34.8232
74 0.0000 60.0000 70.0000 20.2331 26.7568 47.0036
75 0.0000 60.0000 80.0000 23.0179 27.8707 61.6680
76 0.0000 60.0000 90.0000 26.2985 29.1829 78.9432
77 0.0000 60.0000 100.0000 30.0973 30.7024 98.9476
78 0.0000 70.0000 0.0000 16.8104 32.7197 6.3756
79 0.0000 70.0000 10.0000 16.9895 32.7914 7.3188
80 0.0000 70.0000 20.0000 17.4019 32.9564 9.4908
81 0.0000 70.0000 30.0000 18.1191 33.2432 13.2674
82 0.0000 70.0000 40.0000 19.1847 33.6694 18.8785
83 0.0000 70.0000 50.0000 20.6352 34.2497 26.5168
84 0.0000 70.0000 60.0000 22.5026 34.9966 36.3507
85 0.0000 70.0000 70.0000 24.8157 35.9219 48.5311
86 0.0000 70.0000 80.0000 27.6005 37.0358 63.1955
87 0.0000 70.0000 90.0000 30.8810 38.3480 80.4707
88 0.0000 70.0000 100.0000 34.6799 39.8675 100.4751
89 0.0000 80.0000 0.0000 22.3274 43.7539 8.2146
90 0.0000 80.0000 10.0000 22.5065 43.8255 9.1578
91 0.0000 80.0000 20.0000 22.9190 43.9905 11.3298
92 0.0000 80.0000 30.0000 23.6362 44.2774 15.1064
93 0.0000 80.0000 40.0000 24.7017 44.7036 20.7175
94 0.0000 80.0000 50.0000 26.1522 45.2838 28.3558
95 0.0000 80.0000 60.0000 28.0197 46.0308 38.1897
96 0.0000 80.0000 70.0000 30.3328 46.9560 50.3701
97 0.0000 80.0000 80.0000 33.1175 48.0699 65.0345
98 0.0000 80.0000 90.0000 36.3981 49.3821 82.3097
99 0.0000 80.0000 100.0000 40.1969 50.9017 102.3141
100 0.0000 90.0000 0.0000 28.8268 56.7526 10.3811
101 0.0000 90.0000 10.0000 29.0059 56.8242 11.3242
102 0.0000 90.0000 20.0000 29.4184 56.9892 13.4962
103 0.0000 90.0000 30.0000 30.1355 57.2761 17.2728
104 0.0000 90.0000 40.0000 31.2011 57.7023 22.8839
105 0.0000 90.0000 50.0000 32.6516 58.2825 30.5223
106 0.0000 90.0000 60.0000 34.5191 59.0295 40.3562
107 0.0000 90.0000 70.0000 36.8321 59.9547 52.5366
108 0.0000 90.0000 80.0000 39.6169 61.0686 67.2009
109 0.0000 90.0000 90.0000 42.8974 62.3808 84.4762
110 0.0000 90.0000 100.0000 46.6963 63.9004 104.4806
111 0.0000 100.0000 0.0000 36.3529 71.8048 12.8898
112 0.0000 100.0000 10.0000 36.5320 71.8764 13.8329
113 0.0000 100.0000 20.0000 36.9445 72.0414 16.0049
114 0.0000 100.0000 30.0000 37.6616 72.3283 19.7815
115 0.0000 100.0000 40.0000 38.7272 72.7545 25.3926
116 0.0000 100.0000 50.0000 40.1777 73.3347 33.0310
117 0.0000 100.0000 60.0000 42.0452 74.0817 42.8649
118 0.0000 100.0000 70.0000 44.3582 75.0069 55.0453
119 0.0000 100.0000 80.0000 47.1430 76.1208 69.7097
120 0.0000 100.0000 90.0000 50.4236 77.4331 86.9849
121 0.0000 100.0000 100.0000 54.2224 78.9526 106.9893
122 10.0000 0.0000 0.0000 1.3597 1.2110 1.1082
123 10.0000 0.0000 10.0000 1.5388 1.2826 2.0513
124 10.0000 0.0000 20.0000 1.9513 1.4476 4.2233
125 10.0000 0.0000 30.0000 2.6685 1.7345 7.9999
126 10.0000 0.0000 40.0000 3.7340 2.1607 13.6110
127 10.0000 0.0000 50.0000 5.1845 2.7409 21.2493
128 10.0000 0.0000 60.0000 7.0520 3.4879 31.0832
129 10.0000 0.0000 70.0000 9.3650 4.4131 43.2636
130 10.0000 0.0000 80.0000 12.1498 5.5270 57.9280
131 10.0000 0.0000 90.0000 15.4304 6.8392 75.2033
132 10.0000 0.0000 100.0000 19.2292 8.3588 95.2077
133 10.0000 10.0000 0.0000 1.7145 1.9206 1.2264
134 10.0000 10.0000 10.0000 1.8936 1.9923 2.1696
135 10.0000 10.0000 20.0000 2.3061 2.1572 4.3416
136 10.0000 10.0000 30.0000 3.0233 2.4441 8.1182
137 10.0000 10.0000 40.0000 4.0888 2.8703 13.7293
138 10.0000 10.0000 50.0000 5.5393 3.4505 21.3676
139 10.0000 10.0000 60.0000 7.4068 4.1975 31.2015
140 10.0000 10.0000 70.0000 9.7199 5.1228 43.3819
141 10.0000 10.0000 80.0000 12.5046 6.2367 58.0463
142 10.0000 10.0000 90.0000 15.7852 7.5489 75.3215
143 10.0000 10.0000 100.0000 19.5840 9.0684 95.3259
144 10.0000 20.0000 0.0000 2.5317 3.5549 1.4988
145 10.0000 20.0000 10.0000 2.7108 3.6266 2.4420
146 10.0000 20.0000 20.0000 3.1233 3.7916 4.6140
147 10.0000 20.0000 30.0000 3.8404 4.0784 8.3906
148 10.0000 20.0000 40.0000 4.9060 4.5046 14.0017
149 10.0000 20.0000 50.0000 6.3565 5.0849 21.6400
150 10.0000 20.0000 60.0000 8.2240 5.8318 31.4739
151 10.0000 20.0000 70.0000 10.5370 6.7571 43.6543
152 10.0000 20.0000 80.0000 13.3218 7.8710 58.3187
153 10.0000 20.0000 90.0000 16.6024 9.1832 75.5939
154 10.0000 20.0000 100.0000 20.4012 10.7027 95.5983
155 10.0000 30.0000 0.0000 3.9525 6.3966 1.9724
156 10.0000 30.0000 10.0000 4.1316 6.4683 2.9156
157 10.0000 30.0000 20.0000 4.5441 6.6333 5.0876
158 10.0000 30.0000 30.0000 5.2613 6.9201 8.8642
159 10.0000 30.0000 40.0000 6.3268 7.3463 14.4753
160 10.0000 30.0000 50.0000 7.7774 7.9265 22.1136
161 10.0000 30.0000 60.0000 9.6448 8.6735 31.9475
162 10.0000 30.0000 70.0000 11.9579 9.5988 44.1279
163 10.0000 30.0000 80.0000 14.7426 10.7127 58.7923
164 10.0000 30.0000 90.0000 18.0232 12.0249 76.0675
165 10.0000 30.0000 100.0000 21.8220 13.5444 96.0719
166 10.0000 40.0000 0.0000 6.0636 10.6187 2.6761
167 10.0000 40.0000 10.0000 6.2427 10.6903 3.6192
168 10.0000 40.0000 20.0000 6.6551 10.8553 5.7912
169 10.0000 40.0000 30.0000 7.3723 11.1422 9.5679
170 10.0000 40.0000 40.0000 8.4379 11.5684 15.1789
171 10.0000 40.0000 50.0000 9.8884 12.1486 22.8173
172 10.0000 40.0000 60.0000 11.7558 12.8956 32.6512
173 10.0000 40.0000 70.0000 14.0689 13.8208 44.8316
174 10.0000 40.0000 80.0000 16.8537 14.9347 59.4960
175 10.0000 40.0000 90.0000 20.1342 16.2469 76.7712
176 10.0000 40.0000 100.0000 23.9331 17.7665 96.7756
177 10.0000 50.0000 0.0000 8.9373 16.3661 3.6340
178 10.0000 50.0000 10.0000 9.1164 16.4377 4.5772
179 10.0000 50.0000 20.0000 9.5288 16.6027 6.7491
180 10.0000 50.0000 30.0000 10.2460 16.8896 10.5258
181 10.0000 50.0000 40.0000 11.3116 17.3158 16.1368
182 10.0000 50.0000 50.0000 12.7621 17.8960 23.7752
183 10.0000 50.0000 60.0000 14.6295 18.6430 33.6091
184 10.0000 50.0000 70.0000 16.9426 19.5682 45.7895
185 10.0000 50.0000 80.0000 19.7274 20.6821 60.4539
186 10.0000 50.0000 90.0000 23.0079 21.9944 77.7291
187 10.0000 50.0000 100.0000 26.8068 23.5139 97.7335
188 10.0000 60.0000 0.0000 12.6370 23.7656 4.8673
189 10.0000 60.0000 10.0000 12.8161 23.8372 5.8104
190 10.0000 60.0000 20.0000 13.2286 24.0022 7.9824
191 10.0000 60.0000 30.0000 13.9458 24.2891 11.7590
192 10.0000 60.0000 40.0000 15.0113 24.7153 17.3701
193 10.0000 60.0000 50.0000 16.4618 25.2955 25.0084
194 10.0000 60.0000 60.0000 18.3293 26.0425 34.8423
195 10.0000 60.0000 70.0000 20.6424 26.9677 47.0227
196 10.0000 60.0000 80.0000 23.4271 28.0816 61.6871
197 10.0000 60.0000 90.0000 26.7077 29.3939 78.9624
198 10.0000 60.0000 100.0000 30.5065 30.9134 98.9668
199 10.0000 70.0000 0.0000 17.2196 32.9307 6.3948
200 10.0000 70.0000 10.0000 17.3987 33.0023 7.3379
201 10.0000 70.0000 20.0000 17.8111 33.1673 9.5099
202 10.0000 70.0000 30.0000 18.5283 33.4542 13.2865
203 10.0000 70.0000 40.0000 19.5939 33.8804 18.8976
204 10.0000 70.0000 50.0000 21.0444 34.4606 26.5359
205 10.0000 70.0000 60.0000 22.9118 35.2076 36.3699
206 10.0000 70.0000 70.0000 25.2249 36.1328 48.5503
207 10.0000 70.0000 80.0000 28.0097 37.2467 63.2146
208 10.0000 70.0000 90.0000 31.2902 38.5589 80.4899
209 10.0000 70.0000 100.0000 35.0891 40.0785 100.4943
210 10.0000 80.0000 0.0000 22.7366 43.9648 8.2338
211 10.0000 80.0000 10.0000 22.9157 44.0365 9.1769
212 10.0000 80.0000 20.0000 23.3282 44.2015 11.3489
213 10.0000 80.0000 30.0000 24.0454 44.4883 15.1255
214 10.0000 80.0000 40.0000 25.1109 44.9145 20.7366
215 10.0000 80.0000 50.0000 26.5615 45.4948 28.3750
216 10.0000 80.0000 60.0000 28.4289 46.2417 38.2089
217 10.0000 80.0000 70.0000 30.7420 47.1670 50.3893
218 10.0000 80.0000 80.0000 33.5267 48.2809 65.0536
219 10.0000 80.0000 90.0000 36.8073 49.5931 82.3289
220 10.0000 80.0000 100.0000 40.6061 51.1126 102.3333
221 10.0000 90.0000 0.0000 29.2360 56.9635 10.4002
222 10.0000 90.0000 10.0000 29.4151 57.0352 11.3434
223 10.0000 90.0000 20.0000 29.8276 57.2002 13.5154
224 10.0000 90.0000 30.0000 30.5447 57.4870 17.2920
225 10.0000 90.0000 40.0000 31.6103 57.9132 22.9031
226 10.0000 90.0000 50.0000 33.0608 58.4934 30.5414
227 10.0000 90.0000 60.0000 34.9283 59.2404 40.3753
228 10.0000 90.0000 70.0000 37.2413 60.1657 52.5557
229 10.0000 90.0000 80.0000 40.0261 61.2796 67.2201
230 10.0000 90.0000 90.0000 43.3067 62.5918 84.4953
231 10.0000 90.0000 100.0000 47.1055 64.1113 104.4997
232 10.0000 100.0000 0.0000 36.7621 72.0158 12.9090
233 10.0000 100.0000 10.0000 36.9412 72.0874 13.8521
234 10.0000 100.0000 20.0000 37.3537 72.2524 16.0241
235 10.0000 100.0000 30.0000 38.0709 72.5393 19.8007
236 10.0000 100.0000 40.0000 39.1364 72.9655 25.4118
237 10.0000 100.0000 50.0000 40.5869 73.5457 33.0501
238 10.0000 100.0000 60.0000 42.4544 74.2927 42.8840
239 10.0000 100.0000 70.0000 44.7674 75.2179 55.0644
240 10.0000 100.0000 80.0000 47.5522 76.3318 69.7288
241 10.0000 100.0000 90.0000 50.8328 77.6440 87.0041
242 10.0000 100.0000 100.0000 54.6316 79.1636 107.0085
243 20.0000 0.0000 0.0000 2.3021 1.6968 1.1523
244 20.0000 0.0000 10.0000 2.4812 1.7684 2.0954
245 20.0000 0.0000 20.0000 2.8937 1.9334 4.2674
246 20.0000 0.0000 30.0000 3.6108 2.2203 8.0440
247 20.0000 0.0000 40.0000 4.6764 2.6465 13.6551
248 20.0000 0.0000 50.0000 6.1269 3.2267 21.2934
249 20.0000 0.0000 60.0000 7.9944 3.9737 31.1273
250 20.0000 0.0000 70.0000 10.3074 4.8989 43.3077
251 20.0000 0.0000 80.0000 13.0922 6.0128 57.9721
252 20.0000 0.0000 90.0000 16.3728 7.3250 75.2474
253 20.0000 0.0000 100.0000 20.1716 8.8446 95.2518
254 20.0000 10.0000 0.0000 2.6569 2.4064 1.2705
255 20.0000 10.0000 10.0000 2.8360 2.4781 2.2137
256 20.0000 10.0000 20.0000 3.2485 2.6431 4.3857
257 20.0000 10.0000 30.0000 3.9657 2.9299 8.1623
258 20.0000 10.0000 40.0000 5.0312 3.3561 13.7734
259 20.0000 10.0000 50.0000 6.4817 3.9364 21.4117
260 20.0000 10.0000 60.0000 8.3492 4.6833 31.2456
261 20.0000 10.0000 70.0000 10.6622 5.6086 43.4260
262 20.0000 10.0000 80.0000 13.4470 6.7225 58.0904
263 20.0000 10.0000 90.0000 16.7276 8.0347 75.3656
264 20.0000 10.0000 100.0000 20.5264 9.5542 95.3700
265 20.0000 20.0000 0.0000 3.4741 4.0407 1.5429
266 20.0000 20.0000 10.0000 3.6532 4.1124 2.4861
267 20.0000 20.0000 20.0000 4.0656 4.2774 4.6581
268 20.0000 20.0000 30.0000 4.7828 4.5642 8.4347
269 20.0000 20.0000 40.0000 5.8484 4.9905 14.0458
270 20.0000 20.0000 50.0000 7.2989 5.5707 21.6841
271 20.0000 20.0000 60.0000 9.1663 6.3177 31.5180
272 20.0000 20.0000 70.0000 11.4794 7.2429 43.6984
273 20.0000 20.0000 80.0000 14.2642 8.3568 58.3628
274 20.0000 20.0000 90.0000 17.5447 9.6690 75.6380
275 20.0000 20.0000 100.0000 21.3436 11.1885 95.6424
276 20.0000 30.0000 0.0000 4.8949 6.8824 2.0165
277 20.0000 30.0000 10.0000 5.0740 6.9541 2.9597
278 20.0000 30.0000 20.0000 5.4865 7.1191 5.1317
279 20.0000 30.0000 30.0000 6.2037 7.4059 8.9083
280 20.0000 30.0000 40.0000 7.2692 7.8322 14.5194
281 20.0000 30.0000 50.0000 8.7197 8.4124 22.1577
282 20.0000 30.0000 60.0000 10.5872 9.1593 31.9916
283 20.0000 30.0000 70.0000 12.9003 10.0846 44.1720
284 20.0000 30.0000 80.0000 15.6850 11.1985 58.8364
285 20.0000 30.0000 90.0000 18.9656 12.5107 76.1116
286 20.0000 30.0000 100.0000 22.7644 14.0302 96.1160
287 20.0000 40.0000 0.0000 7.0059 11.1045 2.7202
288 20.0000 40.0000 10.0000 7.1850 11.1761 3.6633
289 20.0000 40.0000 20.0000 7.5975 11.3411 5.8353
290 20.0000 40.0000 30.0000 8.3147 11.6280 9.6120
291 20.0000 40.0000 40.0000 9.3802 12.0542 15.2230
292 20.0000 40.0000 50.0000 10.8308 12.6344 22.8614
293 20.0000 40.0000 60.0000 12.6982 13.3814 32.6953
294 20.0000 40.0000 70.0000 15.0113 14.3066 44.8757
295 20.0000 40.0000 80.0000 17.7960 15.4205 59.5401
296 20.0000 40.0000 90.0000 21.0766 16.7327 76.8153
297 20.0000 40.0000 100.0000 24.8754 18.2523 96.8197
298 20.0000 50.0000 0.0000 9.8797 16.8519 3.6781
299 20.0000 50.0000 10.0000 10.0588 16.9236 4.6213
300 20.0000 50.0000 20.0000 10.4712 17.0885 6.7933
301 20.0000 50.0000 30.0000 11.1884 17.3754 10.5699
302 20.0000 50.0000 40.0000 12.2539 17.8016 16.1810
303 20.0000 50.0000 50.0000 13.7045 18.3818 23.8193
304 20.0000 50.0000 60.0000 15.5719 19.1288 33.6532
305 20.0000 50.0000 70.0000 17.8850 20.0540 45.8336
306 20.0000 50.0000 80.0000 20.6698 21.1679 60.4980
307 20.0000 50.0000 90.0000 23.9503 22.4802 77.7732
308 20.0000 50.0000 100.0000 27.7492 23.9997 97.7776
309 20.0000 60.0000 0.0000 13.5794 24.2514 4.9114
310 20.0000 60.0000 10.0000 13.7585 24.3231 5.8545
311 20.0000 60.0000 20.0000 14.1710 24.4880 8.0265
312 20.0000 60.0000 30.0000 14.8882 24.7749 11.8031
313 20.0000 60.0000 40.0000 15.9537 25.2011 17.4142
314 20.0000 60.0000 50.0000 17.4042 25.7813 25.0525
315 20.0000 60.0000 60.0000 19.2717 26.5283 34.8865
316 20.0000 60.0000 70.0000 21.5847 27.4535 47.0668
317 20.0000 60.0000 80.0000 24.3695 28.5674 61.7312
318 20.0000 60.0000 90.0000 27.6501 29.8797 79.0065
319 20.0000 60.0000 100.0000 31.4489 31.3992 99.0109
320 20.0000 70.0000 0.0000 18.1620 33.4165 6.4389
321 20.0000 70.0000 10.0000 18.3411 33.4881 7.3820
322 20.0000 70.0000 20.0000 18.7535 33.6531 9.5540
323 20.0000 70.0000 30.0000 19.4707 33.9400 13.3306
324 20.0000 70.0000 40.0000 20.5362 34.3662 18.9417
325 20.0000 70.0000 50.0000 21.9868 34.9464 26.5800
326 20.0000 70.0000 60.0000 23.8542 35.6934 36.4140
327 20.0000 70.0000 70.0000 26.1673 36.6186 48.5944
328 20.0000 70.0000 80.0000 28.9520 37.7325 63.2587
329 20.0000 70.0000 90.0000 32.2326 39.0448 80.5340
330 20.0000 70.0000 100.0000 36.0315 40.5643 100.5384
331 20.0000 80.0000 0.0000 23.6790 44.4506 8.2779
332 20.0000 80.0000 10.0000 23.8581 44.5223 9.2210
333 20.0000 80.0000 20.0000 24.2706 44.6873 11.3930
334 20.0000 80.0000 30.0000 24.9878 44.9741 15.1696
335 20.0000 80.0000 40.0000 26.0533 45.4004 20.7807
336 20.0000 80.0000 50.0000 27.5038 45.9806 28.4191
337 20.0000 80.0000 60.0000 29.3713 46.7276 38.2530
338 20.0000 80.0000 70.0000 31.6844 47.6528 50.4334
339 20.0000 80.0000 80.0000 34.4691 48.7667 65.0977
340 20.0000 80.0000 90.0000 37.7497 50.0789 82.3730
341 20.0000 80.0000 100.0000 41.5485 51.5984 102.3774
342 20.0000 90.0000 0.0000 30.1784 57.4493 10.4443
343 20.0000 90.0000 10.0000 30.3575 57.5210 11.3875
344 20.0000 90.0000 20.0000 30.7699 57.6860 13.5595
345 20.0000 90.0000 30.0000 31.4871 57.9728 17.3361
346 20.0000 90.0000 40.0000 32.5527 58.3991 22.9472
347 20.0000 90.0000 50.0000 34.0032 58.9793 30.5855
348 20.0000 90.0000 60.0000 35.8706 59.7262 40.4194
349 20.0000 90.0000 70.0000 38.1837 60.6515 52.5998
350 20.0000 90.0000 80.0000 40.9685 61.7654 67.2642
351 20.0000 90.0000 90.0000 44.2490 63.0776 84.5395
352 20.0000 90.0000 100.0000 48.0479 64.5971 104.5438
353 20.0000 100.0000 0.0000 37.7045 72.5016 12.9531
354 20.0000 100.0000 10.0000 37.8836 72.5732 13.8962
355 20.0000 100.0000 20.0000 38.2961 72.7382 16.0682
356 20.0000 100.0000 30.0000 39.0132 73.0251 19.8448
357 20.0000 100.0000 40.0000 40.0788 73.4513 25.4559
358 20.0000 100.0000 50.0000 41.5293 74.0315 33.0942
359 20.0000 100.0000 60.0000 43.3968 74.7785 42.9281
360 20.0000 100.0000 70.0000 45.7098 75.7037 55.1085
361 20.0000 100.0000 80.0000 48.4946 76.8176 69.7729
362 20.0000 100.0000 90.0000 51.7752 78.1298 87.0482
363 20.0000 100.0000 100.0000 55.5740 79.6494 107.0526
364 30.0000 0.0000 0.0000 3.9407 2.5415 1.2289
365 30.0000 0.0000 10.0000 4.1198 2.6131 2.1721
366 30.0000 0.0000 20.0000 4.5322 2.7781 4.3441
367 30.0000 0.0000 30.0000 5.2494 3.0650 8.1207
368 30.0000 0.0000 40.0000 6.3150 3.4912 13.7318
369 30.0000 0.0000 50.0000 7.7655 4.0714 21.3701
370 30.0000 0.0000 60.0000 9.6329 4.8184 31.2040
371 30.0000 0.0000 70.0000 11.9460 5.7436 43.3844
372 30.0000 0.0000 80.0000 14.7308 6.8575 58.0488
373 30.0000 0.0000 90.0000 18.0113 8.1698 75.3240
374 30.0000 0.0000 100.0000 21.8102 9.6893 95.3284
375 30.0000 10.0000 0.0000 4.2955 3.2512 1.3472
376 30.0000 10.0000 10.0000 4.4746 3.3228 2.2904
377 30.0000 10.0000 20.0000 4.8871 3.4878 4.4624
378 30.0000 10.0000 30.0000 5.6042 3.7747 8.2390
379 30.0000 10.0000 40.0000 6.6698 4.2009 13.8501
380 30.0000 10.0000 50.0000 8.1203 4.7811 21.4884
381 30.0000 10.0000 60.0000 9.9878 5.5281 31.3223
382 30.0000 10.0000 70.0000 12.3008 6.4533 43.5027
383 30.0000 10.0000 80.0000 15.0856 7.5672 58.1671
384 30.0000 10.0000 90.0000 18.3662 8.8794 75.4423
385 30.0000 10.0000 100.0000 22.1650 10.3990 95.4467
386 30.0000 20.0000 0.0000 5.1127 4.8855 1.6196
387 30.0000 20.0000 10.0000 5.2918 4.9571 2.5627
388 30.0000 20.0000 20.0000 5.7042 5.1221 4.7347
389 30.0000 20.0000 30.0000 6.4214 5.4090 8.5113
390 30.0000 20.0000 40.0000 7.4869 5.8352 14.1224
391 30.0000 20.0000 50.0000 8.9375 6.4154 21.7608
392 30.0000 20.0000 60.0000 10.8049 7.1624 31.5947
393 30.0000 20.0000 70.0000 13.1180 8.0876 43.7751
394 30.0000 20.0000 80.0000 15.9028 9.2015 58.4395
395 30.0000 20.0000 90.0000 19.1833 10.5137 75.7147
396 30.0000 20.0000 100.0000 22.9822 12.0333 95.7191
397 30.0000 30.0000 0.0000 6.5335 7.7272 2.0932
398 30.0000 30.0000 10.0000 6.7126 7.7988 3.0364
399 30.0000 30.0000 20.0000 7.1251 7.9638 5.2084
400 30.0000 30.0000 30.0000 7.8422 8.2507 8.9850
401 30.0000 30.0000 40.0000 8.9078 8.6769 14.5961
402 30.0000 30.0000 50.0000 10.3583 9.2571 22.2344
403 30.0000 30.0000 60.0000 12.2258 10.0041 32.0683
404 30.0000 30.0000 70.0000 14.5388 10.9293 44.2487
405 30.0000 30.0000 80.0000 17.3236 12.0432 58.9131
406 30.0000 30.0000 90.0000 20.6042 13.3554 76.1883
407 30.0000 30.0000 100.0000 24.4030 14.8750 96.1927
408 30.0000 40.0000 0.0000 8.6445 11.9492 2.7969
409 30.0000 40.0000 10.0000 8.8236 12.0208 3.7400
410 30.0000 40.0000 20.0000 9.2361 12.1858 5.9120
411 30.0000 40.0000 30.0000 9.9533 12.4727 9.6886
412 30.0000 40.0000 40.0000 11.0188 12.8989 15.2997
413 30.0000 40.0000 50.0000 12.4693 13.4791 22.9381
414 30.0000 40.0000 60.0000 14.3368 14.2261 32.7720
415 30.0000 40.0000 70.0000 16.6499 15.1513 44.9524
416 30.0000 40.0000 80.0000 19.4346 16.2652 59.6167
417 30.0000 40.0000 90.0000 22.7152 17.5775 76.8920
418 30.0000 40.0000 100.0000 26.5140 19.0970 96.8964
419 30.0000 50.0000 0.0000 11.5182 17.6966 3.7548
420 30.0000 50.0000 10.0000 11.6973 17.7683 4.6979
421 30.0000 50.0000 20.0000 12.1098 17.9333 6.8699
422 30.0000 50.0000 30.0000 12.8270 18.2201 10.6465
423 30.0000 50.0000 40.0000 13.8925 18.6463 16.2576
424 30.0000 50.0000 50.0000 15.3430 19.2266 23.8960
425 30.0000 50.0000 60.0000 17.2105 19.9735 33.7299
426 30.0000 50.0000 70.0000 19.5236 20.8988 45.9103
427 30.0000 50.0000 80.0000 22.3083 22.0127 60.5746
428 30.0000 50.0000 90.0000 25.5889 23.3249 77.8499
429 30.0000 50.0000 100.0000 29.3877 24.8444 97.8543
430 30.0000 60.0000 0.0000 15.2180 25.0961 4.9880
431 30.0000 60.0000 10.0000 15.3971 25.1678 5.9312
432 30.0000 60.0000 20.0000 15.8096 25.3328 8.1032
433 30.0000 60.0000 30.0000 16.5267 25.6196 11.8798
434 30.0000 60.0000 40.0000 17.5923 26.0458 17.4909
435 30.0000 60.0000 50.0000 19.0428 26.6261 25.1292
436 30.0000 60.0000 60.0000 20.9103 27.3730 34.9631
437 30.0000 60.0000 70.0000 23.2233 28.2983 47.1435
438 30.0000 60.0000 80.0000 26.0081 29.4122 61.8079
439 30.0000 60.0000 90.0000 29.2887 30.7244 79.0831
440 30.0000 60.0000 100.0000 33.0875 32.2439 99.0875
441 30.0000 70.0000 0.0000 19.8005 34.2612 6.5156
442 30.0000 70.0000 10.0000 19.9796 34.3329 7.4587
443 30.0000 70.0000 20.0000 20.3921 34.4978 9.6307
444 30.0000 70.0000 30.0000 21.1093 34.7847 13.4073
445 30.0000 70.0000 40.0000 22.1748 35.2109 19.0184
446 30.0000 70.0000 50.0000 23.6253 35.7911 26.6567
447 30.0000 70.0000 60.0000 25.4928 36.5381 36.4907
448 30.0000 70.0000 70.0000 27.8059 37.4634 48.6710
449 30.0000 70.0000 80.0000 30.5906 38.5773 63.3354
450 30.0000 70.0000 90.0000 33.8712 39.8895 80.6107
451 30.0000 70.0000 100.0000 37.6700 41.4090 100.6151
452 30.0000 80.0000 0.0000 25.3176 45.2954 8.3546
453 30.0000 80.0000 10.0000 25.4967 45.3670 9.2977
454 30.0000 80.0000 20.0000 25.9092 45.5320 11.4697
455 30.0000 80.0000 30.0000 26.6264 45.8189 15.2463
456 30.0000 80.0000 40.0000 27.6919 46.2451 20.8574
457 30.0000 80.0000 50.0000 29.1424 46.8253 28.4957
458 30.0000 80.0000 60.0000 31.0099 47.5723 38.3297
459 30.0000 80.0000 70.0000 33.3229 48.4975 50.5101
460 30.0000 80.0000 80.0000 36.1077 49.6114 65.1744
461 30.0000 80.0000 90.0000 39.3883 50.9236 82.4497
462 30.0000 80.0000 100.0000 43.1871 52.4432 102.4541
463 30.0000 90.0000 0.0000 31.8170 58.2941 10.5210
464 30.0000 90.0000 10.0000 31.9961 58.3657 11.4642
465 30.0000 90.0000 20.0000 32.4085 58.5307 13.6362
466 30.0000 90.0000 30.0000 33.1257 58.8176 17.4128
