demo-projects/old/Demo-Report-Matrix-2026-08-10_232125/runs/run1/verifications/2026-08-01_100000/Demo-Report-Matrix-verify.ti3
CTI3   
KEYWORD "CHROMIQ_VERIFICATION"
CHROMIQ_VERIFICATION "true"

DESCRIPTOR "Argyll Calibration Target chart information 3"
ORIGINATOR "Argyll fakeread"
CREATED "Mon Aug 10 23:19:49 2026"
DEVICE_CLASS "DISPLAY"
COLOR_REP "iRGB_XYZ"

KEYWORD "CHROMIQ_MEASURED"
CHROMIQ_MEASURED "2026-08-01T10:00:00"
TARGET_INSTRUMENT "X-Rite ColorMunki"
NUMBER_OF_FIELDS 7
BEGIN_DATA_FORMAT
SAMPLE_ID RGB_R RGB_G RGB_B XYZ_X XYZ_Y XYZ_Z 
END_DATA_FORMAT

NUMBER_OF_SETS 108
BEGIN_DATA
1 107.7255 98.89800 86.06100 89.50036 96.69865 83.00239 
2 107.7255 98.89800 86.06100 89.03647 95.89213 82.48252 
3 107.7255 98.89800 86.06100 89.70871 97.15007 82.96173 
4 107.7255 98.89800 86.06100 89.40186 96.66802 82.45972 
5 0.00000 0.00000 0.00000 0.0000587172 0.000117019 0.0000198906 
6 0.00000 0.00000 0.00000 0.0000311735 0.0000129412 0.000150695 
7 0.00000 0.00000 0.00000 0.0000116314 6.03173e-06 6.07206e-07 
8 0.00000 0.00000 0.00000 0.000254679 0.000127745 0.000390598 
9 104.1169 95.58500 83.17800 85.97013 91.52204 76.09238 
10 100.5198 92.28270 80.30440 82.53531 85.90996 71.13783 
11 96.93340 88.99020 77.43930 76.58335 79.36367 65.10031 
12 93.35960 85.70920 74.58410 70.39361 72.77879 60.91920 
13 89.79750 82.43900 71.73840 65.16866 67.64695 55.30166 
14 86.24720 79.17970 68.90220 59.11148 61.26123 50.93147 
15 82.71100 75.93330 66.07710 54.35217 56.02644 46.98811 
16 79.18720 72.69820 63.26200 48.45539 49.88233 41.51051 
17 75.67720 69.47580 60.45790 44.55155 46.03628 38.39560 
18 72.18150 66.26660 57.66520 39.67969 41.24853 34.02377 
19 68.70210 63.07230 54.88550 36.32147 37.32711 31.23085 
20 65.23740 59.89150 52.11760 32.04193 33.41953 27.58449 
21 61.78830 56.72500 49.36210 28.47656 29.94642 24.33777 
22 58.35590 53.57390 46.62000 25.09048 25.94174 21.15682 
23 54.94350 50.44120 43.89390 21.86248 22.53541 18.89702 
24 51.54810 47.32410 41.18140 19.35053 19.75120 16.92151 
25 48.17180 44.22430 38.48400 16.89188 17.58533 14.26844 
26 44.81720 41.14460 35.80400 14.05375 14.35816 12.74493 
27 41.48580 38.08620 33.14260 12.07151 12.48587 10.59471 
28 38.17460 35.04640 30.49740 10.04751 10.28795 8.926290 
29 34.89110 32.03200 27.87420 8.477965 8.909416 7.118244 
30 31.63650 29.04410 25.27420 6.531035 6.773188 5.657112 
31 28.40950 26.08150 22.69610 5.191000 5.339394 4.419902 
32 25.21220 23.14620 20.14180 4.096619 4.246502 3.578835 
33 22.05340 20.24630 17.61830 3.086803 3.146903 2.541581 
34 18.93210 17.38070 15.12470 2.160946 2.254644 1.859753 
35 15.86120 14.56150 12.67140 1.533777 1.576296 1.436489 
36 12.84160 11.78930 10.25900 0.961537 1.009541 0.795953 
37 9.877200 9.067900 7.890800 0.513001 0.529554 0.391128 
38 6.966300 6.395500 5.565300 0.252898 0.285344 0.186146 
39 13.48720 7.243000 87.87860 14.43521 6.077943 72.25579 
40 14.12040 33.26050 58.71290 9.465621 8.829815 31.26254 
41 106.2431 86.41380 25.55240 67.54378 72.43463 15.64154 
42 35.42420 99.17970 70.71770 47.66626 75.16460 56.35962 
43 23.90350 63.49790 70.83070 23.52666 30.69985 49.19740 
44 96.91580 0.00000 55.78150 43.02583 21.75008 28.23110 
45 90.97290 51.64450 40.41540 44.62240 35.25253 17.43878 
46 77.88680 43.57450 85.98420 42.52515 29.15425 70.99355 
47 73.39070 87.22350 46.13200 50.86077 65.38824 27.85165 
48 15.62230 43.82860 30.36260 7.848431 12.59776 8.970946 
49 59.52280 31.92320 38.64740 17.91943 13.24841 13.48718 
50 75.68720 72.14510 86.99820 53.26492 51.72913 77.04165 
51 77.40120 52.93340 67.18190 40.33640 33.45356 43.97306 
52 62.25520 83.01150 71.96500 47.04105 58.58893 53.98047 
53 26.76100 0.00000 31.57930 3.646433 1.735210 7.389597 
54 72.82150 62.82050 38.02550 35.69762 37.29879 16.79102 
55 25.54350 35.64700 87.72790 19.59821 13.99721 73.74503 
56 8.846100 10.36450 54.48830 5.181463 2.468390 25.08235 
57 82.43140 0.00000 27.08370 28.02760 14.42000 6.748695 
58 23.69350 67.58250 33.64940 18.66620 31.94426 14.21876 
59 40.13780 99.22200 86.51960 53.97040 78.68737 80.84421 
60 74.51740 53.51010 49.30020 34.90839 31.34389 24.41412 
61 21.86250 0.00000 11.29470 1.752662 0.891845 0.879096 
62 64.35280 99.02020 35.61310 52.36990 78.17418 22.39569 
63 91.60120 86.98460 86.54090 73.50990 75.55570 79.89941 
64 22.16500 60.63150 55.26660 18.38412 26.72829 29.71359 
65 82.53700 0.00000 12.45260 27.32855 14.15280 2.360911 
66 101.1333 98.89890 72.30410 84.75299 94.04427 60.47055 
67 40.56270 58.86910 75.57140 26.81015 29.80365 54.99800 
68 47.66770 31.86210 18.97140 11.44869 10.16971 3.886536 
69 65.78420 0.00000 56.18210 22.21810 10.93906 28.09421 
70 56.88920 25.21790 87.69530 27.51311 15.35183 72.04013 
71 92.37190 98.98630 81.63290 81.08749 91.62195 73.68685 
72 58.65250 54.52890 58.09720 28.15989 28.06176 33.27932 
73 8.032500 20.46470 27.89300 2.388686 2.763154 6.214574 
74 40.53630 42.42310 25.42630 11.78464 13.86409 6.635572 
75 59.06320 0.00000 35.59640 14.79307 7.458419 10.61255 
76 67.27270 85.42660 86.76060 57.01569 66.19974 79.83122 
77 57.20090 77.58500 54.51760 37.44331 48.74009 32.62498 
78 35.01060 11.53670 26.31310 5.372565 3.073476 5.513947 
79 100.8763 98.83940 46.69830 79.54401 92.34179 32.02834 
80 104.3442 55.45550 22.75010 51.54237 40.92860 9.041692 
81 32.62530 79.42860 62.62700 31.72018 47.77235 41.89323 
82 62.96800 26.70170 23.36330 17.53366 12.03943 5.424772 
83 42.38350 31.61970 45.80530 12.57144 10.52542 18.48548 
84 63.73050 0.00000 27.57280 16.49732 8.427586 6.754019 
85 46.74900 63.49890 25.69600 21.77380 30.51375 9.734087 
86 59.45760 99.07750 57.28900 53.26227 78.56365 40.31805 
87 90.62790 41.74490 47.33260 42.07588 29.02734 21.69069 
88 55.59190 3.135700 0.00000 11.43874 5.948844 0.600457 
89 51.63540 60.55040 57.42370 27.07280 30.92637 32.73674 
90 15.52690 40.47440 49.86120 9.642380 11.96788 22.29871 
91 15.47070 16.59970 0.00000 1.412215 1.713144 0.264444 
92 56.97850 26.88180 47.17740 17.44229 11.68343 19.41771 
93 103.6540 0.00000 87.41630 54.68581 26.84934 72.64240 
94 50.83320 54.05170 87.44360 32.58198 29.28576 75.50829 
95 39.53340 6.899700 14.50670 5.811239 3.120456 1.608511 
96 27.55500 20.13270 24.75280 4.366502 3.695043 4.869867 
97 85.26750 39.05840 57.81320 38.97239 26.02739 32.09132 
98 16.47650 43.75960 44.24620 9.564257 13.08052 17.61545 
99 71.67120 58.49990 13.14650 31.39693 32.94160 5.902832 
100 31.54260 85.21530 85.43830 41.97415 58.22612 76.42754 
101 100.0000 100.0000 100.0000 94.61074 99.58278 108.8512 
102 0.00000 0.00000 0.00000 0.00000 0.00000 0.00000 
103 100.0000 0.00000 0.00000 40.91058 21.21510 2.135694 
104 0.00000 100.0000 0.00000 35.30164 70.35362 11.95873 
105 0.00000 0.00000 100.0000 18.15321 7.388320 94.64731 
106 0.00000 100.0000 100.0000 53.68452 78.56010 105.5759 
107 100.0000 0.00000 100.0000 59.12826 28.63546 96.78610 
108 100.0000 100.0000 0.00000 76.60345 91.97230 14.15375 
END_DATA
