demo-projects/old/Demo-Report-Matrix-2026-08-10_232125/runs/run1/verifications/2026-08-10_100000/Demo-Report-Matrix-verify.ti3
CTI3   
KEYWORD "CHROMIQ_VERIFICATION"
CHROMIQ_VERIFICATION "true"

DESCRIPTOR "Argyll Calibration Target chart information 3"
ORIGINATOR "Argyll fakeread"
CREATED "Mon Aug 10 23:19:49 2026"
DEVICE_CLASS "DISPLAY"
COLOR_REP "iRGB_XYZ"

KEYWORD "CHROMIQ_MEASURED"
CHROMIQ_MEASURED "2026-08-10T10:00:00"
TARGET_INSTRUMENT "X-Rite i1Pro3"
NUMBER_OF_FIELDS 7
BEGIN_DATA_FORMAT
SAMPLE_ID RGB_R RGB_G RGB_B XYZ_X XYZ_Y XYZ_Z 
END_DATA_FORMAT

NUMBER_OF_SETS 105
BEGIN_DATA
1 100.0000 100.0000 100.0000 94.95719 99.95448 108.9009 
2 100.0000 100.0000 100.0000 94.72341 99.35588 108.7977 
3 100.0000 100.0000 100.0000 94.83798 99.89301 108.8953 
4 100.0000 100.0000 100.0000 95.04547 100.0000 108.9050 
5 0.00000 0.00000 0.00000 0.0105487 0.0210974 0.00351597 
6 0.00000 0.00000 0.00000 0.00783919 0.00343521 0.0277600 
7 0.00000 0.00000 0.00000 0.00544174 0.00280599 0.000255000 
8 0.00000 0.00000 0.00000 0.0295437 0.0180672 0.0439520 
9 100.0000 100.0000 0.00000 76.99679 92.78095 13.85099 
10 0.00000 0.00000 100.0000 18.05492 7.231535 95.05611 
11 100.0000 0.00000 0.00000 41.23828 21.26423 1.932425 
12 0.00000 100.0000 100.0000 53.42596 77.97331 106.8455 
13 0.00000 100.0000 0.00000 35.77685 71.52617 11.91943 
14 100.0000 0.00000 100.0000 59.02465 28.34803 96.97417 
15 0.00000 38.69451 100.0000 22.40474 15.90330 96.50057 
16 0.00000 61.01825 0.00000 11.14608 22.29207 3.715070 
17 0.00000 0.00000 49.66734 3.890296 1.556613 20.46201 
18 100.0000 0.00000 49.59690 44.15748 22.33890 21.50096 
19 100.0000 51.96322 100.0000 67.44151 44.79231 99.70443 
20 100.0000 51.02120 0.00000 48.68501 37.12460 4.604646 
21 49.79587 0.00000 0.00000 8.395095 4.370192 0.401368 
22 100.0000 100.0000 50.20307 80.37569 93.51241 33.55775 
23 0.00000 100.0000 50.70625 39.05415 71.71072 32.74129 
24 49.48561 100.0000 100.0000 62.03394 81.94395 107.1586 
25 51.72588 100.0000 0.00000 45.52967 76.55506 12.38022 
26 50.05958 0.00000 100.0000 26.78328 11.72299 95.46334 
27 0.00000 47.79621 60.34591 13.04273 16.40370 34.17799 
28 100.0000 59.17416 43.63085 55.19338 44.25321 21.75667 
29 47.31399 48.98978 0.00000 15.87660 19.77587 2.992671 
30 52.09288 0.00000 45.52943 12.65859 6.161062 17.12114 
31 55.39583 47.66229 100.0000 35.83353 26.43991 97.46184 
32 49.20125 100.0000 50.84061 48.48841 77.60410 34.02692 
33 48.29114 47.33520 50.18713 19.22025 19.51116 23.00493 
34 0.00000 30.94905 0.00000 2.833853 5.664933 0.953017 
35 100.0000 21.19106 79.12555 53.73145 28.44999 60.97961 
36 33.94804 70.69041 100.0000 38.72373 42.65519 100.8039 
37 74.96124 25.82053 0.00000 23.60669 15.01685 1.655083 
38 0.00000 77.61705 71.72771 29.12835 44.89090 50.91788 
39 24.97790 0.00000 23.41364 2.891829 1.391393 4.637334 
40 76.31808 100.0000 28.35106 58.78061 82.09453 19.37204 
41 0.00000 77.00365 31.43299 20.52902 38.67341 14.18095 
42 75.41143 77.79628 100.0000 60.01768 58.47847 102.6588 
43 100.0000 23.29829 20.42453 43.16330 24.50424 5.760295 
44 100.0000 80.02238 22.27702 63.07033 64.97263 12.98363 
45 75.35445 100.0000 76.01304 67.40494 86.59024 63.34477 
46 75.31505 74.81469 0.00000 40.13171 48.23292 7.195059 
47 100.0000 79.49395 78.19811 72.91283 68.42641 64.57549 
48 26.41218 100.0000 75.99234 47.54827 76.47631 63.00027 
49 28.19308 28.22301 100.0000 22.63029 12.84427 95.89837 
50 76.81359 0.00000 23.55016 23.71983 12.13502 5.441005 
51 75.25932 0.00000 74.69026 31.32265 15.10464 50.27496 
52 29.89921 74.23536 0.00000 21.29597 38.20148 6.250872 
53 25.50439 100.0000 24.78846 38.37742 72.30134 16.27605 
54 77.21225 23.71451 100.0000 42.67721 22.34259 96.27321 
55 0.00000 21.07405 72.23364 10.23549 6.059289 47.84597 
56 26.28049 0.00000 71.93547 10.68149 4.517909 45.17303 
57 0.00000 19.89483 30.07019 2.369349 2.662556 7.181078 
58 26.28079 33.45692 23.52814 6.400613 8.116029 5.747216 
59 66.56754 70.38587 52.30860 36.72657 42.90085 28.34320 
60 75.09479 52.62129 65.01886 37.52164 31.64020 40.08555 
61 26.64973 49.33561 81.42125 21.33285 20.66536 62.18329 
62 45.91179 68.61670 63.70484 28.96006 36.52740 39.63014 
63 71.11740 50.49568 34.71935 28.62733 26.20601 13.00727 
64 54.43736 27.35888 62.61652 18.67425 12.19985 33.90108 
65 34.69612 74.79966 32.60823 24.91498 41.27779 14.62205 
66 74.85889 20.44437 50.18860 26.23814 14.81989 21.91694 
67 47.85106 20.11464 33.14580 10.58976 7.261793 9.056037 
68 27.20651 32.63652 48.27367 9.062634 8.822785 19.93104 
69 27.58870 24.69734 0.00000 4.586650 4.917643 0.753703 
70 0.00000 69.14068 100.0000 33.61476 38.44951 99.83540 
71 20.53684 59.80271 49.57175 16.14391 24.05622 23.18786 
72 0.00000 46.98630 28.11508 8.024852 14.06252 8.714732 
73 73.54294 75.32966 75.96305 48.96905 52.20581 58.53825 
74 63.36650 75.70063 29.24590 34.22455 45.06012 13.11769 
75 100.0000 50.88622 71.33775 56.70588 39.23262 49.01747 
76 23.55356 85.77019 53.26247 32.78189 55.20982 32.85741 
77 100.0000 29.41094 48.41781 47.22821 27.47217 21.72494 
78 72.19800 51.56213 8.666635 27.50749 25.62923 4.316433 
79 21.36322 53.66478 11.70929 10.86581 18.88761 4.345864 
80 12.24937 81.96187 10.32227 23.08907 45.08264 8.411746 
81 50.32410 91.80251 71.76533 46.91546 67.31585 56.00210 
82 48.45094 95.04594 23.03440 41.11740 69.15939 15.32459 
83 47.91670 54.94911 27.45694 18.85687 23.93672 9.421272 
84 3.781525 53.33689 81.63552 20.45114 21.91671 64.77205 
85 76.14076 97.71765 95.89858 72.09626 85.06536 99.02231 
86 74.72769 92.97172 51.48222 55.11194 72.73102 32.44768 
87 91.51768 77.11623 49.84954 57.31314 57.92918 27.88906 
88 55.99479 23.67844 88.16304 26.17942 14.19015 71.25278 
89 76.02370 54.61404 92.04182 46.65354 35.93441 83.09510 
90 52.92777 23.07148 11.01567 11.63492 8.381883 2.083127 
91 2.113597 97.73685 76.72762 43.50227 70.84300 63.86363 
92 77.95688 25.26049 74.12841 34.21737 19.42093 49.54488 
93 5.158119 95.50651 28.71841 34.20838 66.17362 17.30049 
94 4.213096 24.16053 51.05457 6.164628 5.338454 22.96115 
95 51.24030 47.80404 76.36550 25.80481 22.22024 53.24603 
96 97.40498 100.0000 75.01152 83.77151 94.51518 62.82170 
97 49.19419 5.350316 74.01136 18.00225 8.360543 49.89111 
98 91.32533 51.59153 22.20459 42.64673 33.69316 7.888325 
99 74.48121 24.34677 26.05584 24.05415 15.06750 6.555903 
100 94.19953 74.22767 93.65841 70.77898 62.85691 90.82687 
101 23.32810 75.54038 80.93191 31.81721 43.07933 65.54054 
102 56.07175 76.90790 5.268606 30.50149 44.91302 7.433982 
103 27.55381 8.135545 46.48987 5.921415 3.053480 17.12020 
104 27.88054 25.86915 72.11177 12.99516 8.365035 46.83199 
105 51.80627 80.99682 89.24284 46.31877 56.46433 82.25355 
END_DATA
