demo-projects/old/Demo-Report-Matrix-2026-08-10_231948/runs/run1/verifications/2026-08-09_100000/chart/Demo-Report-Matrix-verify.ti1
CTI1   

DESCRIPTOR "Argyll Calibration Target chart information 1"
ORIGINATOR "ChromIQ"
APPROX_WHITE_POINT "95.050000 100.000000 108.900000"
COLOR_REP "iRGB"
WHITE_COLOR_PATCHES "1"
BLACK_COLOR_PATCHES "5"
CREATED "Mon Aug 10 23:17:25 2026"

NUMBER_OF_FIELDS 7
BEGIN_DATA_FORMAT
SAMPLE_ID RGB_R RGB_G RGB_B XYZ_X XYZ_Y XYZ_Z
END_DATA_FORMAT

NUMBER_OF_SETS 108
BEGIN_DATA
1 107.7547 98.8845 86.1055 96.5980 100.0676 81.9070
2 107.7547 98.8845 86.1055 96.5980 100.0676 81.9070
3 107.7547 98.8845 86.1055 96.5980 100.0676 81.9070
4 107.7547 98.8845 86.1055 96.5980 100.0676 81.9070
5 0.0000 0.0000 0.0000 0.9505 1.0000 1.0890
6 0.0000 0.0000 0.0000 0.9505 1.0000 1.0890
7 0.0000 0.0000 0.0000 0.9505 1.0000 1.0890
8 0.0000 0.0000 0.0000 0.9505 1.0000 1.0890
9 104.1450 95.5720 83.2210 89.4663 92.6844 75.9250
10 100.5470 92.2701 80.3459 82.6763 85.6546 70.2277
11 96.9597 88.9781 77.4793 76.2191 78.9694 64.8076
12 93.3848 85.6975 74.6227 70.0906 72.6241 59.6613
13 89.8218 82.4278 71.7755 64.2823 66.6103 54.7817
14 86.2706 79.1689 68.9378 58.7869 60.9203 50.1630
15 82.7334 75.9229 66.1113 53.6002 55.5497 45.8015
16 79.2087 72.6883 63.2947 48.7122 50.4883 41.6890
17 75.6977 69.4664 60.4891 44.1172 45.7302 37.8208
18 72.2011 66.2576 57.6950 39.8082 41.2679 34.1910
19 68.7207 63.0637 54.9139 35.7793 37.0955 30.7949
20 65.2551 59.8834 52.1445 32.0207 33.2029 27.6243
21 61.8050 56.7173 49.3876 28.5252 29.5826 24.6733
22 58.3717 53.5666 46.6441 25.2859 26.2273 21.9360
23 54.9584 50.4343 43.9166 22.2969 23.1313 19.4080
24 51.5621 47.3176 41.2027 19.5471 20.2827 17.0796
25 48.1848 44.2183 38.5039 17.0294 17.6744 14.9451
26 44.8293 41.1390 35.8225 14.7369 15.2992 12.9989
27 41.4970 38.0810 33.1597 12.6611 13.1482 11.2340
28 38.1850 35.0417 30.5132 10.7910 11.2103 9.6412
29 34.9006 32.0276 27.8886 9.1210 9.4794 8.2160
30 31.6451 29.0401 25.2872 7.6416 7.9459 6.9506
31 28.4172 26.0779 22.7078 6.3420 6.5985 5.8359
32 25.2190 23.1430 20.1522 5.2128 5.4275 4.8642
33 22.0594 20.2435 17.6274 4.2460 4.4248 4.0291
34 18.9373 17.3784 15.1325 3.4300 3.5781 3.3209
35 15.8655 14.5595 12.6779 2.7559 2.8785 2.7326
36 12.8451 11.7877 10.2643 2.2113 2.3129 2.2536
37 9.8799 9.0666 7.8949 1.7840 1.8689 1.8741
38 6.9682 6.3946 5.5682 1.4610 1.5330 1.5833
39 13.0504 7.5925 87.9584 15.1764 7.1417 71.5476
40 13.9715 33.2732 58.7618 10.2995 9.9478 30.8232
41 106.3005 86.3916 25.4657 74.2342 76.3982 16.7215
42 35.4134 99.1545 70.7431 48.0752 75.8959 56.0190
43 23.8121 63.4925 70.8805 23.8447 30.8154 48.7806
44 96.9440 0.0000 55.8279 43.8576 22.5580 28.4649
45 91.0104 51.6423 40.4283 44.4762 35.2221 18.1281
46 77.8742 43.6083 86.0557 42.5231 29.3489 71.0199
47 73.4284 87.2000 46.1225 50.4672 64.6849 27.6204
48 15.6198 43.8172 30.3725 8.8595 13.3944 10.0982
49 59.5401 31.9290 38.6735 18.8934 14.3646 14.3146
50 75.6785 72.1466 87.0607 52.7352 51.3704 76.5016
51 77.4117 52.9401 67.2304 39.7455 32.8864 43.5586
52 62.2581 82.9969 72.0036 46.8024 58.1218 54.3795
53 26.7526 0.7155 31.6075 4.8008 2.8459 8.8713
54 72.8543 62.8072 38.0266 35.5514 37.1057 17.4228
55 25.3605 35.6892 87.8043 20.0981 14.8327 72.4959
56 8.5958 10.4436 54.5375 6.2747 3.7748 25.5526
57 82.4647 0.0000 27.1013 28.4102 15.0328 7.9417
58 23.7181 67.5616 33.6394 19.1366 31.9440 14.7735
59 40.0918 99.2025 86.5675 54.0523 78.4920 80.7955
60 74.5413 53.5065 49.3267 34.4854 30.8893 24.5594
61 21.8696 0.0000 11.3039 2.7697 1.9127 2.3089
62 64.4015 98.9889 35.5555 52.6018 78.7664 23.1012
63 91.6137 86.9770 86.5945 73.1194 75.0221 79.1683
64 22.1227 60.6205 55.2991 18.8840 26.8192 30.0796
65 82.5736 0.0000 12.4461 27.6765 14.7484 3.6685
66 101.1700 98.8797 72.3289 85.9909 95.0700 59.8972
67 40.5125 58.8709 75.6283 26.8524 29.3107 55.0503
68 47.6894 31.8572 18.9699 12.3076 11.1430 5.2567
69 65.7891 0.0000 56.2314 21.8250 11.1908 27.8362
70 56.8382 25.2987 87.7727 27.6395 15.9598 72.2593
71 92.3949 98.9692 81.6721 80.9490 92.2652 73.7350
72 58.6571 54.5261 58.1354 27.7826 27.7963 32.6847
73 7.9814 20.4660 27.9146 3.5991 4.0517 7.4705
74 40.5547 42.4129 25.4274 12.8002 14.9049 8.0753
75 59.0794 0.0000 35.6263 15.3845 8.2258 11.4873
76 67.2603 85.4173 86.8164 55.4322 64.3630 78.4347
77 57.2188 77.5668 54.5350 37.2339 48.7806 32.6054
78 35.0169 11.5547 26.3347 6.5109 4.4127 6.7357
79 100.9289 98.8137 46.6719 80.3979 92.7228 31.8883
80 104.3940 55.4496 22.7135 56.2205 43.4898 10.3296
81 32.6075 79.4106 62.6562 31.7822 47.3821 41.2389
82 62.9943 26.7062 23.3714 18.2783 12.8876 6.6474
83 42.3797 31.6268 45.8408 13.1410 11.2039 19.0451
84 63.7538 0.0000 27.5939 16.9230 9.1064 7.6081
85 46.7794 63.4797 25.6686 22.2480 30.8240 10.7428
86 59.4870 99.0499 57.2902 53.4983 78.9207 40.3182
87 90.6601 41.7544 47.3615 42.1883 29.5123 22.2547
88 55.6171 3.2280 0.0000 12.0528 6.8547 1.6339
89 51.6368 60.5424 57.4581 26.9998 30.9066 32.6205
90 15.4494 40.4736 49.8982 10.4240 12.6024 22.7885
91 15.4811 16.5944 0.0000 2.6276 3.0979 1.4055
92 56.9861 26.8994 47.2150 18.0282 12.5043 20.1268
93 103.6626 0.0000 87.4928 58.4632 29.1240 72.6748
94 50.7773 54.0677 87.5145 32.1731 28.9000 74.0560
95 39.5491 6.9224 14.5159 6.7865 4.2800 3.1485
96 27.5583 20.1344 24.7704 5.5503 5.0300 6.3039
97 85.2893 39.0760 57.8561 39.1565 26.7361 31.5882
98 16.4319 43.7536 44.2751 10.5267 14.0425 18.5395
99 71.7107 58.4845 13.0553 31.1883 32.3826 6.9985
100 31.4563 85.2032 85.4937 41.4063 56.9759 75.4336
101 100.0000 100.0000 100.0000 95.0500 100.0000 108.9000
102 0.0000 0.0000 0.0000 0.9505 1.0000 1.0890
103 100.0000 0.0000 0.0000 41.7781 22.0474 2.9997
104 0.0000 100.0000 0.0000 36.3529 71.8048 12.8898
105 0.0000 0.0000 100.0000 18.8200 8.1478 95.1885
106 0.0000 100.0000 100.0000 54.2224 78.9526 106.9893
107 100.0000 0.0000 100.0000 59.6476 29.1952 97.0992
108 100.0000 100.0000 0.0000 77.1805 92.8522 14.8005
END_DATA
CTI1   

DESCRIPTOR "Argyll Calibration Target chart information 1"
ORIGINATOR "ChromIQ"
DENSITY_EXTREME_VALUES "8"
CREATED "Mon Aug 10 23:17:25 2026"

NUMBER_OF_FIELDS 7
BEGIN_DATA_FORMAT
INDEX RGB_R RGB_G RGB_B XYZ_X XYZ_Y XYZ_Z
END_DATA_FORMAT

NUMBER_OF_SETS 8
BEGIN_DATA
0 100.0000 100.0000 100.0000 95.0500 100.0000 108.9000
1 0.0000 100.0000 100.0000 54.2224 78.9526 106.9893
2 100.0000 0.0000 100.0000 59.6476 29.1952 97.0992
3 0.0000 0.0000 100.0000 18.8200 8.1478 95.1885
4 100.0000 100.0000 0.0000 77.1805 92.8522 14.8005
5 0.0000 100.0000 0.0000 36.3529 71.8048 12.8898
6 100.0000 0.0000 0.0000 41.7781 22.0474 2.9997
7 0.0000 0.0000 0.0000 0.9505 1.0000 1.0890
END_DATA
CTI1   

DESCRIPTOR "Argyll Calibration Target chart information 1"
ORIGINATOR "ChromIQ"
DEVICE_COMBINATION_VALUES "9"
CREATED "Mon Aug 10 23:17:25 2026"

NUMBER_OF_FIELDS 7
BEGIN_DATA_FORMAT
INDEX RGB_R RGB_G RGB_B XYZ_X XYZ_Y XYZ_Z
END_DATA_FORMAT

NUMBER_OF_SETS 9
BEGIN_DATA
0 100.0000 100.0000 100.0000 95.0500 100.0000 108.9000
1 0.0000 100.0000 100.0000 54.2224 78.9526 106.9893
2 100.0000 0.0000 100.0000 59.6476 29.1952 97.0992
3 0.0000 0.0000 100.0000 18.8200 8.1478 95.1885
4 100.0000 100.0000 0.0000 77.1805 92.8522 14.8005
5 0.0000 100.0000 0.0000 36.3529 71.8048 12.8898
6 100.0000 0.0000 0.0000 41.7781 22.0474 2.9997
7 0.0000 0.0000 0.0000 0.9505 1.0000 1.0890
8 50.0000 50.0000 50.0000 21.0917 22.1901 24.1650
END_DATA
