demo-projects/old/Demo-Report-Matrix-2026-08-10_231948/runs/run1/verifications/2026-05-01_100000/Demo-Report-Matrix-verify.ti3
CTI3   
KEYWORD "CHROMIQ_VERIFICATION"
CHROMIQ_VERIFICATION "true"

DESCRIPTOR "Argyll Calibration Target chart information 3"
ORIGINATOR "Argyll fakeread"
CREATED "Mon Aug 10 23:17:25 2026"
DEVICE_CLASS "DISPLAY"
COLOR_REP "iRGB_XYZ"

KEYWORD "CHROMIQ_MEASURED"
CHROMIQ_MEASURED "2026-05-01T10:00:00"
TARGET_INSTRUMENT "X-Rite ColorMunki"
NUMBER_OF_FIELDS 7
BEGIN_DATA_FORMAT
SAMPLE_ID RGB_R RGB_G RGB_B XYZ_X XYZ_Y XYZ_Z 
END_DATA_FORMAT

NUMBER_OF_SETS 105
BEGIN_DATA
1 100.0000 100.0000 100.0000 94.86982 99.64871 108.8465 
2 100.0000 100.0000 100.0000 94.79981 99.88043 108.5730 
3 100.0000 100.0000 100.0000 94.30271 99.63926 107.8655 
4 100.0000 100.0000 100.0000 94.17081 99.59012 107.0077 
5 0.00000 0.00000 0.00000 0.0207825 0.0123677 0.00129254 
6 0.00000 0.00000 0.00000 0.00607653 0.00649325 0.00108722 
7 0.00000 0.00000 0.00000 0.0218646 0.0437289 0.00728762 
8 0.00000 0.00000 0.00000 0.00180214 0.000720814 0.00949103 
9 100.0000 100.0000 0.00000 76.88535 92.72348 13.84577 
10 0.00000 0.00000 100.0000 18.05508 7.222353 95.05433 
11 100.0000 0.00000 0.00000 40.83789 21.06267 1.947802 
12 0.00000 100.0000 100.0000 53.04056 77.41398 106.0651 
13 0.00000 100.0000 0.00000 35.77740 71.52041 11.96484 
14 100.0000 0.00000 100.0000 58.97115 28.32044 96.97166 
15 0.00000 38.69451 100.0000 22.38430 16.00465 96.08978 
16 0.00000 61.01825 0.00000 11.83505 23.66704 3.944136 
17 0.00000 0.00000 49.66734 3.958251 1.591097 20.75274 
18 100.0000 0.00000 49.59690 44.87679 22.70098 21.93286 
19 100.0000 51.96322 100.0000 67.51569 45.10991 99.20738 
20 100.0000 51.02120 0.00000 48.96997 36.72479 4.517953 
21 49.79587 0.00000 0.00000 8.625287 4.458753 0.435650 
22 100.0000 100.0000 50.20307 80.65693 94.21983 34.25938 
23 0.00000 100.0000 50.70625 39.79577 73.13152 33.18094 
24 49.48561 100.0000 100.0000 62.47304 83.21105 107.0720 
25 51.72588 100.0000 0.00000 45.03008 76.29753 12.35304 
26 50.05958 0.00000 100.0000 26.61934 11.65121 94.88002 
27 0.00000 47.79621 60.34591 12.90132 16.38882 33.28494 
28 100.0000 59.17416 43.63085 55.13046 44.41049 20.86282 
29 47.31399 48.98978 0.00000 15.18228 18.54647 2.779752 
30 52.09288 0.00000 45.52943 12.73582 6.206873 16.85450 
31 55.39583 47.66229 100.0000 35.94611 26.70809 97.87274 
32 49.20125 100.0000 50.84061 47.93502 76.75258 33.11982 
33 48.29114 47.33520 50.18713 18.34711 18.74461 23.20678 
34 0.00000 30.94905 0.00000 2.779979 5.559934 0.926587 
35 100.0000 21.19106 79.12555 53.35757 28.36713 58.80500 
36 33.94804 70.69041 100.0000 38.03402 41.48194 100.6138 
37 74.96124 25.82053 0.00000 23.66265 15.17058 1.681803 
38 0.00000 77.61705 71.72771 28.84949 44.00352 51.84134 
39 24.97790 0.00000 23.41364 2.958374 1.427972 4.538207 
40 76.31808 100.0000 28.35106 58.63101 82.34374 19.10525 
41 0.00000 77.00365 31.43299 21.00187 39.71209 14.05405 
42 75.41143 77.79628 100.0000 59.78922 58.91416 102.0429 
43 100.0000 23.29829 20.42453 43.44493 24.70252 5.674083 
44 100.0000 80.02238 22.27702 63.49306 64.69315 12.68139 
45 75.35445 100.0000 76.01304 67.64419 86.83353 64.17229 
46 75.31505 74.81469 0.00000 39.73363 47.50122 7.074816 
47 100.0000 79.49395 78.19811 72.54610 67.60256 62.55361 
48 26.41218 100.0000 75.99234 47.48466 76.08262 63.26519 
49 28.19308 28.22301 100.0000 22.78475 12.86858 95.71040 
50 76.81359 0.00000 23.55016 23.65686 12.12570 5.435590 
51 75.25932 0.00000 74.69026 30.63630 14.74969 49.19983 
52 29.89921 74.23536 0.00000 21.43192 38.48222 6.326467 
53 25.50439 100.0000 24.78846 38.78385 72.97302 16.73941 
54 77.21225 23.71451 100.0000 42.92525 22.54823 96.47662 
55 0.00000 21.07405 72.23364 10.11818 6.193835 46.66868 
56 26.28049 0.00000 71.93547 11.01676 4.681073 45.62730 
57 0.00000 19.89483 30.07019 2.486313 2.918429 7.162226 
58 26.28079 33.45692 23.52814 6.411451 8.146119 5.575962 
59 66.56754 70.38587 52.30860 37.02185 42.64633 28.35630 
60 75.09479 52.62129 65.01886 36.53574 30.62225 39.76812 
61 26.64973 49.33561 81.42125 20.87415 20.13578 62.55688 
62 45.91179 68.61670 63.70484 28.98551 36.92147 39.31785 
63 71.11740 50.49568 34.71935 28.72297 25.98648 12.87604 
64 54.43736 27.35888 62.61652 19.20788 12.42632 34.87397 
65 34.69612 74.79966 32.60823 24.03480 39.81550 14.39588 
66 74.85889 20.44437 50.18860 26.99417 15.32446 21.75933 
67 47.85106 20.11464 33.14580 10.80280 7.170331 9.003128 
68 27.20651 32.63652 48.27367 9.089088 8.858100 20.04644 
69 27.58870 24.69734 0.00000 4.275487 4.835971 0.708142 
70 0.00000 69.14068 100.0000 33.53346 38.55435 99.08721 
71 20.53684 59.80271 49.57175 16.71895 25.41945 23.77546 
72 0.00000 46.98630 28.11508 7.751368 13.64165 8.307235 
73 73.54294 75.32966 75.96305 49.84332 53.10844 60.23524 
74 63.36650 75.70063 29.24590 35.39911 46.50025 13.94767 
75 100.0000 50.88622 71.33775 56.98170 40.39910 48.24068 
76 23.55356 85.77019 53.26247 31.44256 52.99719 31.80071 
77 100.0000 29.41094 48.41781 47.27186 27.81180 21.79806 
78 72.19800 51.56213 8.666635 28.05796 26.72353 4.469911 
79 21.36322 53.66478 11.70929 10.78431 18.96988 4.276359 
80 12.24937 81.96187 10.32227 23.47846 45.72963 8.567631 
81 50.32410 91.80251 71.76533 46.52578 66.42579 54.18005 
82 48.45094 95.04594 23.03440 41.17772 68.72325 15.09107 
83 47.91670 54.94911 27.45694 18.46006 23.22705 9.338057 
84 3.781525 53.33689 81.63552 20.14499 22.19058 61.83184 
85 76.14076 97.71765 95.89858 72.70744 85.78786 98.05725 
86 74.72769 92.97172 51.48222 56.42081 73.94467 32.89200 
87 91.51768 77.11623 49.84954 57.47328 59.14026 28.17249 
88 55.99479 23.67844 88.16304 26.66816 14.45791 73.61645 
89 76.02370 54.61404 92.04182 46.45327 36.41103 82.94920 
90 52.92777 23.07148 11.01567 11.24384 8.072470 2.115525 
91 2.113597 97.73685 76.72762 44.09711 72.17291 63.75530 
92 77.95688 25.26049 74.12841 34.60597 19.38124 50.24893 
93 5.158119 95.50651 28.71841 33.49983 64.71214 17.31990 
94 4.213096 24.16053 51.05457 5.707404 4.980560 21.16516 
95 51.24030 47.80404 76.36550 25.97476 22.44638 55.33995 
96 97.40498 100.0000 75.01152 84.19945 95.31152 63.76088 
97 49.19419 5.350316 74.01136 17.72404 8.311175 48.81441 
98 91.32533 51.59153 22.20459 42.45880 34.03675 8.132293 
99 74.48121 24.34677 26.05584 23.80634 14.76101 6.726636 
100 94.19953 74.22767 93.65841 69.62030 60.59448 88.93541 
101 23.32810 75.54038 80.93191 32.09678 43.55438 65.21389 
102 56.07175 76.90790 5.268606 31.06390 45.37810 7.494751 
103 27.55381 8.135545 46.48987 6.162281 3.168314 17.54827 
104 27.88054 25.86915 72.11177 13.27466 8.721418 46.66078 
105 51.80627 80.99682 89.24284 45.17590 53.89114 80.60178 
END_DATA
