demo-projects/Demo-Report-Matrix/runs/run1/verifications/2026-08-01_100000/Demo-Report-Matrix-verify.ti3
CTI3   
KEYWORD "CHROMIQ_VERIFICATION"
CHROMIQ_VERIFICATION "true"

DESCRIPTOR "Argyll Calibration Target chart information 3"
ORIGINATOR "Argyll fakeread"
CREATED "Tue Aug 11 11:21:04 2026"
DEVICE_CLASS "DISPLAY"
COLOR_REP "iRGB_XYZ"

KEYWORD "CHROMIQ_MEASURED"
CHROMIQ_MEASURED "2026-08-01T10:00:00"
TARGET_INSTRUMENT "X-Rite ColorMunki"
NUMBER_OF_FIELDS 7
BEGIN_DATA_FORMAT
SAMPLE_ID RGB_R RGB_G RGB_B XYZ_X XYZ_Y XYZ_Z 
END_DATA_FORMAT

NUMBER_OF_SETS 108
BEGIN_DATA
1 107.7025 98.90070 86.08070 89.38355 96.69888 82.08609 
2 107.7025 98.90070 86.08070 89.19736 96.11511 82.67485 
3 107.7025 98.90070 86.08070 89.07453 96.32728 81.22896 
4 107.7025 98.90070 86.08070 89.15107 96.17521 82.19091 
5 0.00000 0.00000 0.00000 0.000175506 0.000350177 0.0000595438 
6 0.00000 0.00000 0.00000 9.30599e-07 4.81400e-07 4.87650e-08 
7 0.00000 0.00000 0.00000 0.0000175503 0.0000350171 5.95429e-06 
8 0.00000 0.00000 0.00000 0.00105059 0.000553014 0.0000569046 
9 104.0819 95.57590 83.18690 85.61452 90.54137 76.62271 
10 100.4734 92.26230 80.30280 82.45048 85.75848 70.85011 
11 96.87610 88.95900 77.42770 76.57835 79.87416 65.21635 
12 93.29180 85.66760 74.56300 69.41731 71.91077 60.28886 
13 89.71970 82.38750 71.70810 64.57686 66.72402 55.29488 
14 86.16010 79.11880 68.86300 58.82995 61.06912 50.65752 
15 82.61510 75.86350 66.02970 54.32691 56.23158 46.36116 
16 79.08300 72.62010 63.20670 49.49860 51.57387 42.89459 
17 75.56540 69.38990 60.39520 44.19824 46.22850 37.81070 
18 72.06260 66.17340 57.59570 40.22283 41.98328 34.68659 
19 68.57680 62.97240 54.80970 35.85477 37.06778 30.83050 
20 65.10630 59.78560 52.03590 32.01945 32.82585 28.19781 
21 61.65210 56.61370 49.27520 28.38786 29.37715 24.05678 
22 58.21540 53.45780 46.52840 25.29524 26.41672 21.19387 
23 54.79940 50.32100 43.79810 22.27557 22.95661 18.75071 
24 51.40120 47.20050 41.08210 19.43246 19.81565 16.67468 
25 48.02280 44.09820 38.38200 16.34815 17.08016 14.04915 
26 44.66700 41.01660 35.69980 14.19365 14.74793 12.03617 
27 41.33530 37.95720 33.03700 11.91566 12.46031 10.21979 
28 38.02480 34.91730 30.39120 9.859504 10.18424 8.744475 
29 34.74300 31.90370 27.76820 8.114232 8.453945 6.872908 
30 31.49120 28.91760 25.16920 6.641813 6.994072 5.685832 
31 28.26810 25.95790 22.59310 5.268832 5.619432 4.622945 
32 25.07590 23.02660 20.04180 3.981278 4.224042 3.451449 
33 21.92370 20.13200 17.52240 3.086183 3.108089 2.681255 
34 18.81050 17.27320 15.03420 2.156457 2.247928 1.769484 
35 15.74930 14.46220 12.58760 1.540846 1.638159 1.310855 
36 12.74130 11.70010 10.18350 0.854227 0.902138 0.809150 
37 9.790900 8.990800 7.825400 0.505274 0.523368 0.409527 
38 6.896800 6.333200 5.512200 0.262434 0.291411 0.236437 
39 13.48170 7.414700 87.91940 14.44777 6.136153 71.56101 
40 14.10430 33.12870 58.65500 9.266186 8.815701 29.97616 
41 106.1945 86.38050 25.39570 68.28501 73.75983 16.09360 
42 35.48540 99.13060 70.69240 48.15417 75.54337 57.81391 
43 23.91460 63.37250 70.80770 23.41832 30.47322 48.95263 
44 96.80360 0.00000 55.70000 43.45048 21.91581 28.32312 
45 90.86230 51.57680 40.29980 44.14821 35.00630 17.56921 
46 77.75910 43.51630 86.01120 42.83862 28.95581 71.30418 
47 73.30080 87.16020 46.03350 50.70333 64.94524 27.28701 
48 15.60330 43.67870 30.25990 7.937494 12.71824 9.081381 
49 59.36060 31.83710 38.54260 18.53453 13.74517 13.71975 
50 75.58590 72.07020 87.02920 53.36192 51.94094 77.60923 
51 77.27500 52.84940 67.13990 40.26177 33.29263 44.12378 
52 62.16660 82.93650 71.94120 47.23024 58.36536 55.93582 
53 26.61100 1.116600 31.47640 3.806445 1.812865 7.769437 
54 72.69560 62.72160 37.91380 35.64105 37.14275 16.60109 
55 25.47290 35.53810 87.76750 19.61786 14.14637 72.98468 
56 8.827700 10.33200 54.42030 5.248899 2.539795 25.14741 
57 82.28590 0.00000 26.95480 27.51007 14.11621 6.766614 
58 23.69890 67.45360 33.54620 19.09993 32.68853 14.48884 
59 40.17270 99.17810 86.55220 54.25954 79.18564 81.12510 
60 74.38500 53.41520 49.20950 34.43820 30.81495 23.59689 
61 21.72070 0.00000 11.21290 1.665292 0.846554 0.789589 
62 64.28770 98.97820 35.49910 52.63977 78.60100 22.94744 
63 91.53530 86.94670 86.56670 73.80259 75.70290 79.51784 
64 22.16750 60.49770 55.19900 18.51327 26.74202 29.91560 
65 82.39100 0.00000 12.30210 27.24604 14.07594 2.338252 
66 101.0950 98.89150 72.27220 85.35673 95.01715 61.21021 
67 40.46560 58.74930 75.56350 27.08633 29.71550 55.99306 
68 47.50320 31.74940 18.86290 11.61596 10.31476 3.985490 
69 65.62040 0.00000 56.11120 21.64476 10.62438 27.68911 
70 56.73780 25.19950 87.73240 27.35200 15.15528 72.14131 
71 92.32250 98.97280 81.63830 81.78737 92.90463 73.75561 
72 58.51600 54.41650 58.03220 27.75633 27.64456 32.75891 
73 8.005700 20.34360 27.79110 2.413474 2.818629 6.079414 
74 40.39160 42.28760 25.31810 12.09989 14.12066 7.106066 
75 58.89040 0.00000 35.48820 14.69939 7.391774 10.61884 
76 67.19080 85.36400 86.79160 55.81669 64.36997 78.33333 
77 57.10130 77.49240 54.44300 37.35885 49.19494 32.44072 
78 34.84580 11.50920 26.20740 5.537898 3.237709 5.504633 
79 100.8336 98.82730 46.58900 79.14236 91.69038 31.23998 
80 104.2643 55.40680 22.59220 51.87828 41.39847 9.378558 
81 32.61960 79.32880 62.57750 31.45130 47.33297 41.16055 
82 62.80280 26.64120 23.24500 17.45266 11.88472 5.415976 
83 42.22800 31.50810 45.71610 12.86018 10.74970 18.80743 
84 63.56000 0.00000 27.45600 16.80217 8.568044 6.620323 
85 46.63030 63.37470 25.58430 22.26260 31.26011 9.725134 
86 59.40380 99.03560 57.22010 53.73540 79.76102 39.96652 
87 90.51130 41.70010 47.23190 41.35724 28.49111 21.68468 
88 55.41510 3.762000 0.00000 11.31544 5.896786 0.601351 
89 51.51180 60.43340 57.35810 27.42472 31.62984 33.38160 
90 15.51090 40.33120 49.78250 9.608323 11.79310 22.47736 
91 15.36210 16.48990 0.00000 1.512550 1.870378 0.290428 
92 56.81410 26.81510 47.08780 17.68530 11.65701 18.87077 
93 103.5642 0.00000 87.44410 54.54797 26.73409 71.67806 
94 50.71300 53.94420 87.48000 32.39978 29.22984 73.85932 
95 39.36070 6.973500 14.40850 6.000448 3.202815 1.814499 
96 27.40990 20.02810 24.64910 4.422593 3.716944 4.869836 
97 85.14110 39.01400 57.74110 39.28301 26.50184 31.79663 
98 16.45780 43.61340 44.15710 9.667468 13.19443 17.95639 
99 71.53740 58.39510 13.01160 31.28570 32.42368 5.972232 
100 31.58720 85.13340 85.46760 40.65553 55.78039 76.08150 
101 100.0000 100.0000 100.0000 94.88368 99.90210 108.7303 
102 0.00000 0.00000 0.00000 0.000188082 0.0000763406 0.000981841 
103 100.0000 0.00000 0.00000 40.85412 21.13390 2.140826 
104 0.00000 100.0000 0.00000 35.74900 71.32739 12.13031 
105 0.00000 0.00000 100.0000 18.09340 7.343950 94.45124 
106 0.00000 100.0000 100.0000 53.84179 78.67107 106.5797 
107 100.0000 0.00000 100.0000 59.07081 28.56987 95.28853 
108 100.0000 100.0000 0.00000 76.88121 92.60518 14.28384 
END_DATA
