demo-projects/Demo-Report-Matrix/runs/run1/verifications/2026-08-10_090000/Demo-Report-Matrix-verify.ti3
CTI3   
KEYWORD "CHROMIQ_VERIFICATION"
CHROMIQ_VERIFICATION "true"

DESCRIPTOR "Argyll Calibration Target chart information 3"
ORIGINATOR "Argyll fakeread"
CREATED "Tue Aug 11 11:21:04 2026"
DEVICE_CLASS "DISPLAY"
COLOR_REP "iRGB_XYZ"

KEYWORD "CHROMIQ_MEASURED"
CHROMIQ_MEASURED "2026-08-10T09:00:00"
TARGET_INSTRUMENT "X-Rite ColorMunki"
NUMBER_OF_FIELDS 7
BEGIN_DATA_FORMAT
SAMPLE_ID RGB_R RGB_G RGB_B XYZ_X XYZ_Y XYZ_Z 
END_DATA_FORMAT

NUMBER_OF_SETS 105
BEGIN_DATA
1 100.0000 100.0000 100.0000 94.88067 99.90759 108.4031 
2 100.0000 100.0000 100.0000 94.85381 99.56280 108.6659 
3 100.0000 100.0000 100.0000 94.58226 99.80084 106.1788 
4 100.0000 100.0000 100.0000 94.97100 99.79660 108.7056 
5 0.00000 0.00000 0.00000 0.00111267 0.00222005 0.000377495 
6 0.00000 0.00000 0.00000 5.89980e-06 3.05197e-06 3.09159e-07 
7 0.00000 0.00000 0.00000 0.000111265 0.000222001 0.0000377489 
8 0.00000 0.00000 0.00000 0.00666054 0.00350599 0.000360763 
9 100.0000 100.0000 0.00000 76.12735 91.56826 14.11939 
10 0.00000 0.00000 100.0000 18.06789 7.333703 94.31337 
11 100.0000 0.00000 0.00000 40.74694 21.08117 2.135736 
12 0.00000 100.0000 100.0000 52.62612 76.24550 106.1672 
13 0.00000 100.0000 0.00000 35.07274 69.97858 11.89910 
14 100.0000 0.00000 100.0000 58.41502 28.20322 96.52559 
15 0.00000 38.69451 100.0000 22.61411 16.36300 95.98481 
16 0.00000 61.01825 0.00000 12.72339 25.38365 4.324653 
17 0.00000 0.00000 49.66734 3.822007 1.552260 19.94902 
18 100.0000 0.00000 49.59690 44.59782 22.62469 23.12559 
19 100.0000 51.96322 100.0000 67.45259 45.16019 99.42180 
20 100.0000 51.02120 0.00000 48.87288 36.60188 4.773781 
21 49.79587 0.00000 0.00000 9.008423 4.660071 0.472057 
22 100.0000 100.0000 50.20307 80.79635 94.20528 34.21251 
23 0.00000 100.0000 50.70625 39.56064 72.52330 33.09191 
24 49.48561 100.0000 100.0000 62.56998 81.90398 106.7882 
25 51.72588 100.0000 0.00000 45.02261 76.12468 12.61440 
26 50.05958 0.00000 100.0000 27.14466 12.04145 94.22279 
27 0.00000 47.79621 60.34591 13.31252 17.03518 33.77310 
28 100.0000 59.17416 43.63085 54.81481 44.44064 22.25493 
29 47.31399 48.98978 0.00000 15.45328 19.13835 2.972890 
30 52.09288 0.00000 45.52943 12.99873 6.363644 17.53195 
31 55.39583 47.66229 100.0000 36.65837 28.32375 97.63217 
32 49.20125 100.0000 50.84061 48.20785 77.31142 34.16459 
33 48.29114 47.33520 50.18713 20.00206 19.93274 24.75252 
34 0.00000 30.94905 0.00000 2.815769 5.618045 0.955285 
35 100.0000 21.19106 79.12555 53.67956 28.64553 60.19215 
36 33.94804 70.69041 100.0000 38.12211 42.17569 100.2506 
37 74.96124 25.82053 0.00000 23.79445 15.00651 1.770474 
38 0.00000 77.61705 71.72771 30.44311 46.47469 54.14244 
39 24.97790 0.00000 23.41364 3.291812 1.616320 4.192223 
40 76.31808 100.0000 28.35106 59.30404 82.39928 18.54446 
41 0.00000 77.00365 31.43299 22.06632 41.41981 15.49467 
42 75.41143 77.79628 100.0000 61.72429 60.07968 102.5927 
43 100.0000 23.29829 20.42453 43.16832 24.30592 5.545364 
44 100.0000 80.02238 22.27702 64.47145 66.63415 13.34279 
45 75.35445 100.0000 76.01304 67.37932 86.41819 64.89774 
46 75.31505 74.81469 0.00000 40.97589 47.65527 7.282865 
47 100.0000 79.49395 78.19811 73.22684 68.60091 63.89476 
48 26.41218 100.0000 75.99234 47.78689 76.43797 64.55655 
49 28.19308 28.22301 100.0000 23.06388 13.37743 95.38372 
50 76.81359 0.00000 23.55016 23.97622 12.30877 5.624356 
51 75.25932 0.00000 74.69026 32.13125 15.54443 51.69078 
52 29.89921 74.23536 0.00000 21.29441 38.20338 6.407594 
53 25.50439 100.0000 24.78846 38.80582 72.81072 16.83485 
54 77.21225 23.71451 100.0000 42.96436 22.41675 94.45544 
55 0.00000 21.07405 72.23364 10.28329 6.061796 47.87672 
56 26.28049 0.00000 71.93547 11.04023 4.729441 46.11443 
57 0.00000 19.89483 30.07019 2.371475 2.671199 7.132407 
58 26.28079 33.45692 23.52814 6.848195 8.935493 6.008586 
59 66.56754 70.38587 52.30860 38.11129 44.89000 29.52332 
60 75.09479 52.62129 65.01886 37.47610 31.56022 38.65951 
61 26.64973 49.33561 81.42125 21.52854 21.63839 60.89189 
62 45.91179 68.61670 63.70484 30.37423 38.05311 42.90988 
63 71.11740 50.49568 34.71935 29.90978 27.24224 13.05644 
64 54.43736 27.35888 62.61652 19.88170 12.74052 35.09789 
65 34.69612 74.79966 32.60823 25.55382 42.51218 14.73684 
66 74.85889 20.44437 50.18860 27.33561 15.44420 23.50099 
67 47.85106 20.11464 33.14580 11.31450 7.422630 9.844438 
68 27.20651 32.63652 48.27367 9.405601 9.109908 20.97529 
69 27.58870 24.69734 0.00000 4.197989 4.638204 0.698748 
70 0.00000 69.14068 100.0000 33.52982 38.20825 99.48933 
71 20.53684 59.80271 49.57175 17.13149 25.95410 23.66972 
72 0.00000 46.98630 28.11508 7.877787 13.89322 8.277024 
73 73.54294 75.32966 75.96305 50.91438 54.27565 58.79408 
74 63.36650 75.70063 29.24590 35.87419 46.61784 14.44946 
75 100.0000 50.88622 71.33775 57.43879 41.11222 50.58120 
76 23.55356 85.77019 53.26247 31.29137 52.43771 31.89782 
77 100.0000 29.41094 48.41781 46.82683 27.55748 21.88720 
78 72.19800 51.56213 8.666635 29.31328 27.74357 4.479041 
79 21.36322 53.66478 11.70929 10.55115 18.62901 3.761125 
80 12.24937 81.96187 10.32227 23.88957 46.79860 8.762569 
81 50.32410 91.80251 71.76533 46.94377 66.86276 55.42171 
82 48.45094 95.04594 23.03440 40.70912 68.10769 15.19323 
83 47.91670 54.94911 27.45694 20.31457 25.64135 9.988115 
84 3.781525 53.33689 81.63552 20.37822 21.68738 64.85304 
85 76.14076 97.71765 95.89858 74.31444 88.01298 98.28123 
86 74.72769 92.97172 51.48222 56.65476 75.71569 32.55021 
87 91.51768 77.11623 49.84954 56.08130 56.81253 28.51439 
88 55.99479 23.67844 88.16304 26.13871 14.37945 69.80912 
89 76.02370 54.61404 92.04182 48.40948 38.34116 85.95594 
90 52.92777 23.07148 11.01567 11.92562 8.271308 1.847792 
91 2.113597 97.73685 76.72762 44.77350 73.21951 64.50196 
92 77.95688 25.26049 74.12841 35.62508 19.82618 48.15093 
93 5.158119 95.50651 28.71841 32.63860 63.32138 16.31300 
94 4.213096 24.16053 51.05457 5.886183 5.168871 21.90885 
95 51.24030 47.80404 76.36550 27.40672 22.92408 57.02759 
96 97.40498 100.0000 75.01152 84.54745 94.49486 63.80348 
97 49.19419 5.350316 74.01136 18.52436 8.614815 50.05735 
98 91.32533 51.59153 22.20459 43.25405 34.43378 8.194154 
99 74.48121 24.34677 26.05584 24.78588 15.05938 7.157513 
100 94.19953 74.22767 93.65841 68.39566 59.21854 90.98435 
101 23.32810 75.54038 80.93191 32.86064 44.57146 67.66338 
102 56.07175 76.90790 5.268606 31.00712 45.17513 7.520725 
103 27.55381 8.135545 46.48987 5.823596 2.800035 17.98877 
104 27.88054 25.86915 72.11177 13.73776 8.863052 49.39938 
105 51.80627 80.99682 89.24284 46.77461 55.17644 83.68721 
END_DATA
