assets/charts/knut/rgb/i1pro75/i1_w75_a3_4212p_3pages_landscape_w7_5mm/chart.ti1
CTI1   

DESCRIPTOR "Argyll Calibration Target chart information 1"
ORIGINATOR "ChromIQ"
APPROX_WHITE_POINT "95.050000 100.000000 108.900000"
COLOR_REP "iRGB"
WHITE_COLOR_PATCHES "1"
BLACK_COLOR_PATCHES "1"
CREATED "Tue Aug 25 11:16:03 2026"

NUMBER_OF_FIELDS 7
BEGIN_DATA_FORMAT
SAMPLE_ID RGB_R RGB_G RGB_B XYZ_X XYZ_Y XYZ_Z
END_DATA_FORMAT

NUMBER_OF_SETS 4212
BEGIN_DATA
1 0.0000 0.0000 0.0000 0.9505 1.0000 1.0890
2 0.0000 0.0000 7.1429 1.0603 1.0439 1.6674
3 0.0000 0.0000 14.2857 1.2723 1.1287 2.7834
4 0.0000 0.0000 21.4286 1.6247 1.2697 4.6395
5 0.0000 0.0000 28.5714 2.1364 1.4744 7.3338
6 0.0000 0.0000 35.7143 2.8230 1.7490 10.9494
7 0.0000 0.0000 42.8571 3.6985 2.0992 15.5596
8 0.0000 0.0000 50.0000 4.7753 2.5299 21.2302
9 0.0000 0.0000 57.1429 6.0649 3.0458 28.0213
10 0.0000 0.0000 64.2857 7.5779 3.6510 35.9887
11 0.0000 0.0000 71.4286 9.3242 4.3495 45.1843
12 0.0000 0.0000 78.5714 11.3130 5.1450 55.6569
13 0.0000 0.0000 85.7143 13.5530 6.0410 67.4530
14 0.0000 0.0000 92.8571 16.0527 7.0409 80.6162
15 0.0000 0.0000 100.0000 18.8200 8.1478 95.1885
16 0.0000 7.1429 0.0000 1.1681 1.4352 1.1615
17 0.0000 7.1429 7.1429 1.2779 1.4791 1.7399
18 0.0000 7.1429 14.2857 1.4899 1.5639 2.8560
19 0.0000 7.1429 21.4286 1.8423 1.7049 4.7121
20 0.0000 7.1429 28.5714 2.3540 1.9096 7.4063
21 0.0000 7.1429 35.7143 3.0406 2.1842 11.0220
22 0.0000 7.1429 42.8571 3.9161 2.5344 15.6321
23 0.0000 7.1429 50.0000 4.9929 2.9651 21.3027
24 0.0000 7.1429 57.1429 6.2825 3.4810 28.0938
25 0.0000 7.1429 64.2857 7.7955 4.0862 36.0612
26 0.0000 7.1429 71.4286 9.5418 4.7847 45.2568
27 0.0000 7.1429 78.5714 11.5306 5.5802 55.7295
28 0.0000 7.1429 85.7143 13.7706 6.4762 67.5255
29 0.0000 7.1429 92.8571 16.2703 7.4761 80.6887
30 0.0000 7.1429 100.0000 19.0376 8.5830 95.2610
31 0.0000 14.2857 0.0000 1.5880 2.2750 1.3015
32 0.0000 14.2857 7.1429 1.6978 2.3189 1.8799
33 0.0000 14.2857 14.2857 1.9098 2.4037 2.9959
34 0.0000 14.2857 21.4286 2.2622 2.5447 4.8520
35 0.0000 14.2857 28.5714 2.7739 2.7493 7.5463
36 0.0000 14.2857 35.7143 3.4605 3.0240 11.1619
37 0.0000 14.2857 42.8571 4.3360 3.3742 15.7721
38 0.0000 14.2857 50.0000 5.4128 3.8049 21.4427
39 0.0000 14.2857 57.1429 6.7024 4.3207 28.2338
40 0.0000 14.2857 64.2857 8.2154 4.9260 36.2011
41 0.0000 14.2857 71.4286 9.9617 5.6244 45.3967
42 0.0000 14.2857 78.5714 11.9504 6.4200 55.8694
43 0.0000 14.2857 85.7143 14.1905 7.3160 67.6655
44 0.0000 14.2857 92.8571 16.6902 8.3159 80.8287
45 0.0000 14.2857 100.0000 19.4575 9.4228 95.4010
46 0.0000 21.4286 0.0000 2.2863 3.6716 1.5343
47 0.0000 21.4286 7.1429 2.3961 3.7155 2.1126
48 0.0000 21.4286 14.2857 2.6081 3.8003 3.2287
49 0.0000 21.4286 21.4286 2.9605 3.9413 5.0848
50 0.0000 21.4286 28.5714 3.4722 4.1459 7.7791
51 0.0000 21.4286 35.7143 4.1588 4.4206 11.3947
52 0.0000 21.4286 42.8571 5.0343 4.7708 16.0049
53 0.0000 21.4286 50.0000 6.1111 5.2015 21.6754
54 0.0000 21.4286 57.1429 7.4007 5.7174 28.4665
55 0.0000 21.4286 64.2857 8.9137 6.3226 36.4339
56 0.0000 21.4286 71.4286 10.6600 7.0211 45.6295
57 0.0000 21.4286 78.5714 12.6487 7.8166 56.1022
58 0.0000 21.4286 85.7143 14.8888 8.7126 67.8982
59 0.0000 21.4286 92.8571 17.3885 9.7125 81.0614
60 0.0000 21.4286 100.0000 20.1558 10.8194 95.6338
61 0.0000 28.5714 0.0000 3.2999 5.6989 1.8721
62 0.0000 28.5714 7.1429 3.4098 5.7428 2.4505
63 0.0000 28.5714 14.2857 3.6217 5.8276 3.5666
64 0.0000 28.5714 21.4286 3.9742 5.9686 5.4227
65 0.0000 28.5714 28.5714 4.4858 6.1732 8.1169
66 0.0000 28.5714 35.7143 5.1724 6.4479 11.7326
67 0.0000 28.5714 42.8571 6.0479 6.7981 16.3428
68 0.0000 28.5714 50.0000 7.1247 7.2288 22.0133
69 0.0000 28.5714 57.1429 8.4144 7.7446 28.8044
70 0.0000 28.5714 64.2857 9.9274 8.3499 36.7718
71 0.0000 28.5714 71.4286 11.6736 9.0483 45.9674
72 0.0000 28.5714 78.5714 13.6624 9.8439 56.4401
73 0.0000 28.5714 85.7143 15.9025 10.7399 68.2361
74 0.0000 28.5714 92.8571 18.4022 11.7398 81.3993
75 0.0000 28.5714 100.0000 21.1694 12.8467 95.9716
76 0.0000 35.7143 0.0000 4.6602 8.4194 2.3256
77 0.0000 35.7143 7.1429 4.7701 8.4634 2.9039
78 0.0000 35.7143 14.2857 4.9820 8.5482 4.0200
79 0.0000 35.7143 21.4286 5.3345 8.6891 5.8761
80 0.0000 35.7143 28.5714 5.8461 8.8938 8.5704
81 0.0000 35.7143 35.7143 6.5327 9.1684 12.1860
82 0.0000 35.7143 42.8571 7.4082 9.5186 16.7962
83 0.0000 35.7143 50.0000 8.4850 9.9494 22.4667
84 0.0000 35.7143 57.1429 9.7747 10.4652 29.2579
85 0.0000 35.7143 64.2857 11.2877 11.0704 37.2252
86 0.0000 35.7143 71.4286 13.0339 11.7689 46.4208
87 0.0000 35.7143 78.5714 15.0227 12.5644 56.8935
88 0.0000 35.7143 85.7143 17.2627 13.4605 68.6895
89 0.0000 35.7143 92.8571 19.7624 14.4603 81.8528
90 0.0000 35.7143 100.0000 22.5297 15.5672 96.4251
91 0.0000 42.8571 0.0000 6.3947 11.8884 2.9037
92 0.0000 42.8571 7.1429 6.5045 11.9323 3.4821
93 0.0000 42.8571 14.2857 6.7165 12.0171 4.5982
94 0.0000 42.8571 21.4286 7.0689 12.1581 6.4543
95 0.0000 42.8571 28.5714 7.5806 12.3627 9.1485
96 0.0000 42.8571 35.7143 8.2672 12.6374 12.7642
97 0.0000 42.8571 42.8571 9.1426 12.9875 17.3743
98 0.0000 42.8571 50.0000 10.2195 13.4183 23.0449
99 0.0000 42.8571 57.1429 11.5091 13.9341 29.8360
100 0.0000 42.8571 64.2857 13.0221 14.5393 37.8034
101 0.0000 42.8571 71.4286 14.7684 15.2378 46.9990
102 0.0000 42.8571 78.5714 16.7571 16.0333 57.4717
103 0.0000 42.8571 85.7143 18.9972 16.9294 69.2677
104 0.0000 42.8571 92.8571 21.4969 17.9292 82.4309
105 0.0000 42.8571 100.0000 24.2642 19.0362 97.0032
106 0.0000 50.0000 0.0000 8.5281 16.1551 3.6149
107 0.0000 50.0000 7.1429 8.6379 16.1991 4.1932
108 0.0000 50.0000 14.2857 8.8498 16.2838 5.3093
109 0.0000 50.0000 21.4286 9.2023 16.4248 7.1654
110 0.0000 50.0000 28.5714 9.7140 16.6295 9.8597
111 0.0000 50.0000 35.7143 10.4006 16.9041 13.4753
112 0.0000 50.0000 42.8571 11.2760 17.2543 18.0855
113 0.0000 50.0000 50.0000 12.3529 17.6851 23.7560
114 0.0000 50.0000 57.1429 13.6425 18.2009 30.5471
115 0.0000 50.0000 64.2857 15.1555 18.8061 38.5145
116 0.0000 50.0000 71.4286 16.9018 19.5046 47.7101
117 0.0000 50.0000 78.5714 18.8905 20.3001 58.1828
118 0.0000 50.0000 85.7143 21.1306 21.1961 69.9788
119 0.0000 50.0000 92.8571 23.6303 22.1960 83.1420
120 0.0000 50.0000 100.0000 26.3976 23.3029 97.7144
121 0.0000 57.1429 0.0000 11.0830 21.2651 4.4665
122 0.0000 57.1429 7.1429 11.1929 21.3090 5.0449
123 0.0000 57.1429 14.2857 11.4048 21.3938 6.1610
124 0.0000 57.1429 21.4286 11.7573 21.5348 8.0170
125 0.0000 57.1429 28.5714 12.2689 21.7394 10.7113
126 0.0000 57.1429 35.7143 12.9555 22.0141 14.3270
127 0.0000 57.1429 42.8571 13.8310 22.3643 18.9371
128 0.0000 57.1429 50.0000 14.9079 22.7950 24.6077
129 0.0000 57.1429 57.1429 16.1975 23.3109 31.3988
130 0.0000 57.1429 64.2857 17.7105 23.9161 39.3662
131 0.0000 57.1429 71.4286 19.4567 24.6146 48.5618
132 0.0000 57.1429 78.5714 21.4455 25.4101 59.0345
133 0.0000 57.1429 85.7143 23.6856 26.3061 70.8305
134 0.0000 57.1429 92.8571 26.1853 27.3060 83.9937
135 0.0000 57.1429 100.0000 28.9525 28.4129 98.5660
136 0.0000 64.2857 0.0000 14.0806 27.2601 5.4657
137 0.0000 64.2857 7.1429 14.1904 27.3040 6.0441
138 0.0000 64.2857 14.2857 14.4023 27.3888 7.1601
139 0.0000 64.2857 21.4286 14.7548 27.5298 9.0162
140 0.0000 64.2857 28.5714 15.2664 27.7345 11.7105
141 0.0000 64.2857 35.7143 15.9530 28.0091 15.3261
142 0.0000 64.2857 42.8571 16.8285 28.3593 19.9363
143 0.0000 64.2857 50.0000 17.9054 28.7900 25.6068
144 0.0000 64.2857 57.1429 19.1950 29.3059 32.3980
145 0.0000 64.2857 64.2857 20.7080 29.9111 40.3653
146 0.0000 64.2857 71.4286 22.4542 30.6096 49.5609
147 0.0000 64.2857 78.5714 24.4430 31.4051 60.0336
148 0.0000 64.2857 85.7143 26.6831 32.3011 71.8296
149 0.0000 64.2857 92.8571 29.1828 33.3010 84.9929
150 0.0000 64.2857 100.0000 31.9501 34.4079 99.5652
151 0.0000 71.4286 0.0000 17.5401 34.1793 6.6189
152 0.0000 71.4286 7.1429 17.6500 34.2232 7.1973
153 0.0000 71.4286 14.2857 17.8619 34.3080 8.3133
154 0.0000 71.4286 21.4286 18.2144 34.4490 10.1694
155 0.0000 71.4286 28.5714 18.7260 34.6537 12.8637
156 0.0000 71.4286 35.7143 19.4126 34.9283 16.4793
157 0.0000 71.4286 42.8571 20.2881 35.2785 21.0895
158 0.0000 71.4286 50.0000 21.3650 35.7092 26.7600
159 0.0000 71.4286 57.1429 22.6546 36.2251 33.5512
160 0.0000 71.4286 64.2857 24.1676 36.8303 41.5185
161 0.0000 71.4286 71.4286 25.9138 37.5288 50.7141
162 0.0000 71.4286 78.5714 27.9026 38.3243 61.1868
163 0.0000 71.4286 85.7143 30.1427 39.2203 72.9828
164 0.0000 71.4286 92.8571 32.6424 40.2202 86.1461
165 0.0000 71.4286 100.0000 35.4096 41.3271 100.7184
166 0.0000 78.5714 0.0000 21.4802 42.0594 7.9322
167 0.0000 78.5714 7.1429 21.5901 42.1034 8.5106
168 0.0000 78.5714 14.2857 21.8020 42.1881 9.6267
169 0.0000 78.5714 21.4286 22.1545 42.3291 11.4828
170 0.0000 78.5714 28.5714 22.6661 42.5338 14.1770
171 0.0000 78.5714 35.7143 23.3527 42.8084 17.7927
172 0.0000 78.5714 42.8571 24.2282 43.1586 22.4029
173 0.0000 78.5714 50.0000 25.3050 43.5894 28.0734
174 0.0000 78.5714 57.1429 26.5947 44.1052 34.8645
175 0.0000 78.5714 64.2857 28.1077 44.7104 42.8319
176 0.0000 78.5714 71.4286 29.8539 45.4089 52.0275
177 0.0000 78.5714 78.5714 31.8427 46.2044 62.5002
178 0.0000 78.5714 85.7143 34.0827 47.1004 74.2962
179 0.0000 78.5714 92.8571 36.5824 48.1003 87.4594
180 0.0000 78.5714 100.0000 39.3497 49.2072 102.0317
181 0.0000 85.7143 0.0000 25.9182 50.9353 9.4116
182 0.0000 85.7143 7.1429 26.0280 50.9792 9.9899
183 0.0000 85.7143 14.2857 26.2399 51.0640 11.1060
184 0.0000 85.7143 21.4286 26.5924 51.2050 12.9621
185 0.0000 85.7143 28.5714 27.1040 51.4097 15.6563
186 0.0000 85.7143 35.7143 27.7906 51.6843 19.2720
187 0.0000 85.7143 42.8571 28.6661 52.0345 23.8822
188 0.0000 85.7143 50.0000 29.7430 52.4652 29.5527
189 0.0000 85.7143 57.1429 31.0326 52.9811 36.3438
190 0.0000 85.7143 64.2857 32.5456 53.5863 44.3112
191 0.0000 85.7143 71.4286 34.2918 54.2848 53.5068
192 0.0000 85.7143 78.5714 36.2806 55.0803 63.9795
193 0.0000 85.7143 85.7143 38.5207 55.9763 75.7755
194 0.0000 85.7143 92.8571 41.0204 56.9762 88.9387
195 0.0000 85.7143 100.0000 43.7877 58.0831 103.5111
196 0.0000 92.8571 0.0000 30.8705 60.8399 11.0623
197 0.0000 92.8571 7.1429 30.9803 60.8838 11.6407
198 0.0000 92.8571 14.2857 31.1922 60.9686 12.7568
199 0.0000 92.8571 21.4286 31.5447 61.1096 14.6129
200 0.0000 92.8571 28.5714 32.0563 61.3143 17.3071
201 0.0000 92.8571 35.7143 32.7430 61.5889 20.9228
202 0.0000 92.8571 42.8571 33.6184 61.9391 25.5329
203 0.0000 92.8571 50.0000 34.6953 62.3698 31.2035
204 0.0000 92.8571 57.1429 35.9849 62.8857 37.9946
205 0.0000 92.8571 64.2857 37.4979 63.4909 45.9620
206 0.0000 92.8571 71.4286 39.2441 64.1894 55.1576
207 0.0000 92.8571 78.5714 41.2329 64.9849 65.6303
208 0.0000 92.8571 85.7143 43.4730 65.8809 77.4263
209 0.0000 92.8571 92.8571 45.9727 66.8808 90.5895
210 0.0000 92.8571 100.0000 48.7400 67.9877 105.1618
211 0.0000 100.0000 0.0000 36.3529 71.8048 12.8898
212 0.0000 100.0000 7.1429 36.4627 71.8487 13.4682
213 0.0000 100.0000 14.2857 36.6747 71.9335 14.5842
214 0.0000 100.0000 21.4286 37.0271 72.0745 16.4403
215 0.0000 100.0000 28.5714 37.5388 72.2792 19.1346
216 0.0000 100.0000 35.7143 38.2254 72.5538 22.7502
217 0.0000 100.0000 42.8571 39.1009 72.9040 27.3604
218 0.0000 100.0000 50.0000 40.1777 73.3347 33.0310
219 0.0000 100.0000 57.1429 41.4673 73.8506 39.8221
220 0.0000 100.0000 64.2857 42.9803 74.4558 47.7895
221 0.0000 100.0000 71.4286 44.7266 75.1543 56.9851
222 0.0000 100.0000 78.5714 46.7154 75.9498 67.4577
223 0.0000 100.0000 85.7143 48.9554 76.8458 79.2538
224 0.0000 100.0000 92.8571 51.4551 77.8457 92.4170
225 0.0000 100.0000 100.0000 54.2224 78.9526 106.9893
226 7.1429 0.0000 0.0000 1.2014 1.1294 1.1007
227 7.1429 0.0000 7.1429 1.3113 1.1733 1.6791
228 7.1429 0.0000 14.2857 1.5232 1.2581 2.7952
229 7.1429 0.0000 21.4286 1.8757 1.3991 4.6513
230 7.1429 0.0000 28.5714 2.3873 1.6037 7.3455
231 7.1429 0.0000 35.7143 3.0739 1.8784 10.9612
232 7.1429 0.0000 42.8571 3.9494 2.2286 15.5714
233 7.1429 0.0000 50.0000 5.0263 2.6593 21.2419
234 7.1429 0.0000 57.1429 6.3159 3.1751 28.0330
235 7.1429 0.0000 64.2857 7.8289 3.7803 36.0004
236 7.1429 0.0000 71.4286 9.5751 4.4788 45.1960
237 7.1429 0.0000 78.5714 11.5639 5.2743 55.6687
238 7.1429 0.0000 85.7143 13.8040 6.1704 67.4647
239 7.1429 0.0000 92.8571 16.3037 7.1703 80.6279
240 7.1429 0.0000 100.0000 19.0709 8.2772 95.2002
241 7.1429 7.1429 0.0000 1.4190 1.5646 1.1733
242 7.1429 7.1429 7.1429 1.5289 1.6085 1.7517
243 7.1429 7.1429 14.2857 1.7408 1.6933 2.8677
244 7.1429 7.1429 21.4286 2.0933 1.8343 4.7238
245 7.1429 7.1429 28.5714 2.6049 2.0389 7.4181
246 7.1429 7.1429 35.7143 3.2915 2.3136 11.0337
247 7.1429 7.1429 42.8571 4.1670 2.6638 15.6439
248 7.1429 7.1429 50.0000 5.2439 3.0945 21.3144
249 7.1429 7.1429 57.1429 6.5335 3.6103 28.1056
250 7.1429 7.1429 64.2857 8.0465 4.2155 36.0729
251 7.1429 7.1429 71.4286 9.7927 4.9140 45.2685
252 7.1429 7.1429 78.5714 11.7815 5.7095 55.7412
253 7.1429 7.1429 85.7143 14.0216 6.6056 67.5372
254 7.1429 7.1429 92.8571 16.5213 7.6054 80.7005
255 7.1429 7.1429 100.0000 19.2885 8.7124 95.2728
256 7.1429 14.2857 0.0000 1.8389 2.4043 1.3132
257 7.1429 14.2857 7.1429 1.9488 2.4483 1.8916
258 7.1429 14.2857 14.2857 2.1607 2.5330 3.0077
259 7.1429 14.2857 21.4286 2.5132 2.6740 4.8638
260 7.1429 14.2857 28.5714 3.0248 2.8787 7.5580
261 7.1429 14.2857 35.7143 3.7114 3.1533 11.1737
262 7.1429 14.2857 42.8571 4.5869 3.5035 15.7839
263 7.1429 14.2857 50.0000 5.6637 3.9343 21.4544
264 7.1429 14.2857 57.1429 6.9534 4.4501 28.2455
265 7.1429 14.2857 64.2857 8.4664 5.0553 36.2129
266 7.1429 14.2857 71.4286 10.2126 5.7538 45.4085
267 7.1429 14.2857 78.5714 12.2014 6.5493 55.8812
268 7.1429 14.2857 85.7143 14.4414 7.4453 67.6772
269 7.1429 14.2857 92.8571 16.9411 8.4452 80.8404
270 7.1429 14.2857 100.0000 19.7084 9.5521 95.4127
271 7.1429 21.4286 0.0000 2.5372 3.8009 1.5460
272 7.1429 21.4286 7.1429 2.6471 3.8449 2.1244
273 7.1429 21.4286 14.2857 2.8590 3.9297 3.2404
274 7.1429 21.4286 21.4286 3.2115 4.0706 5.0965
275 7.1429 21.4286 28.5714 3.7231 4.2753 7.7908
276 7.1429 21.4286 35.7143 4.4097 4.5499 11.4064
277 7.1429 21.4286 42.8571 5.2852 4.9001 16.0166
278 7.1429 21.4286 50.0000 6.3620 5.3309 21.6872
279 7.1429 21.4286 57.1429 7.6517 5.8467 28.4783
280 7.1429 21.4286 64.2857 9.1647 6.4519 36.4457
281 7.1429 21.4286 71.4286 10.9109 7.1504 45.6413
282 7.1429 21.4286 78.5714 12.8997 7.9459 56.1140
283 7.1429 21.4286 85.7143 15.1398 8.8420 67.9100
284 7.1429 21.4286 92.8571 17.6395 9.8418 81.0732
285 7.1429 21.4286 100.0000 20.4067 10.9487 95.6455
286 7.1429 28.5714 0.0000 3.5509 5.8282 1.8839
287 7.1429 28.5714 7.1429 3.6607 5.8722 2.4623
288 7.1429 28.5714 14.2857 3.8727 5.9569 3.5783
289 7.1429 28.5714 21.4286 4.2251 6.0979 5.4344
290 7.1429 28.5714 28.5714 4.7368 6.3026 8.1287
291 7.1429 28.5714 35.7143 5.4234 6.5772 11.7443
292 7.1429 28.5714 42.8571 6.2989 6.9274 16.3545
293 7.1429 28.5714 50.0000 7.3757 7.3582 22.0251
294 7.1429 28.5714 57.1429 8.6653 7.8740 28.8162
295 7.1429 28.5714 64.2857 10.1783 8.4792 36.7835
296 7.1429 28.5714 71.4286 11.9246 9.1777 45.9791
297 7.1429 28.5714 78.5714 13.9133 9.9732 56.4518
298 7.1429 28.5714 85.7143 16.1534 10.8692 68.2478
299 7.1429 28.5714 92.8571 18.6531 11.8691 81.4111
300 7.1429 28.5714 100.0000 21.4204 12.9760 95.9834
301 7.1429 35.7143 0.0000 4.9112 8.5488 2.3373
302 7.1429 35.7143 7.1429 5.0210 8.5927 2.9157
303 7.1429 35.7143 14.2857 5.2329 8.6775 4.0318
304 7.1429 35.7143 21.4286 5.5854 8.8185 5.8878
305 7.1429 35.7143 28.5714 6.0971 9.0232 8.5821
306 7.1429 35.7143 35.7143 6.7837 9.2978 12.1978
307 7.1429 35.7143 42.8571 7.6591 9.6480 16.8079
308 7.1429 35.7143 50.0000 8.7360 10.0787 22.4785
309 7.1429 35.7143 57.1429 10.0256 10.5946 29.2696
310 7.1429 35.7143 64.2857 11.5386 11.1998 37.2370
311 7.1429 35.7143 71.4286 13.2849 11.8983 46.4326
312 7.1429 35.7143 78.5714 15.2736 12.6938 56.9053
313 7.1429 35.7143 85.7143 17.5137 13.5898 68.7013
314 7.1429 35.7143 92.8571 20.0134 14.5897 81.8645
315 7.1429 35.7143 100.0000 22.7807 15.6966 96.4368
316 7.1429 42.8571 0.0000 6.6456 12.0177 2.9155
317 7.1429 42.8571 7.1429 6.7555 12.0617 3.4938
318 7.1429 42.8571 14.2857 6.9674 12.1464 4.6099
319 7.1429 42.8571 21.4286 7.3199 12.2874 6.4660
320 7.1429 42.8571 28.5714 7.8315 12.4921 9.1603
321 7.1429 42.8571 35.7143 8.5181 12.7667 12.7759
322 7.1429 42.8571 42.8571 9.3936 13.1169 17.3861
323 7.1429 42.8571 50.0000 10.4704 13.5476 23.0566
324 7.1429 42.8571 57.1429 11.7601 14.0635 29.8478
325 7.1429 42.8571 64.2857 13.2731 14.6687 37.8151
326 7.1429 42.8571 71.4286 15.0193 15.3672 47.0107
327 7.1429 42.8571 78.5714 17.0081 16.1627 57.4834
328 7.1429 42.8571 85.7143 19.2481 17.0587 69.2794
329 7.1429 42.8571 92.8571 21.7478 18.0586 82.4427
330 7.1429 42.8571 100.0000 24.5151 19.1655 97.0150
331 7.1429 50.0000 0.0000 8.7790 16.2845 3.6266
332 7.1429 50.0000 7.1429 8.8888 16.3284 4.2050
333 7.1429 50.0000 14.2857 9.1008 16.4132 5.3210
334 7.1429 50.0000 21.4286 9.4533 16.5542 7.1771
335 7.1429 50.0000 28.5714 9.9649 16.7589 9.8714
336 7.1429 50.0000 35.7143 10.6515 17.0335 13.4870
337 7.1429 50.0000 42.8571 11.5270 17.3837 18.0972
338 7.1429 50.0000 50.0000 12.6038 17.8144 23.7678
339 7.1429 50.0000 57.1429 13.8935 18.3303 30.5589
340 7.1429 50.0000 64.2857 15.4065 18.9355 38.5263
341 7.1429 50.0000 71.4286 17.1527 19.6340 47.7219
342 7.1429 50.0000 78.5714 19.1415 20.4295 58.1946
343 7.1429 50.0000 85.7143 21.3815 21.3255 69.9906
344 7.1429 50.0000 92.8571 23.8812 22.3254 83.1538
345 7.1429 50.0000 100.0000 26.6485 23.4323 97.7261
346 7.1429 57.1429 0.0000 11.3340 21.3945 4.4783
347 7.1429 57.1429 7.1429 11.4438 21.4384 5.0566
348 7.1429 57.1429 14.2857 11.6558 21.5232 6.1727
349 7.1429 57.1429 21.4286 12.0082 21.6642 8.0288
350 7.1429 57.1429 28.5714 12.5199 21.8688 10.7231
351 7.1429 57.1429 35.7143 13.2065 22.1435 14.3387
352 7.1429 57.1429 42.8571 14.0820 22.4936 18.9489
353 7.1429 57.1429 50.0000 15.1588 22.9244 24.6194
354 7.1429 57.1429 57.1429 16.4484 23.4402 31.4105
355 7.1429 57.1429 64.2857 17.9614 24.0454 39.3779
356 7.1429 57.1429 71.4286 19.7077 24.7439 48.5735
357 7.1429 57.1429 78.5714 21.6964 25.5394 59.0462
358 7.1429 57.1429 85.7143 23.9365 26.4355 70.8422
359 7.1429 57.1429 92.8571 26.4362 27.4353 84.0054
360 7.1429 57.1429 100.0000 29.2035 28.5423 98.5778
361 7.1429 64.2857 0.0000 14.3315 27.3895 5.4774
362 7.1429 64.2857 7.1429 14.4413 27.4334 6.0558
363 7.1429 64.2857 14.2857 14.6533 27.5182 7.1719
364 7.1429 64.2857 21.4286 15.0057 27.6592 9.0280
365 7.1429 64.2857 28.5714 15.5174 27.8638 11.7222
366 7.1429 64.2857 35.7143 16.2040 28.1385 15.3379
367 7.1429 64.2857 42.8571 17.0795 28.4887 19.9480
368 7.1429 64.2857 50.0000 18.1563 28.9194 25.6186
369 7.1429 64.2857 57.1429 19.4459 29.4352 32.4097
370 7.1429 64.2857 64.2857 20.9589 30.0404 40.3771
371 7.1429 64.2857 71.4286 22.7052 30.7389 49.5727
372 7.1429 64.2857 78.5714 24.6940 31.5345 60.0454
373 7.1429 64.2857 85.7143 26.9340 32.4305 71.8414
374 7.1429 64.2857 92.8571 29.4337 33.4304 85.0046
375 7.1429 64.2857 100.0000 32.2010 34.5373 99.5769
376 7.1429 71.4286 0.0000 17.7911 34.3087 6.6306
377 7.1429 71.4286 7.1429 17.9009 34.3526 7.2090
378 7.1429 71.4286 14.2857 18.1129 34.4374 8.3251
379 7.1429 71.4286 21.4286 18.4653 34.5784 10.1812
380 7.1429 71.4286 28.5714 18.9770 34.7830 12.8754
381 7.1429 71.4286 35.7143 19.6636 35.0577 16.4911
382 7.1429 71.4286 42.8571 20.5391 35.4079 21.1012
383 7.1429 71.4286 50.0000 21.6159 35.8386 26.7718
384 7.1429 71.4286 57.1429 22.9055 36.3544 33.5629
385 7.1429 71.4286 64.2857 24.4185 36.9596 41.5303
386 7.1429 71.4286 71.4286 26.1648 37.6581 50.7259
387 7.1429 71.4286 78.5714 28.1535 38.4536 61.1986
388 7.1429 71.4286 85.7143 30.3936 39.3497 72.9946
389 7.1429 71.4286 92.8571 32.8933 40.3496 86.1578
390 7.1429 71.4286 100.0000 35.6606 41.4565 100.7301
391 7.1429 78.5714 0.0000 21.7312 42.1888 7.9440
392 7.1429 78.5714 7.1429 21.8410 42.2327 8.5224
393 7.1429 78.5714 14.2857 22.0529 42.3175 9.6384
394 7.1429 78.5714 21.4286 22.4054 42.4585 11.4945
395 7.1429 78.5714 28.5714 22.9171 42.6632 14.1888
396 7.1429 78.5714 35.7143 23.6037 42.9378 17.8044
397 7.1429 78.5714 42.8571 24.4791 43.2880 22.4146
398 7.1429 78.5714 50.0000 25.5560 43.7187 28.0851
399 7.1429 78.5714 57.1429 26.8456 44.2346 34.8763
400 7.1429 78.5714 64.2857 28.3586 44.8398 42.8436
401 7.1429 78.5714 71.4286 30.1049 45.5383 52.0392
402 7.1429 78.5714 78.5714 32.0936 46.3338 62.5119
403 7.1429 78.5714 85.7143 34.3337 47.2298 74.3079
404 7.1429 78.5714 92.8571 36.8334 48.2297 87.4712
405 7.1429 78.5714 100.0000 39.6007 49.3366 102.0435
406 7.1429 85.7143 0.0000 26.1691 51.0647 9.4233
407 7.1429 85.7143 7.1429 26.2789 51.1086 10.0017
408 7.1429 85.7143 14.2857 26.4909 51.1934 11.1177
409 7.1429 85.7143 21.4286 26.8433 51.3344 12.9738
410 7.1429 85.7143 28.5714 27.3550 51.5390 15.6681
411 7.1429 85.7143 35.7143 28.0416 51.8137 19.2837
412 7.1429 85.7143 42.8571 28.9171 52.1639 23.8939
413 7.1429 85.7143 50.0000 29.9939 52.5946 29.5645
414 7.1429 85.7143 57.1429 31.2835 53.1104 36.3556
415 7.1429 85.7143 64.2857 32.7965 53.7156 44.3229
416 7.1429 85.7143 71.4286 34.5428 54.4141 53.5185
417 7.1429 85.7143 78.5714 36.5316 55.2096 63.9912
418 7.1429 85.7143 85.7143 38.7716 56.1057 75.7873
419 7.1429 85.7143 92.8571 41.2713 57.1056 88.9505
420 7.1429 85.7143 100.0000 44.0386 58.2125 103.5228
421 7.1429 92.8571 0.0000 31.1214 60.9693 11.0741
422 7.1429 92.8571 7.1429 31.2312 61.0132 11.6524
423 7.1429 92.8571 14.2857 31.4432 61.0980 12.7685
424 7.1429 92.8571 21.4286 31.7956 61.2390 14.6246
425 7.1429 92.8571 28.5714 32.3073 61.4436 17.3189
426 7.1429 92.8571 35.7143 32.9939 61.7183 20.9345
427 7.1429 92.8571 42.8571 33.8694 62.0685 25.5447
428 7.1429 92.8571 50.0000 34.9462 62.4992 31.2152
429 7.1429 92.8571 57.1429 36.2358 63.0151 38.0063
430 7.1429 92.8571 64.2857 37.7488 63.6203 45.9737
431 7.1429 92.8571 71.4286 39.4951 64.3188 55.1693
432 7.1429 92.8571 78.5714 41.4839 65.1143 65.6420
433 7.1429 92.8571 85.7143 43.7239 66.0103 77.4380
434 7.1429 92.8571 92.8571 46.2236 67.0102 90.6012
435 7.1429 92.8571 100.0000 48.9909 68.1171 105.1736
436 7.1429 100.0000 0.0000 36.6038 71.9342 12.9015
437 7.1429 100.0000 7.1429 36.7137 71.9781 13.4799
438 7.1429 100.0000 14.2857 36.9256 72.0629 14.5960
439 7.1429 100.0000 21.4286 37.2781 72.2039 16.4521
440 7.1429 100.0000 28.5714 37.7897 72.4085 19.1463
441 7.1429 100.0000 35.7143 38.4763 72.6832 22.7620
442 7.1429 100.0000 42.8571 39.3518 73.0334 27.3722
443 7.1429 100.0000 50.0000 40.4287 73.4641 33.0427
444 7.1429 100.0000 57.1429 41.7183 73.9799 39.8338
445 7.1429 100.0000 64.2857 43.2313 74.5851 47.8012
446 7.1429 100.0000 71.4286 44.9775 75.2836 56.9968
447 7.1429 100.0000 78.5714 46.9663 76.0791 67.4695
448 7.1429 100.0000 85.7143 49.2064 76.9752 79.2655
449 7.1429 100.0000 92.8571 51.7061 77.9751 92.4287
450 7.1429 100.0000 100.0000 54.4733 79.0820 107.0010
451 14.2857 0.0000 0.0000 1.6857 1.3790 1.1234
452 14.2857 0.0000 7.1429 1.7955 1.4229 1.7018
453 14.2857 0.0000 14.2857 2.0075 1.5077 2.8178
454 14.2857 0.0000 21.4286 2.3599 1.6487 4.6739
455 14.2857 0.0000 28.5714 2.8716 1.8534 7.3682
456 14.2857 0.0000 35.7143 3.5582 2.1280 10.9838
457 14.2857 0.0000 42.8571 4.4336 2.4782 15.5940
458 14.2857 0.0000 50.0000 5.5105 2.9089 21.2646
459 14.2857 0.0000 57.1429 6.8001 3.4248 28.0557
460 14.2857 0.0000 64.2857 8.3131 4.0300 36.0231
461 14.2857 0.0000 71.4286 10.0594 4.7285 45.2187
462 14.2857 0.0000 78.5714 12.0481 5.5240 55.6914
463 14.2857 0.0000 85.7143 14.2882 6.4200 67.4874
464 14.2857 0.0000 92.8571 16.7879 7.4199 80.6506
465 14.2857 0.0000 100.0000 19.5552 8.5268 95.2229
466 14.2857 7.1429 0.0000 1.9033 1.8142 1.1959
467 14.2857 7.1429 7.1429 2.0131 1.8581 1.7743
468 14.2857 7.1429 14.2857 2.2250 1.9429 2.8904
469 14.2857 7.1429 21.4286 2.5775 2.0839 4.7465
470 14.2857 7.1429 28.5714 3.0892 2.2885 7.4407
471 14.2857 7.1429 35.7143 3.7758 2.5632 11.0564
472 14.2857 7.1429 42.8571 4.6512 2.9134 15.6666
473 14.2857 7.1429 50.0000 5.7281 3.3441 21.3371
474 14.2857 7.1429 57.1429 7.0177 3.8600 28.1282
475 14.2857 7.1429 64.2857 8.5307 4.4652 36.0956
