demo-projects/Demo-Report-Matrix/runs/run1/verifications/2026-05-01_100000/Demo-Report-Matrix-verify.ti3
CTI3   
KEYWORD "CHROMIQ_VERIFICATION"
CHROMIQ_VERIFICATION "true"

DESCRIPTOR "Argyll Calibration Target chart information 3"
ORIGINATOR "Argyll fakeread"
CREATED "Tue Aug 11 11:21:04 2026"
DEVICE_CLASS "DISPLAY"
COLOR_REP "iRGB_XYZ"

KEYWORD "CHROMIQ_MEASURED"
CHROMIQ_MEASURED "2026-05-01T10:00:00"
TARGET_INSTRUMENT "X-Rite ColorMunki"
NUMBER_OF_FIELDS 7
BEGIN_DATA_FORMAT
SAMPLE_ID RGB_R RGB_G RGB_B XYZ_X XYZ_Y XYZ_Z 
END_DATA_FORMAT

NUMBER_OF_SETS 105
BEGIN_DATA
1 100.0000 100.0000 100.0000 94.95930 99.95884 108.7532 
2 100.0000 100.0000 100.0000 94.94722 99.80349 108.8723 
3 100.0000 100.0000 100.0000 94.82574 99.91211 107.7478 
4 100.0000 100.0000 100.0000 94.99974 99.90854 108.8898 
5 0.00000 0.00000 0.00000 0.0102352 0.0204703 0.00341146 
6 0.00000 0.00000 0.00000 0.000999121 0.000515190 0.0000468188 
7 0.00000 0.00000 0.00000 0.00355887 0.00711770 0.00118620 
8 0.00000 0.00000 0.00000 0.0273044 0.0174178 0.00192374 
9 100.0000 100.0000 0.00000 76.61749 92.29406 13.79031 
10 0.00000 0.00000 100.0000 18.04884 7.221575 94.99258 
11 100.0000 0.00000 0.00000 41.03349 21.17776 1.926519 
12 0.00000 100.0000 100.0000 53.26040 77.64220 106.7904 
13 0.00000 100.0000 0.00000 35.45824 70.91211 11.81770 
14 100.0000 0.00000 100.0000 58.87918 28.27340 96.94994 
15 0.00000 38.69451 100.0000 22.49206 16.09135 96.53226 
16 0.00000 61.01825 0.00000 12.05534 24.09708 4.059724 
17 0.00000 0.00000 49.66734 3.768269 1.519519 19.80781 
18 100.0000 0.00000 49.59690 44.79226 22.67089 22.12780 
19 100.0000 51.96322 100.0000 67.41243 44.85561 99.71817 
20 100.0000 51.02120 0.00000 48.99149 36.76655 4.574204 
21 49.79587 0.00000 0.00000 8.743997 4.508781 0.409744 
22 100.0000 100.0000 50.20307 80.80595 94.30452 33.91208 
23 0.00000 100.0000 50.70625 39.62299 72.90577 32.66861 
24 49.48561 100.0000 100.0000 62.33388 82.55462 107.2606 
25 51.72588 100.0000 0.00000 45.03950 76.30239 12.35348 
26 50.05958 0.00000 100.0000 26.86625 11.77730 95.15089 
27 0.00000 47.79621 60.34591 12.82540 16.35019 32.95045 
28 100.0000 59.17416 43.63085 54.82398 44.15984 21.10152 
29 47.31399 48.98978 0.00000 15.09273 18.64947 2.804344 
30 52.09288 0.00000 45.52943 12.72975 6.217437 17.09330 
31 55.39583 47.66229 100.0000 36.00487 27.07923 97.94126 
32 49.20125 100.0000 50.84061 48.09370 77.41420 33.39329 
33 48.29114 47.33520 50.18713 19.10219 19.36395 23.53857 
34 0.00000 30.94905 0.00000 2.809963 5.615336 0.935700 
35 100.0000 21.19106 79.12555 53.34507 28.35313 58.76692 
36 33.94804 70.69041 100.0000 38.03323 41.68321 100.6527 
37 74.96124 25.82053 0.00000 23.43160 14.93422 1.648355 
38 0.00000 77.61705 71.72771 29.18253 44.56467 52.27590 
39 24.97790 0.00000 23.41364 3.109001 1.513638 4.391171 
40 76.31808 100.0000 28.35106 59.12556 82.98601 18.82736 
41 0.00000 77.00365 31.43299 21.43888 40.42631 14.68240 
42 75.41143 77.79628 100.0000 60.42385 58.99837 102.8154 
43 100.0000 23.29829 20.42453 43.39432 24.58729 5.700405 
44 100.0000 80.02238 22.27702 63.82025 65.26455 13.05860 
45 75.35445 100.0000 76.01304 67.00398 86.43071 63.97113 
46 75.31505 74.81469 0.00000 40.22298 47.61960 7.077653 
47 100.0000 79.49395 78.19811 72.76395 67.85863 63.18000 
48 26.41218 100.0000 75.99234 47.74063 76.56799 63.34836 
49 28.19308 28.22301 100.0000 23.06502 13.28654 95.96083 
50 76.81359 0.00000 23.55016 23.54661 12.04386 5.515965 
51 75.25932 0.00000 74.69026 31.22219 15.02571 50.45824 
52 29.89921 74.23536 0.00000 21.12336 37.81947 6.242889 
53 25.50439 100.0000 24.78846 38.88137 73.02188 16.80834 
54 77.21225 23.71451 100.0000 42.61957 22.29002 95.88880 
55 0.00000 21.07405 72.23364 10.06665 6.111014 46.52849 
56 26.28049 0.00000 71.93547 10.89759 4.626118 45.32863 
57 0.00000 19.89483 30.07019 2.498388 2.885805 7.341295 
58 26.28079 33.45692 23.52814 6.621621 8.425356 5.789466 
59 66.56754 70.38587 52.30860 37.03877 43.14204 28.61257 
60 75.09479 52.62129 65.01886 36.80740 30.84787 38.96088 
61 26.64973 49.33561 81.42125 21.13992 20.81908 61.34212 
62 45.91179 68.61670 63.70484 29.36208 37.06180 40.77664 
63 71.11740 50.49568 34.71935 28.92347 26.33722 12.84661 
64 54.43736 27.35888 62.61652 19.22555 12.43214 34.38321 
65 34.69612 74.79966 32.60823 24.59167 40.67304 14.58361 
66 74.85889 20.44437 50.18860 26.68861 15.17953 22.32086 
67 47.85106 20.11464 33.14580 10.97919 7.310102 9.523919 
68 27.20651 32.63652 48.27367 9.244332 8.991272 20.21132 
69 27.58870 24.69734 0.00000 4.332311 4.854336 0.710060 
70 0.00000 69.14068 100.0000 33.40002 37.94338 100.0793 
71 20.53684 59.80271 49.57175 16.63482 25.05134 23.46572 
72 0.00000 46.98630 28.11508 7.791156 13.72063 8.336647 
73 73.54294 75.32966 75.96305 49.45157 52.62282 58.04263 
74 63.36650 75.70063 29.24590 35.09602 46.00842 13.88572 
75 100.0000 50.88622 71.33775 57.32011 40.48462 49.17217 
76 23.55356 85.77019 53.26247 31.26801 52.63601 31.50090 
77 100.0000 29.41094 48.41781 47.08698 27.63060 21.52305 
78 72.19800 51.56213 8.666635 28.33849 26.78853 4.463963 
79 21.36322 53.66478 11.70929 10.59551 18.50819 4.127070 
80 12.24937 81.96187 10.32227 23.63483 46.09964 8.719485 
81 50.32410 91.80251 71.76533 46.63455 66.64119 54.83479 
82 48.45094 95.04594 23.03440 40.66790 68.09801 15.14334 
83 47.91670 54.94911 27.45694 19.06343 24.03183 9.581593 
84 3.781525 53.33689 81.63552 20.18805 21.74522 63.48331 
85 76.14076 97.71765 95.89858 73.08612 86.67393 98.48072 
86 74.72769 92.97172 51.48222 55.83005 74.09506 32.29527 
87 91.51768 77.11623 49.84954 56.50006 57.44441 28.06009 
88 55.99479 23.67844 88.16304 26.13982 14.38273 71.13484 
89 76.02370 54.61404 92.04182 46.88288 36.55400 84.05911 
90 52.92777 23.07148 11.01567 11.75777 8.330087 2.114142 
91 2.113597 97.73685 76.72762 44.21716 72.45269 63.55863 
92 77.95688 25.26049 74.12841 34.74019 19.53241 48.84440 
93 5.158119 95.50651 28.71841 33.16646 64.22571 16.74487 
94 4.213096 24.16053 51.05457 5.899520 5.180982 21.66581 
95 51.24030 47.80404 76.36550 26.32280 22.45303 55.16734 
96 97.40498 100.0000 75.01152 84.12431 94.91518 63.05828 
97 49.19419 5.350316 74.01136 17.95122 8.418890 48.90896 
98 91.32533 51.59153 22.20459 42.61880 33.90358 8.142585 
99 74.48121 24.34677 26.05584 24.14548 14.86431 6.988536 
100 94.19953 74.22767 93.65841 68.86903 59.93688 90.08439 
101 23.32810 75.54038 80.93191 32.14824 43.54237 65.94858 
102 56.07175 76.90790 5.268606 30.79358 44.91538 7.489896 
103 27.55381 8.135545 46.48987 6.018021 3.083756 17.60718 
104 27.88054 25.86915 72.11177 13.37779 8.774289 47.25937 
105 51.80627 80.99682 89.24284 45.77248 54.58350 82.07567 
END_DATA
