demo-projects/Demo-Report-Matrix/runs/run1/verifications/2026-08-10_100000/Demo-Report-Matrix-verify.ti3
CTI3   
KEYWORD "CHROMIQ_VERIFICATION"
CHROMIQ_VERIFICATION "true"

DESCRIPTOR "Argyll Calibration Target chart information 3"
ORIGINATOR "Argyll fakeread"
CREATED "Tue Aug 11 11:21:04 2026"
DEVICE_CLASS "DISPLAY"
COLOR_REP "iRGB_XYZ"

KEYWORD "CHROMIQ_MEASURED"
CHROMIQ_MEASURED "2026-08-10T10:00:00"
TARGET_INSTRUMENT "X-Rite i1Pro3"
NUMBER_OF_FIELDS 7
BEGIN_DATA_FORMAT
SAMPLE_ID RGB_R RGB_G RGB_B XYZ_X XYZ_Y XYZ_Z 
END_DATA_FORMAT

NUMBER_OF_SETS 105
BEGIN_DATA
1 100.0000 100.0000 100.0000 94.90193 99.93144 108.6522 
2 100.0000 100.0000 100.0000 94.88208 99.67322 108.8506 
3 100.0000 100.0000 100.0000 94.68003 99.85383 106.9804 
4 100.0000 100.0000 100.0000 94.96926 99.84757 108.8796 
5 0.00000 0.00000 0.00000 0.0170587 0.0341172 0.00568577 
6 0.00000 0.00000 0.00000 0.00166520 0.000858650 0.0000780314 
7 0.00000 0.00000 0.00000 0.00593145 0.0118628 0.00197699 
8 0.00000 0.00000 0.00000 0.0448781 0.0287052 0.00317675 
9 100.0000 100.0000 0.00000 76.36541 91.97041 13.75000 
10 0.00000 0.00000 100.0000 18.04894 7.223256 94.95161 
11 100.0000 0.00000 0.00000 40.89739 21.12033 1.922601 
12 0.00000 100.0000 100.0000 52.89898 76.91935 106.6699 
13 0.00000 100.0000 0.00000 35.25842 70.50977 11.75058 
14 100.0000 0.00000 100.0000 58.60798 28.13382 96.92562 
15 0.00000 38.69451 100.0000 22.50046 16.09854 96.53321 
16 0.00000 61.01825 0.00000 12.21288 24.40317 4.139961 
17 0.00000 0.00000 49.66734 3.741985 1.517204 19.64411 
18 100.0000 0.00000 49.59690 44.63163 22.59679 22.26512 
19 100.0000 51.96322 100.0000 67.28326 44.67779 99.69066 
20 100.0000 51.02120 0.00000 48.83126 36.44385 4.557825 
21 49.79587 0.00000 0.00000 8.740843 4.507155 0.409596 
22 100.0000 100.0000 50.20307 80.74786 94.28129 33.60616 
23 0.00000 100.0000 50.70625 39.54505 72.77075 32.52137 
24 49.48561 100.0000 100.0000 62.26785 82.13681 107.1835 
25 51.72588 100.0000 0.00000 44.89479 76.22777 12.34670 
26 50.05958 0.00000 100.0000 26.84530 11.77416 94.93998 
27 0.00000 47.79621 60.34591 12.86466 16.43905 32.93165 
28 100.0000 59.17416 43.63085 54.59363 43.92311 21.30412 
29 47.31399 48.98978 0.00000 15.04826 18.62382 2.801736 
30 52.09288 0.00000 45.52943 12.68019 6.204347 17.09981 
31 55.39583 47.66229 100.0000 36.02561 27.33026 97.98861 
32 49.20125 100.0000 50.84061 47.96554 77.34824 33.38208 
33 48.29114 47.33520 50.18713 19.25021 19.35353 23.79194 
34 0.00000 30.94905 0.00000 2.823433 5.639232 0.939602 
35 100.0000 21.19106 79.12555 53.44933 28.48632 59.03391 
36 33.94804 70.69041 100.0000 37.85045 41.49297 100.6256 
37 74.96124 25.82053 0.00000 23.41147 14.90679 1.644123 
38 0.00000 77.61705 71.72771 29.49821 45.10144 52.67273 
39 24.97790 0.00000 23.41364 3.252629 1.590312 4.417843 
40 76.31808 100.0000 28.35106 58.98283 82.61730 18.59649 
41 0.00000 77.00365 31.43299 21.55061 40.56399 14.97000 
42 75.41143 77.79628 100.0000 60.61431 58.98095 102.8020 
43 100.0000 23.29829 20.42453 43.36079 24.52387 5.677963 
44 100.0000 80.02238 22.27702 63.98302 65.59708 13.09952 
45 75.35445 100.0000 76.01304 66.83886 86.29667 63.87114 
46 75.31505 74.81469 0.00000 40.15653 47.12331 6.989217 
47 100.0000 79.49395 78.19811 72.68667 67.77851 62.92476 
48 26.41218 100.0000 75.99234 47.69586 76.54233 63.46226 
49 28.19308 28.22301 100.0000 23.08978 13.32907 95.96773 
50 76.81359 0.00000 23.55016 23.54560 12.04111 5.616647 
51 75.25932 0.00000 74.69026 31.33163 15.08677 50.61272 
52 29.89921 74.23536 0.00000 21.03162 37.65340 6.251992 
53 25.50439 100.0000 24.78846 38.90689 73.03458 16.83013 
54 77.21225 23.71451 100.0000 42.57622 22.24590 95.36354 
55 0.00000 21.07405 72.23364 10.12582 6.130264 46.81326 
56 26.28049 0.00000 71.93547 10.89092 4.623112 45.30873 
57 0.00000 19.89483 30.07019 2.496987 2.892454 7.311687 
58 26.28079 33.45692 23.52814 6.770301 8.670813 5.991810 
59 66.56754 70.38587 52.30860 37.06824 43.47041 28.61081 
60 75.09479 52.62129 65.01886 36.66563 30.75520 38.26966 
61 26.64973 49.33561 81.42125 21.13267 20.94438 60.70757 
62 45.91179 68.61670 63.70484 29.45084 37.06371 41.29629 
63 71.11740 50.49568 34.71935 29.04574 26.41560 12.81300 
64 54.43736 27.35888 62.61652 19.30442 12.48627 34.31440 
65 34.69612 74.79966 32.60823 24.84986 41.21388 14.55256 
66 74.85889 20.44437 50.18860 26.75769 15.24030 22.58374 
67 47.85106 20.11464 33.14580 11.06967 7.397422 9.669202 
68 27.20651 32.63652 48.27367 9.292117 9.030413 20.34370 
69 27.58870 24.69734 0.00000 4.335795 4.845360 0.709055 
70 0.00000 69.14068 100.0000 33.24526 37.64838 99.96682 
71 20.53684 59.80271 49.57175 16.70367 25.17146 23.24154 
72 0.00000 46.98630 28.11508 7.749776 13.63383 8.335330 
73 73.54294 75.32966 75.96305 49.62221 52.87011 57.83087 
74 63.36650 75.70063 29.24590 35.06252 45.81791 14.03687 
75 100.0000 50.88622 71.33775 57.11915 40.44932 49.28674 
76 23.55356 85.77019 53.26247 31.07960 52.23180 31.27582 
77 100.0000 29.41094 48.41781 46.90654 27.55941 21.37076 
78 72.19800 51.56213 8.666635 28.48600 26.89712 4.492292 
79 21.36322 53.66478 11.70929 10.52535 18.35661 4.034177 
80 12.24937 81.96187 10.32227 23.68293 46.18487 8.781927 
81 50.32410 91.80251 71.76533 46.42783 66.44895 54.56135 
82 48.45094 95.04594 23.03440 40.52155 67.97371 15.15495 
83 47.91670 54.94911 27.45694 19.40770 24.46853 9.750261 
84 3.781525 53.33689 81.63552 20.09667 21.42566 63.80203 
85 76.14076 97.71765 95.89858 73.39289 87.18157 98.28216 
86 74.72769 92.97172 51.48222 55.86053 74.64811 31.98270 
87 91.51768 77.11623 49.84954 55.87437 56.61983 27.82000 
88 55.99479 23.67844 88.16304 25.90843 14.29372 70.22461 
89 76.02370 54.61404 92.04182 47.18483 36.94407 84.85356 
90 52.92777 23.07148 11.01567 11.76171 8.320385 2.126606 
91 2.113597 97.73685 76.72762 44.40495 72.82677 63.54311 
92 77.95688 25.26049 74.12841 34.88041 19.55669 48.01481 
93 5.158119 95.50651 28.71841 32.88586 63.71657 16.49946 
94 4.213096 24.16053 51.05457 5.914846 5.242871 21.53905 
95 51.24030 47.80404 76.36550 26.49389 22.34669 55.63842 
96 97.40498 100.0000 75.01152 84.18350 94.64635 62.81560 
97 49.19419 5.350316 74.01136 18.03221 8.457410 49.07004 
98 91.32533 51.59153 22.20459 42.70920 33.85312 8.143040 
99 74.48121 24.34677 26.05584 24.28434 14.91305 7.104649 
100 94.19953 74.22767 93.65841 68.24732 59.04114 90.35402 
101 23.32810 75.54038 80.93191 32.24452 43.64258 66.36657 
102 56.07175 76.90790 5.268606 30.54818 44.59517 7.474069 
103 27.55381 8.135545 46.48987 5.956876 3.033264 17.61203 
104 27.88054 25.86915 72.11177 13.50397 8.830506 47.92611 
105 51.80627 80.99682 89.24284 45.83905 54.37898 82.61259 
END_DATA
