demo-projects/old/Demo-Report-Matrix-2026-08-11_112103/runs/run1/verifications/2026-07-20_100000/Demo-Report-Matrix-verify.ti3
CTI3   
KEYWORD "CHROMIQ_VERIFICATION"
CHROMIQ_VERIFICATION "true"

DESCRIPTOR "Argyll Calibration Target chart information 3"
ORIGINATOR "Argyll fakeread"
CREATED "Mon Aug 10 23:21:26 2026"
DEVICE_CLASS "DISPLAY"
COLOR_REP "iRGB_XYZ"

KEYWORD "CHROMIQ_MEASURED"
CHROMIQ_MEASURED "2026-07-20T10:00:00"
TARGET_INSTRUMENT "X-Rite ColorMunki"
NUMBER_OF_FIELDS 7
BEGIN_DATA_FORMAT
SAMPLE_ID RGB_R RGB_G RGB_B XYZ_X XYZ_Y XYZ_Z 
END_DATA_FORMAT

NUMBER_OF_SETS 105
BEGIN_DATA
1 100.0000 100.0000 100.0000 94.88710 99.93666 108.0710 
2 100.0000 100.0000 100.0000 94.87317 99.91115 108.8970 
3 100.0000 100.0000 100.0000 94.92159 99.95045 108.2526 
4 100.0000 100.0000 100.0000 94.04323 99.48320 108.8581 
5 0.00000 0.00000 0.00000 0.00718156 0.0142954 0.00260227 
6 0.00000 0.00000 0.00000 0.0293514 0.0467629 0.0465959 
7 0.00000 0.00000 0.00000 0.00313855 0.00627708 0.00104610 
8 0.00000 0.00000 0.00000 0.00306919 0.00158261 0.000143822 
9 100.0000 100.0000 0.00000 77.01170 92.78691 13.92951 
10 0.00000 0.00000 100.0000 18.07021 7.262112 95.06121 
11 100.0000 0.00000 0.00000 41.25980 21.28485 2.008705 
12 0.00000 100.0000 100.0000 53.60127 78.55907 106.1299 
13 0.00000 100.0000 0.00000 35.79631 71.53606 11.92685 
14 100.0000 0.00000 100.0000 59.01047 28.34071 96.97350 
15 0.00000 38.69451 100.0000 22.45037 15.97129 96.51129 
16 0.00000 61.01825 0.00000 11.54380 23.06196 3.842704 
17 0.00000 0.00000 49.66734 3.732570 1.495903 19.52407 
18 100.0000 0.00000 49.59690 44.80402 22.67219 21.53524 
19 100.0000 51.96322 100.0000 67.42421 44.75772 99.69866 
20 100.0000 51.02120 0.00000 48.48845 37.48216 4.727308 
21 49.79587 0.00000 0.00000 8.607180 4.437869 0.419760 
22 100.0000 100.0000 50.20307 80.39949 94.10690 33.35281 
23 0.00000 100.0000 50.70625 39.78772 73.13156 32.99164 
24 49.48561 100.0000 100.0000 62.71036 83.32663 107.3898 
25 51.72588 100.0000 0.00000 44.35902 74.77824 12.21698 
26 50.05958 0.00000 100.0000 27.09670 11.93510 95.31271 
27 0.00000 47.79621 60.34591 13.06485 16.67496 33.50361 
28 100.0000 59.17416 43.63085 55.01046 44.21318 20.69118 
29 47.31399 48.98978 0.00000 15.11894 19.04233 2.878777 
30 52.09288 0.00000 45.52943 12.45591 6.044818 17.64100 
31 55.39583 47.66229 100.0000 36.33247 26.68960 97.84883 
32 49.20125 100.0000 50.84061 47.78177 77.28778 31.82532 
33 48.29114 47.33520 50.18713 18.88974 19.76056 22.92166 
34 0.00000 30.94905 0.00000 2.888114 5.776203 0.962629 
35 100.0000 21.19106 79.12555 53.25912 28.18196 58.73603 
36 33.94804 70.69041 100.0000 38.03138 41.09857 100.5400 
37 74.96124 25.82053 0.00000 23.64241 15.12448 1.700919 
38 0.00000 77.61705 71.72771 28.76357 43.68786 52.06904 
39 24.97790 0.00000 23.41364 3.288963 1.637273 4.622370 
40 76.31808 100.0000 28.35106 59.22131 83.03756 19.23830 
41 0.00000 77.00365 31.43299 21.01525 39.74906 14.03094 
42 75.41143 77.79628 100.0000 60.35606 58.67836 101.3179 
43 100.0000 23.29829 20.42453 43.49141 24.74565 5.843169 
44 100.0000 80.02238 22.27702 63.57288 64.78587 12.91433 
45 75.35445 100.0000 76.01304 65.67388 84.46625 63.71464 
46 75.31505 74.81469 0.00000 40.88801 48.90864 7.311337 
47 100.0000 79.49395 78.19811 72.93552 68.47590 62.39198 
48 26.41218 100.0000 75.99234 47.32237 75.36524 63.52337 
49 28.19308 28.22301 100.0000 22.89324 12.93046 95.90116 
50 76.81359 0.00000 23.55016 23.10272 11.82702 4.951676 
51 75.25932 0.00000 74.69026 31.19850 14.97519 51.64803 
52 29.89921 74.23536 0.00000 21.38318 38.30864 6.266960 
53 25.50439 100.0000 24.78846 38.79508 72.98428 16.49292 
54 77.21225 23.71451 100.0000 42.40352 22.29696 96.68151 
55 0.00000 21.07405 72.23364 9.971233 6.092913 46.02472 
56 26.28049 0.00000 71.93547 10.44632 4.468703 42.66074 
57 0.00000 19.89483 30.07019 2.652023 3.191158 7.206776 
58 26.28079 33.45692 23.52814 6.369582 8.060052 5.878219 
59 66.56754 70.38587 52.30860 37.42445 42.55648 28.51892 
60 75.09479 52.62129 65.01886 37.49257 30.95281 40.95238 
61 26.64973 49.33561 81.42125 21.15618 20.47347 62.46172 
62 45.91179 68.61670 63.70484 28.17378 35.72967 38.69645 
63 71.11740 50.49568 34.71935 29.27964 27.04732 12.83627 
64 54.43736 27.35888 62.61652 18.68644 12.08109 35.35471 
65 34.69612 74.79966 32.60823 24.19906 39.79446 14.16838 
66 74.85889 20.44437 50.18860 25.51279 14.50369 21.54237 
67 47.85106 20.11464 33.14580 10.74066 7.045111 9.298388 
68 27.20651 32.63652 48.27367 9.169724 8.722609 20.01301 
69 27.58870 24.69734 0.00000 4.292291 4.973633 0.762251 
70 0.00000 69.14068 100.0000 33.44023 38.00203 100.1841 
71 20.53684 59.80271 49.57175 16.04006 24.33360 23.22165 
72 0.00000 46.98630 28.11508 7.600680 13.46611 7.883354 
73 73.54294 75.32966 75.96305 48.98030 50.89717 59.39643 
74 63.36650 75.70063 29.24590 35.01290 46.57556 14.06559 
75 100.0000 50.88622 71.33775 57.37867 40.47103 50.07110 
76 23.55356 85.77019 53.26247 30.71134 52.18317 29.95307 
77 100.0000 29.41094 48.41781 47.19088 27.52771 21.63428 
78 72.19800 51.56213 8.666635 27.70101 25.81198 4.206836 
79 21.36322 53.66478 11.70929 10.48474 18.66461 4.092984 
80 12.24937 81.96187 10.32227 24.18750 47.34151 8.887308 
81 50.32410 91.80251 71.76533 46.99663 67.18595 55.04084 
82 48.45094 95.04594 23.03440 40.29863 67.20456 15.37942 
83 47.91670 54.94911 27.45694 18.00428 22.47208 9.533078 
84 3.781525 53.33689 81.63552 20.29735 22.67525 61.17895 
85 76.14076 97.71765 95.89858 73.22492 87.19780 97.16142 
86 74.72769 92.97172 51.48222 55.73623 73.40294 34.01101 
87 91.51768 77.11623 49.84954 57.21511 58.31885 29.48489 
88 55.99479 23.67844 88.16304 26.23658 14.50740 72.12140 
89 76.02370 54.61404 92.04182 47.26692 36.20207 84.09276 
90 52.92777 23.07148 11.01567 11.70937 8.357674 2.096136 
91 2.113597 97.73685 76.72762 43.65488 71.65954 62.26659 
92 77.95688 25.26049 74.12841 34.09594 19.29242 50.37620 
93 5.158119 95.50651 28.71841 34.21496 66.36972 17.14779 
94 4.213096 24.16053 51.05457 5.763427 4.967417 21.60412 
95 51.24030 47.80404 76.36550 26.72398 23.03951 55.00917 
96 97.40498 100.0000 75.01152 84.11434 95.34524 64.08671 
97 49.19419 5.350316 74.01136 17.83533 8.388829 48.32640 
98 91.32533 51.59153 22.20459 43.54240 34.60528 8.692358 
99 74.48121 24.34677 26.05584 23.61331 14.69884 6.598467 
100 94.19953 74.22767 93.65841 69.93008 61.07575 89.99379 
101 23.32810 75.54038 80.93191 32.05734 43.38395 64.78647 
102 56.07175 76.90790 5.268606 31.05967 45.28958 7.415469 
103 27.55381 8.135545 46.48987 5.974652 3.063876 17.46775 
104 27.88054 25.86915 72.11177 12.95513 8.707026 45.45142 
105 51.80627 80.99682 89.24284 46.23707 55.78023 82.91301 
END_DATA
