demo-projects/old/Demo-Report-Matrix-2026-08-11_112103/runs/run1/Demo-Report-Matrix.ti3
CTI3   

DESCRIPTOR "Argyll Calibration Target chart information 3"
ORIGINATOR "Argyll fakeread"
CREATED "Mon Aug 10 23:21:26 2026"
DEVICE_CLASS "DISPLAY"
COLOR_REP "iRGB_XYZ"

NUMBER_OF_FIELDS 7
BEGIN_DATA_FORMAT
SAMPLE_ID RGB_R RGB_G RGB_B XYZ_X XYZ_Y XYZ_Z 
END_DATA_FORMAT

NUMBER_OF_SETS 210
BEGIN_DATA
1 100.0000 100.0000 100.0000 94.96615 99.96827 108.4873 
2 100.0000 100.0000 100.0000 94.95904 99.95543 108.9010 
3 100.0000 100.0000 100.0000 94.98339 99.97517 108.5781 
4 100.0000 100.0000 100.0000 94.54277 99.74079 108.8815 
5 0.00000 0.00000 0.00000 0.00359078 0.00714770 0.00130114 
6 0.00000 0.00000 0.00000 0.0146757 0.0233814 0.0232980 
7 0.00000 0.00000 0.00000 0.00156928 0.00313854 0.000523051 
8 0.00000 0.00000 0.00000 0.00153460 0.000791304 0.0000719111 
9 100.0000 100.0000 0.00000 77.00425 92.78393 13.89025 
10 0.00000 0.00000 100.0000 18.05944 7.240583 95.05762 
11 100.0000 0.00000 0.00000 41.24904 21.27454 1.970565 
12 0.00000 100.0000 100.0000 53.70409 78.64737 106.5505 
13 0.00000 100.0000 0.00000 35.77765 71.52651 11.92272 
14 100.0000 0.00000 100.0000 59.14840 28.41184 96.97997 
15 0.00000 48.94341 100.0000 25.33195 21.75998 97.47667 
16 0.00000 49.27058 0.00000 7.311103 14.60937 2.434379 
17 0.00000 0.00000 49.74722 3.783138 1.514648 19.85721 
18 100.0000 0.00000 50.27844 45.03204 22.77250 22.32544 
19 100.0000 52.95732 100.0000 67.86242 45.63413 99.84472 
20 100.0000 51.46797 0.00000 49.01225 37.67459 4.713426 
21 48.15306 0.00000 0.00000 8.069943 4.161028 0.386371 
22 100.0000 100.0000 50.62479 80.71594 94.25096 34.23038 
23 0.00000 100.0000 51.02191 39.81828 73.14216 33.22604 
24 51.31754 100.0000 100.0000 63.28666 83.62379 107.4168 
25 50.65051 100.0000 0.00000 44.38658 75.37746 12.27098 
26 50.39017 0.00000 100.0000 27.12503 11.92472 95.39675 
27 0.00000 50.47073 50.95826 11.98297 17.46950 24.02281 
28 100.0000 50.01621 48.06799 52.37877 37.87803 23.11862 
29 50.59241 49.73283 0.00000 16.58766 19.97378 2.981202 
30 51.64018 0.00000 48.02905 12.83800 6.203364 19.39529 
31 49.74911 50.29281 100.0000 34.67012 27.18603 98.03214 
32 51.47506 100.0000 49.90814 48.74869 77.78703 31.84059 
33 0.00000 24.48986 0.00000 1.803050 3.606084 0.600970 
34 0.00000 0.00000 23.80317 0.788000 0.326954 4.113735 
35 100.0000 26.72220 100.0000 61.36129 32.63193 97.67785 
36 74.61589 0.00000 0.00000 21.59335 11.13310 1.073080 
37 0.00000 75.63524 100.0000 37.16372 45.44386 101.4242 
38 52.95721 54.86698 45.29698 22.73805 25.23060 20.15712 
39 100.0000 100.0000 25.40356 77.96992 93.17017 18.97599 
40 100.0000 76.36183 0.00000 60.58944 59.96258 8.394071 
41 100.0000 0.00000 25.06615 42.15009 21.62893 6.734487 
42 0.00000 74.61888 27.06523 19.38431 37.06123 11.62668 
43 67.64862 76.28067 100.0000 54.64087 54.98128 102.3446 
44 75.70873 0.00000 100.0000 40.07240 18.58205 95.80584 
45 74.59608 100.0000 76.31285 66.06393 85.33098 64.34709 
46 0.00000 26.02462 100.0000 20.04989 11.20726 95.71831 
47 100.0000 75.71850 78.55725 70.80518 63.85312 62.79845 
48 25.59418 100.0000 76.86926 47.67612 76.01285 64.67842 
49 0.00000 100.0000 25.71017 36.36030 71.15377 16.94266 
50 100.0000 0.00000 75.88249 50.49274 24.93544 52.04165 
51 27.58624 73.39933 0.00000 20.31043 36.85160 6.077717 
52 100.0000 25.63905 0.00000 43.16631 25.12027 2.575050 
53 26.30576 0.00000 71.17499 10.61404 4.515510 43.77066 
54 76.73663 100.0000 100.0000 76.31895 90.34380 108.0275 
55 75.54941 100.0000 0.00000 57.31974 82.63461 12.92893 
56 0.00000 100.0000 76.21086 45.25776 75.31663 61.92728 
57 35.53599 76.87970 100.0000 42.52330 49.75025 101.4381 
58 100.0000 100.0000 76.60860 86.70995 96.62786 66.72639 
59 25.21997 100.0000 0.00000 37.82048 72.32493 11.96598 
60 32.94395 0.00000 23.22224 4.558790 2.255707 4.500741 
61 25.28005 25.31841 0.00000 4.019994 4.806045 0.720089 
62 0.00000 73.96029 77.00057 27.67539 39.56293 57.90140 
63 74.09027 26.52765 73.61097 32.20482 18.72616 49.08412 
64 24.67490 0.00000 100.0000 19.98446 8.217225 95.14475 
65 100.0000 29.78965 74.57692 53.00046 30.08584 51.18462 
66 0.00000 75.71814 0.00000 19.01956 38.03895 6.339356 
67 0.00000 0.00000 76.09367 9.743637 3.897230 51.31523 
68 100.0000 77.31918 100.0000 79.08096 68.07112 103.5839 
69 73.87364 100.0000 26.17568 57.39638 82.55614 18.25733 
70 72.05195 24.51108 0.00000 21.18571 13.48171 1.502258 
71 0.00000 26.49709 23.71872 2.812651 4.331836 4.925466 
72 30.75750 37.91439 66.25346 14.33331 12.77569 38.64240 
73 100.0000 77.73344 31.23535 62.52750 61.48222 16.30553 
74 75.56648 24.37740 45.00575 26.53146 15.93243 18.11122 
75 75.50505 72.82185 0.00000 39.24300 46.26708 6.890946 
76 100.0000 28.38243 25.33786 44.20519 26.08563 7.299331 
77 22.98514 0.00000 0.00000 1.775528 0.915539 0.0832012 
78 0.00000 25.81538 70.66845 10.02608 6.971290 43.67269 
79 24.25002 100.0000 30.06553 38.89136 72.98409 18.74655 
80 32.14348 27.58155 100.0000 23.69831 13.54901 95.97814 
81 26.91779 51.53922 23.52635 11.43452 17.98727 7.110918 
82 75.83725 0.00000 71.20510 30.50871 14.74167 46.10239 
83 64.88735 0.00000 21.52970 16.17974 8.260606 4.475043 
84 49.00294 72.07542 76.16645 35.62252 42.94066 56.70586 
85 66.80184 26.26536 100.0000 36.71452 19.93262 95.55302 
86 25.99746 71.39006 49.26601 22.84071 36.23941 25.97159 
87 25.25845 100.0000 100.0000 55.80886 79.60424 107.0348 
88 79.76515 49.91431 20.63878 32.88079 28.33540 7.027251 
89 46.57199 26.83048 28.07037 11.01553 8.612475 7.278571 
90 47.97812 79.34591 20.98837 29.95170 46.91443 10.90421 
91 75.38947 75.77211 48.91837 44.93915 51.08932 26.44902 
92 74.66165 60.08226 76.27818 42.35777 37.69914 56.53549 
93 76.52644 51.86452 100.0000 48.53562 35.48610 98.41121 
94 24.09739 48.40938 0.00000 8.979982 15.14694 2.450254 
95 21.46241 19.53768 47.60490 6.291982 4.537293 18.89620 
96 50.96953 100.0000 75.63390 54.62270 80.12497 63.29652 
97 23.86247 52.96849 100.0000 28.66149 25.66200 97.79696 
98 78.09958 0.00000 42.10351 26.73207 13.46753 15.70762 
99 25.76719 100.0000 54.22529 42.49674 74.46426 36.01493 
100 27.31162 67.08796 75.36823 26.57951 34.11470 55.29860 
101 0.00000 50.28361 24.44027 8.624552 15.83376 7.145694 
102 100.0000 24.47371 50.27555 46.74837 26.24647 22.64561 
103 100.0000 53.36129 71.79695 58.27038 42.02741 49.78233 
104 55.02557 53.14513 70.21287 27.58098 26.39907 45.91174 
105 44.03680 21.98664 78.39277 18.65196 10.56665 56.27145 
106 0.00000 48.91010 77.13587 17.37797 18.59749 55.61213 
107 78.31565 42.10361 51.21553 33.14280 24.27425 24.16775 
108 46.63963 23.39635 49.90428 13.12762 8.770966 21.19987 
109 76.05712 74.23037 26.20722 41.26924 47.99813 12.47920 
110 0.00000 25.75224 46.23788 5.187491 5.165745 17.79022 
111 47.52593 23.02819 0.00000 9.303830 7.140145 0.916845 
112 19.54697 43.64720 46.35939 10.32019 13.32864 19.24169 
113 19.23591 77.97018 25.34867 22.74511 42.08281 11.65491 
114 83.83931 15.61500 14.49644 28.48654 15.74791 3.317839 
115 51.40751 76.24459 0.00000 28.46651 43.12636 6.841622 
116 49.95628 73.83793 49.65658 30.58632 42.17852 25.70147 
117 22.91641 21.54739 18.04803 3.690565 3.945571 3.299676 
118 58.69194 50.41350 21.75336 21.13055 22.39447 6.908715 
119 0.00000 75.28998 52.84163 23.08518 38.98791 29.78071 
120 75.91020 100.0000 53.36857 62.16236 84.59979 37.15822 
121 76.47031 47.41229 0.00000 29.17924 24.95580 3.310958 
122 48.28827 100.0000 23.29808 44.32629 75.23741 16.22896 
123 100.0000 76.62859 55.56587 65.49153 62.26995 34.17468 
124 13.29195 85.50085 85.40985 38.39320 55.79895 74.29641 
125 51.28013 0.00000 74.69981 18.78041 8.615120 49.11700 
126 24.71178 0.00000 45.62440 5.076833 2.261247 16.32960 
127 14.02653 10.62774 87.19651 14.25521 6.407227 69.38652 
128 100.0000 55.32715 24.55975 51.62537 40.69121 9.547994 
129 86.35840 15.38194 87.42043 43.42601 21.96872 71.88587 
130 76.98678 77.28701 79.69321 53.96670 56.49967 64.65152 
131 86.62658 62.70897 40.25988 44.85367 41.56097 18.33768 
132 87.04273 38.71822 88.36409 47.71558 29.52135 73.71549 
133 36.29819 83.69165 64.12164 35.18851 52.98225 43.81528 
134 66.11643 28.63055 22.14370 19.28283 13.36913 5.195643 
135 39.15627 58.23252 60.93043 21.55010 26.04036 34.78820 
136 87.21240 16.22540 63.47064 37.33523 19.72621 35.82891 
137 17.70658 42.29183 85.64934 19.17096 16.43857 68.97286 
138 56.96216 62.79813 88.96348 37.92452 36.52982 76.39184 
139 12.81359 36.00600 10.80450 4.650908 8.068716 2.388522 
140 89.00560 82.93281 12.64317 55.34070 62.83169 10.54118 
141 36.40120 37.14522 12.40511 8.599817 10.42428 2.920675 
142 15.38053 62.14103 12.11720 13.32073 24.95962 5.444881 
143 67.94668 57.66651 57.83205 32.98346 31.66284 31.76799 
144 36.43616 85.43095 83.85906 41.69294 57.22712 71.32598 
145 62.77502 87.15890 83.90262 52.93123 64.89916 73.57692 
146 64.95765 11.17881 85.85756 29.08343 14.14154 68.39775 
147 41.03013 62.69470 13.78973 18.58356 28.12841 6.021566 
148 19.13698 51.09286 65.28859 16.21294 19.50363 39.30789 
149 39.46878 42.75380 82.48089 22.42502 18.13683 63.85264 
150 13.36687 60.84617 86.02033 25.11065 28.72538 71.35481 
151 13.36527 60.01461 38.97192 14.34458 24.00583 15.83003 
152 37.19040 87.71642 42.05529 33.31566 55.42786 22.80406 
153 8.036606 10.42017 17.03832 1.114865 1.080987 2.538295 
154 34.58778 15.66400 62.28956 11.11482 6.118520 33.46293 
155 13.37425 13.71385 63.49910 7.680763 4.058792 34.29033 
156 68.58462 16.10942 57.11024 23.91550 12.95216 28.48374 
157 86.56384 89.03062 38.27800 58.74530 70.52378 22.11706 
158 65.63108 86.82175 12.88781 42.44922 60.94527 11.02256 
159 40.57024 13.22913 14.29912 6.557732 4.159243 2.144762 
160 88.82010 65.30692 12.58998 45.02311 43.46946 7.260849 
161 13.45146 86.84297 42.72850 29.24890 53.17133 23.17917 
162 85.62743 34.79568 12.35284 32.62815 22.24698 3.824235 
163 86.06902 87.72688 64.51087 62.77437 70.97798 45.44714 
164 87.44463 37.74804 34.91491 36.38555 24.78722 12.41293 
165 89.63838 17.37448 34.81315 34.71372 19.09925 11.01527 
166 15.37023 89.44209 11.18241 28.95818 56.24521 10.56490 
167 86.92420 64.07560 62.38749 49.28526 44.26323 38.53257 
168 34.09172 89.26489 14.00883 31.81771 57.38500 11.04316 
169 14.05326 86.21880 66.83697 33.85669 55.21050 46.58606 
170 59.36164 66.17704 32.77806 28.50567 35.45413 13.31795 
171 86.60879 64.73215 90.02622 57.47470 48.06901 80.97620 
172 57.82718 90.00716 62.49480 46.31504 64.98014 42.52118 
173 60.85154 34.90815 40.68796 19.44010 15.01675 15.08555 
174 66.11143 43.74438 80.43246 32.87366 24.15883 60.83283 
175 60.84564 15.21238 34.00155 15.86298 9.039526 9.722948 
176 35.83815 69.99307 30.23060 21.85561 34.91960 13.02489 
177 61.21213 86.20862 36.45005 40.83912 58.34778 19.39237 
178 81.12472 2.460981 26.56412 27.16849 13.97717 6.712802 
179 63.75946 64.60886 11.40055 28.85474 34.71058 6.365853 
180 12.61013 35.24157 58.96784 9.657672 9.578093 30.51730 
181 43.47890 44.61602 29.61553 13.88036 16.11573 9.009555 
182 39.01456 39.83710 48.08457 13.18962 13.24723 20.28999 
183 62.14251 12.54902 10.95362 14.76390 8.325916 1.904310 
184 42.43468 9.169894 35.91093 8.469504 4.597027 10.96693 
185 13.83441 39.65443 29.89508 6.588620 10.08045 8.247607 
186 57.72060 32.15551 68.85940 22.91400 15.17520 43.13294 
187 10.19840 19.60955 33.93320 3.192506 3.154684 9.129868 
188 14.84852 3.325629 33.79536 2.528677 1.236894 8.785216 
189 88.93154 93.77788 85.68240 75.27693 82.90300 79.15729 
190 54.13047 32.63141 90.82276 28.60778 17.77000 79.10838 
191 45.52034 15.82221 98.09570 25.15459 12.08193 91.41890 
192 58.22792 42.89616 56.31173 23.15872 19.64082 28.73097 
193 15.31574 12.96012 4.694697 1.498228 1.518661 0.552158 
194 56.76331 36.93317 9.187622 15.62260 14.05931 2.731492 
195 83.82187 97.81152 14.34803 61.72329 81.97377 14.36695 
196 17.65657 75.07963 98.08640 36.68301 44.57173 95.97197 
197 85.88447 42.77806 68.38968 42.71788 29.24630 43.34155 
198 36.69516 59.13174 87.69950 28.88121 29.57727 74.76404 
199 70.08301 51.78187 37.27123 28.66622 26.17594 14.17602 
200 36.20907 57.95763 41.46704 17.89798 24.82271 17.41206 
201 5.468365 34.02005 88.44715 17.47140 12.55782 73.87494 
202 52.22558 84.18383 98.62956 51.60585 60.60466 101.2353 
203 11.87502 65.27469 60.44171 19.73744 29.47384 34.83050 
204 23.99503 25.38803 82.48991 15.66281 9.500329 62.64523 
205 54.40907 11.30600 64.87077 18.03542 9.142756 37.16239 
206 4.276114 77.97125 13.75109 20.76270 40.84751 8.353543 
207 28.69171 26.55966 33.75525 6.633122 6.366824 9.587709 
208 34.77114 7.830922 85.03975 16.67051 7.535839 66.10413 
209 84.23997 84.27323 96.38655 68.53641 69.48254 96.56617 
210 64.56057 74.01070 66.09675 40.82868 47.08863 44.74998 
END_DATA
