demo-projects/old/Demo-Report-Matrix-2026-08-11_112103/runs/run1/verifications/2026-08-10_100000/Demo-Report-Matrix-verify.ti3
CTI3   
KEYWORD "CHROMIQ_VERIFICATION"
CHROMIQ_VERIFICATION "true"

DESCRIPTOR "Argyll Calibration Target chart information 3"
ORIGINATOR "Argyll fakeread"
CREATED "Mon Aug 10 23:21:27 2026"
DEVICE_CLASS "DISPLAY"
COLOR_REP "iRGB_XYZ"

KEYWORD "CHROMIQ_MEASURED"
CHROMIQ_MEASURED "2026-08-10T10:00:00"
TARGET_INSTRUMENT "X-Rite i1Pro3"
NUMBER_OF_FIELDS 7
BEGIN_DATA_FORMAT
SAMPLE_ID RGB_R RGB_G RGB_B XYZ_X XYZ_Y XYZ_Z 
END_DATA_FORMAT

NUMBER_OF_SETS 105
BEGIN_DATA
1 100.0000 100.0000 100.0000 95.04547 100.0000 108.9050 
2 100.0000 100.0000 100.0000 95.03410 99.99545 108.8451 
3 100.0000 100.0000 100.0000 93.36855 98.32183 106.4481 
4 100.0000 100.0000 100.0000 94.55663 99.58574 108.8508 
5 0.00000 0.00000 0.00000 0.00000 0.00000 0.00000 
6 0.00000 0.00000 0.00000 0.0315887 0.0276949 0.0145192 
7 0.00000 0.00000 0.00000 0.00307391 0.00158504 0.000144044 
8 0.00000 0.00000 0.00000 0.00301160 0.00155291 0.000141124 
9 100.0000 100.0000 0.00000 76.55905 92.55523 13.83048 
10 0.00000 0.00000 100.0000 18.02779 7.211755 94.89644 
11 100.0000 0.00000 0.00000 41.24343 21.26986 1.948556 
12 0.00000 100.0000 100.0000 52.83158 76.78456 106.6474 
13 0.00000 100.0000 0.00000 34.89431 69.78378 11.62965 
14 100.0000 0.00000 100.0000 59.00738 28.37393 95.50643 
15 0.00000 38.69451 100.0000 22.47306 16.06777 96.52871 
16 0.00000 61.01825 0.00000 12.10491 24.20348 4.053855 
17 0.00000 0.00000 49.66734 3.824092 1.533431 19.96453 
18 100.0000 0.00000 49.59690 44.95869 22.75231 21.52610 
19 100.0000 51.96322 100.0000 66.94962 44.54078 99.68179 
20 100.0000 51.02120 0.00000 48.53227 36.70307 4.527773 
21 49.79587 0.00000 0.00000 8.901009 4.589743 0.417101 
22 100.0000 100.0000 50.20307 80.94658 94.36077 34.65271 
23 0.00000 100.0000 50.70625 39.51897 72.59613 32.98557 
24 49.48561 100.0000 100.0000 61.98366 82.57917 107.2838 
25 51.72588 100.0000 0.00000 45.03334 76.29921 12.35319 
26 50.05958 0.00000 100.0000 26.81837 11.77385 95.47131 
27 0.00000 47.79621 60.34591 12.68215 15.92993 33.25449 
28 100.0000 59.17416 43.63085 54.65167 44.04780 21.65815 
29 47.31399 48.98978 0.00000 15.80830 20.08485 3.064127 
30 52.09288 0.00000 45.52943 13.08883 6.394262 16.62910 
31 55.39583 47.66229 100.0000 35.34317 26.28169 97.48235 
32 49.20125 100.0000 50.84061 48.21093 77.48063 33.12899 
33 48.29114 47.33520 50.18713 18.77879 18.95145 24.14041 
34 0.00000 30.94905 0.00000 2.750270 5.486539 0.959778 
35 100.0000 21.19106 79.12555 53.23739 28.36167 58.29682 
36 33.94804 70.69041 100.0000 37.46152 40.41879 99.58985 
37 74.96124 25.82053 0.00000 23.95550 15.31863 1.742378 
38 0.00000 77.61705 71.72771 29.03243 44.41080 51.64604 
39 24.97790 0.00000 23.41364 2.764869 1.342070 3.902888 
40 76.31808 100.0000 28.35106 58.66139 82.82744 18.80937 
41 0.00000 77.00365 31.43299 21.18755 40.04978 14.23096 
42 75.41143 77.79628 100.0000 59.86891 58.39844 102.1239 
43 100.0000 23.29829 20.42453 42.34591 24.12277 5.549437 
44 100.0000 80.02238 22.27702 63.26837 64.24334 12.60785 
45 75.35445 100.0000 76.01304 67.18623 86.50559 63.52502 
46 75.31505 74.81469 0.00000 40.89755 49.17430 7.367753 
47 100.0000 79.49395 78.19811 72.49854 67.50182 62.97751 
48 26.41218 100.0000 75.99234 47.79767 76.61395 62.60401 
49 28.19308 28.22301 100.0000 22.86194 13.27434 93.87716 
50 76.81359 0.00000 23.55016 24.41639 12.49599 5.392899 
51 75.25932 0.00000 74.69026 31.68824 15.25799 50.49350 
52 29.89921 74.23536 0.00000 21.36513 38.43117 6.291555 
53 25.50439 100.0000 24.78846 38.59774 72.46316 16.92103 
54 77.21225 23.71451 100.0000 42.77908 22.48163 96.69738 
55 0.00000 21.07405 72.23364 10.06183 6.319957 45.91209 
56 26.28049 0.00000 71.93547 10.57293 4.502112 43.35475 
57 0.00000 19.89483 30.07019 2.574498 2.974741 7.561780 
58 26.28079 33.45692 23.52814 6.341294 8.158769 5.287218 
59 66.56754 70.38587 52.30860 36.94584 42.37570 28.84805 
60 75.09479 52.62129 65.01886 36.69617 30.83848 40.07369 
61 26.64973 49.33561 81.42125 20.69764 20.31145 61.05147 
62 45.91179 68.61670 63.70484 29.56746 37.52091 39.73159 
63 71.11740 50.49568 34.71935 28.37002 25.52499 13.00108 
64 54.43736 27.35888 62.61652 18.39688 11.91404 32.43993 
65 34.69612 74.79966 32.60823 24.43747 40.40174 14.53827 
66 74.85889 20.44437 50.18860 27.13093 15.22052 22.09027 
67 47.85106 20.11464 33.14580 10.58912 7.022362 9.739494 
68 27.20651 32.63652 48.27367 9.072812 8.732036 20.13631 
69 27.58870 24.69734 0.00000 4.397248 4.946176 0.760473 
70 0.00000 69.14068 100.0000 33.11824 37.64944 99.17384 
71 20.53684 59.80271 49.57175 16.08618 23.95224 23.26891 
72 0.00000 46.98630 28.11508 8.029473 14.24185 8.198108 
73 73.54294 75.32966 75.96305 50.17769 54.16013 57.84834 
74 63.36650 75.70063 29.24590 34.89791 46.21278 13.59951 
75 100.0000 50.88622 71.33775 57.63787 40.76096 48.41274 
76 23.55356 85.77019 53.26247 31.47713 53.04023 32.11275 
77 100.0000 29.41094 48.41781 46.28449 27.14109 21.95152 
78 72.19800 51.56213 8.666635 28.09277 26.67852 4.497881 
79 21.36322 53.66478 11.70929 10.23236 17.93647 3.987746 
80 12.24937 81.96187 10.32227 23.40164 45.72253 8.584770 
81 50.32410 91.80251 71.76533 47.54115 67.77277 56.09601 
82 48.45094 95.04594 23.03440 41.15675 67.97799 14.95152 
83 47.91670 54.94911 27.45694 18.88057 23.47311 9.594630 
84 3.781525 53.33689 81.63552 20.55736 22.37764 64.02716 
85 76.14076 97.71765 95.89858 72.26276 85.37456 99.13126 
86 74.72769 92.97172 51.48222 55.84898 73.69418 32.20482 
87 91.51768 77.11623 49.84954 57.91995 59.77135 28.83413 
88 55.99479 23.67844 88.16304 26.59011 14.48639 74.04655 
89 76.02370 54.61404 92.04182 46.74736 36.53831 81.50856 
90 52.92777 23.07148 11.01567 11.75087 8.162273 2.225573 
91 2.113597 97.73685 76.72762 44.84352 73.60842 64.19122 
92 77.95688 25.26049 74.12841 34.38527 19.63619 49.68831 
93 5.158119 95.50651 28.71841 33.27467 64.27119 17.27106 
94 4.213096 24.16053 51.05457 5.984442 5.021392 22.75608 
95 51.24030 47.80404 76.36550 26.93916 23.21127 55.39925 
96 97.40498 100.0000 75.01152 83.60721 95.09020 63.77187 
97 49.19419 5.350316 74.01136 18.39173 8.645331 49.38671 
98 91.32533 51.59153 22.20459 42.46202 33.99970 8.038296 
99 74.48121 24.34677 26.05584 24.35411 14.88615 6.743412 
100 94.19953 74.22767 93.65841 67.56114 59.97747 87.02353 
101 23.32810 75.54038 80.93191 32.41160 44.09941 64.77909 
102 56.07175 76.90790 5.268606 31.40768 45.84779 7.639739 
103 27.55381 8.135545 46.48987 6.175307 3.137802 17.82650 
104 27.88054 25.86915 72.11177 13.53611 8.925846 48.02355 
105 51.80627 80.99682 89.24284 46.30797 56.19783 81.93348 
END_DATA
