demo-projects/old/Demo-Report-Matrix-2026-08-11_112103/runs/run1/verifications/2026-08-10_110000/Demo-Report-Matrix-verify.ti3
CTI3   
KEYWORD "CHROMIQ_VERIFICATION"
CHROMIQ_VERIFICATION "true"

DESCRIPTOR "Argyll Calibration Target chart information 3"
ORIGINATOR "Argyll fakeread"
CREATED "Mon Aug 10 23:21:27 2026"
DEVICE_CLASS "DISPLAY"
COLOR_REP "iRGB_XYZ"

KEYWORD "CHROMIQ_MEASURED"
CHROMIQ_MEASURED "2026-08-10T11:00:00"
TARGET_INSTRUMENT "X-Rite ColorMunki"
NUMBER_OF_FIELDS 7
BEGIN_DATA_FORMAT
SAMPLE_ID RGB_R RGB_G RGB_B XYZ_X XYZ_Y XYZ_Z 
END_DATA_FORMAT

NUMBER_OF_SETS 105
BEGIN_DATA
1 100.0000 100.0000 100.0000 95.07290 100.0015 108.8516 
2 100.0000 100.0000 100.0000 95.06411 99.99796 108.8058 
3 100.0000 100.0000 100.0000 93.78035 98.70811 106.9614 
4 100.0000 100.0000 100.0000 94.69700 99.68289 108.8081 
5 0.00000 0.00000 0.00000 0.00000 0.00000 0.00000 
6 0.00000 0.00000 0.00000 0.000513448 0.000350236 0.0000795148 
7 0.00000 0.00000 0.00000 6.25757e-06 3.24132e-06 3.23414e-07 
8 0.00000 0.00000 0.00000 5.98342e-06 3.09932e-06 3.09245e-07 
9 100.0000 100.0000 0.00000 76.57254 92.42184 14.21090 
10 0.00000 0.00000 100.0000 18.14059 7.395900 94.50255 
11 100.0000 0.00000 0.00000 41.17235 21.32662 2.128016 
12 0.00000 100.0000 100.0000 53.14881 77.17571 106.4691 
13 0.00000 100.0000 0.00000 35.06892 69.93753 11.87420 
14 100.0000 0.00000 100.0000 59.11821 28.64312 95.61652 
15 0.00000 38.69451 100.0000 22.63646 16.32530 96.13775 
16 0.00000 61.01825 0.00000 12.35717 24.64371 4.184226 
17 0.00000 0.00000 49.66734 3.916371 1.596828 20.39621 
18 100.0000 0.00000 49.59690 45.02654 22.89796 22.20633 
19 100.0000 51.96322 100.0000 67.35597 45.28604 99.57559 
20 100.0000 51.02120 0.00000 48.82469 37.23828 4.845450 
21 49.79587 0.00000 0.00000 9.084026 4.705379 0.469496 
22 100.0000 100.0000 50.20307 80.97606 94.25428 35.41449 
23 0.00000 100.0000 50.70625 39.67281 72.54924 33.60208 
24 49.48561 100.0000 100.0000 62.37403 82.77865 107.1061 
25 51.72588 100.0000 0.00000 45.28553 76.21568 12.59387 
26 50.05958 0.00000 100.0000 27.14220 12.05685 95.08749 
27 0.00000 47.79621 60.34591 13.04361 16.38507 33.97305 
28 100.0000 59.17416 43.63085 55.08029 44.78416 22.09858 
29 47.31399 48.98978 0.00000 16.04462 20.25957 3.151566 
30 52.09288 0.00000 45.52943 13.36814 6.574514 17.05800 
31 55.39583 47.66229 100.0000 36.01659 26.99863 97.29669 
32 49.20125 100.0000 50.84061 48.53377 77.44703 33.86225 
33 48.29114 47.33520 50.18713 19.26773 19.49925 24.53661 
34 0.00000 30.94905 0.00000 2.706389 5.397057 0.917178 
35 100.0000 21.19106 79.12555 53.29753 28.32621 59.17587 
36 33.94804 70.69041 100.0000 38.09469 41.53912 99.63040 
37 74.96124 25.82053 0.00000 24.15541 15.31551 1.794190 
38 0.00000 77.61705 71.72771 29.54420 45.02306 52.66316 
39 24.97790 0.00000 23.41364 2.622578 1.282754 3.675821 
40 76.31808 100.0000 28.35106 59.14675 82.99109 18.97595 
41 0.00000 77.00365 31.43299 21.55286 40.69121 14.33239 
42 75.41143 77.79628 100.0000 60.79047 59.56096 102.2081 
43 100.0000 23.29829 20.42453 42.36316 24.06583 5.403084 
44 100.0000 80.02238 22.27702 63.55216 64.95728 12.77921 
45 75.35445 100.0000 76.01304 67.82484 86.72068 64.70711 
46 75.31505 74.81469 0.00000 41.53459 49.88112 7.659994 
47 100.0000 79.49395 78.19811 73.10994 68.41398 64.24183 
48 26.41218 100.0000 75.99234 47.93190 76.49741 63.66250 
49 28.19308 28.22301 100.0000 22.87643 13.27131 93.92946 
50 76.81359 0.00000 23.55016 24.57657 12.64582 5.219609 
51 75.25932 0.00000 74.69026 32.20136 15.61780 51.33139 
52 29.89921 74.23536 0.00000 21.63696 38.94697 6.509286 
53 25.50439 100.0000 24.78846 38.48194 72.28019 16.80968 
54 77.21225 23.71451 100.0000 43.15828 22.68010 96.36754 
55 0.00000 21.07405 72.23364 10.17175 6.195872 46.69940 
56 26.28049 0.00000 71.93547 10.77984 4.643311 44.54090 
57 0.00000 19.89483 30.07019 2.418149 2.700954 7.331944 
58 26.28079 33.45692 23.52814 6.184372 8.032804 5.037783 
59 66.56754 70.38587 52.30860 37.84067 43.38458 29.60708 
60 75.09479 52.62129 65.01886 37.60031 31.66278 41.05668 
61 26.64973 49.33561 81.42125 21.11334 20.83338 62.06772 
62 45.91179 68.61670 63.70484 30.22816 38.28697 40.76455 
63 71.11740 50.49568 34.71935 29.04234 26.26401 13.16588 
64 54.43736 27.35888 62.61652 18.92051 12.11628 33.58761 
65 34.69612 74.79966 32.60823 24.74365 40.92560 14.69227 
66 74.85889 20.44437 50.18860 27.41349 15.26902 22.58372 
67 47.85106 20.11464 33.14580 10.69051 6.916743 9.597565 
68 27.20651 32.63652 48.27367 9.081372 8.726948 20.50501 
69 27.58870 24.69734 0.00000 4.191639 4.683052 0.705357 
70 0.00000 69.14068 100.0000 33.69430 38.60289 99.19089 
71 20.53684 59.80271 49.57175 16.44118 24.65650 23.93654 
72 0.00000 46.98630 28.11508 8.111596 14.43396 8.096099 
73 73.54294 75.32966 75.96305 50.98503 54.80709 59.05286 
74 63.36650 75.70063 29.24590 35.64387 47.05929 13.73711 
75 100.0000 50.88622 71.33775 58.01661 41.30670 49.62133 
76 23.55356 85.77019 53.26247 31.80533 53.55016 32.81650 
77 100.0000 29.41094 48.41781 46.52119 27.27947 22.48566 
78 72.19800 51.56213 8.666635 28.64707 27.27229 4.388924 
79 21.36322 53.66478 11.70929 10.34364 18.40015 3.815346 
80 12.24937 81.96187 10.32227 23.54537 46.19606 8.477368 
81 50.32410 91.80251 71.76533 48.06676 68.09749 56.97997 
82 48.45094 95.04594 23.03440 41.38257 68.22029 14.93629 
83 47.91670 54.94911 27.45694 19.22682 24.01323 9.509688 
84 3.781525 53.33689 81.63552 20.90140 22.90500 64.56961 
85 76.14076 97.71765 95.89858 72.94355 85.84502 99.28571 
86 74.72769 92.97172 51.48222 56.52414 74.09365 33.11024 
87 91.51768 77.11623 49.84954 58.49775 60.40396 29.57990 
88 55.99479 23.67844 88.16304 26.96751 14.63893 74.13860 
89 76.02370 54.61404 92.04182 47.52934 37.32379 82.26179 
90 52.92777 23.07148 11.01567 11.82259 8.089756 1.870971 
91 2.113597 97.73685 76.72762 44.87535 73.25856 64.99583 
92 77.95688 25.26049 74.12841 34.95981 19.84547 50.65645 
93 5.158119 95.50651 28.71841 33.32441 64.40981 17.25698 
94 4.213096 24.16053 51.05457 5.900299 4.854117 23.02336 
95 51.24030 47.80404 76.36550 27.42757 23.71525 56.10581 
96 97.40498 100.0000 75.01152 83.96134 95.17490 64.83165 
97 49.19419 5.350316 74.01136 18.64542 8.702117 50.03289 
98 91.32533 51.59153 22.20459 42.81970 34.53401 8.021108 
99 74.48121 24.34677 26.05584 24.52172 14.89512 6.598059 
100 94.19953 74.22767 93.65841 68.72793 61.22255 88.09078 
101 23.32810 75.54038 80.93191 32.81902 44.69501 65.78094 
102 56.07175 76.90790 5.268606 31.95646 46.51187 7.652811 
103 27.55381 8.135545 46.48987 6.062985 2.945456 18.08183 
104 27.88054 25.86915 72.11177 13.53719 8.822389 48.43575 
105 51.80627 80.99682 89.24284 46.95925 56.80068 82.42055 
END_DATA
