assets/charts/knut/rgb/i1pro3/p3_a3_672p_2pages_portrait_w16_0mm/chart.ti1
CTI1   

DESCRIPTOR "Argyll Calibration Target chart information 1"
ORIGINATOR "ChromIQ"
APPROX_WHITE_POINT "95.050000 100.000000 108.900000"
COLOR_REP "iRGB"
WHITE_COLOR_PATCHES "1"
BLACK_COLOR_PATCHES "1"
CREATED "Tue Aug 18 17:35:42 2026"

NUMBER_OF_FIELDS 7
BEGIN_DATA_FORMAT
SAMPLE_ID RGB_R RGB_G RGB_B XYZ_X XYZ_Y XYZ_Z
END_DATA_FORMAT

NUMBER_OF_SETS 672
BEGIN_DATA
1 0.0000 0.0000 0.0000 0.9505 1.0000 1.0890
2 0.0000 0.0000 20.0000 1.5421 1.2366 4.2041
3 0.0000 0.0000 40.0000 3.3248 1.9497 13.5918
4 0.0000 0.0000 60.0000 6.6428 3.2769 31.0641
5 0.0000 0.0000 80.0000 11.7406 5.3160 57.9089
6 0.0000 0.0000 100.0000 18.8200 8.1478 95.1885
7 0.0000 20.0000 0.0000 2.1225 3.3440 1.4797
8 0.0000 20.0000 20.0000 2.7141 3.5806 4.5948
9 0.0000 20.0000 40.0000 4.4968 4.2937 13.9825
10 0.0000 20.0000 60.0000 7.8148 5.6209 31.4548
11 0.0000 20.0000 80.0000 12.9126 7.6600 58.2995
12 0.0000 20.0000 100.0000 19.9920 10.4918 95.5792
13 0.0000 40.0000 0.0000 5.6544 10.4077 2.6570
14 0.0000 40.0000 20.0000 6.2459 10.6443 5.7721
15 0.0000 40.0000 40.0000 8.0286 11.3574 15.1598
16 0.0000 40.0000 60.0000 11.3466 12.6846 32.6320
17 0.0000 40.0000 80.0000 16.4445 14.7238 59.4768
18 0.0000 40.0000 100.0000 23.5239 17.5555 96.7565
19 0.0000 60.0000 0.0000 12.2278 23.5546 4.8481
20 0.0000 60.0000 20.0000 12.8194 23.7913 7.9632
21 0.0000 60.0000 40.0000 14.6021 24.5044 17.3509
22 0.0000 60.0000 60.0000 17.9201 25.8315 34.8232
23 0.0000 60.0000 80.0000 23.0179 27.8707 61.6680
24 0.0000 60.0000 100.0000 30.0973 30.7024 98.9476
25 0.0000 80.0000 0.0000 22.3274 43.7539 8.2146
26 0.0000 80.0000 20.0000 22.9190 43.9905 11.3298
27 0.0000 80.0000 40.0000 24.7017 44.7036 20.7175
28 0.0000 80.0000 60.0000 28.0197 46.0308 38.1897
29 0.0000 80.0000 80.0000 33.1175 48.0699 65.0345
30 0.0000 80.0000 100.0000 40.1969 50.9017 102.3141
31 0.0000 100.0000 0.0000 36.3529 71.8048 12.8898
32 0.0000 100.0000 20.0000 36.9445 72.0414 16.0049
33 0.0000 100.0000 40.0000 38.7272 72.7545 25.3926
34 0.0000 100.0000 60.0000 42.0452 74.0817 42.8649
35 0.0000 100.0000 80.0000 47.1430 76.1208 69.7097
36 0.0000 100.0000 100.0000 54.2224 78.9526 106.9893
37 20.0000 0.0000 0.0000 2.3021 1.6968 1.1523
38 20.0000 0.0000 20.0000 2.8937 1.9334 4.2674
39 20.0000 0.0000 40.0000 4.6764 2.6465 13.6551
40 20.0000 0.0000 60.0000 7.9944 3.9737 31.1273
41 20.0000 0.0000 80.0000 13.0922 6.0128 57.9721
42 20.0000 0.0000 100.0000 20.1716 8.8446 95.2518
43 20.0000 20.0000 0.0000 3.4741 4.0407 1.5429
44 20.0000 20.0000 20.0000 4.0656 4.2774 4.6581
45 20.0000 20.0000 40.0000 5.8484 4.9905 14.0458
46 20.0000 20.0000 60.0000 9.1663 6.3177 31.5180
47 20.0000 20.0000 80.0000 14.2642 8.3568 58.3628
48 20.0000 20.0000 100.0000 21.3436 11.1885 95.6424
49 20.0000 40.0000 0.0000 7.0059 11.1045 2.7202
50 20.0000 40.0000 20.0000 7.5975 11.3411 5.8353
51 20.0000 40.0000 40.0000 9.3802 12.0542 15.2230
52 20.0000 40.0000 60.0000 12.6982 13.3814 32.6953
53 20.0000 40.0000 80.0000 17.7960 15.4205 59.5401
54 20.0000 40.0000 100.0000 24.8754 18.2523 96.8197
55 20.0000 60.0000 0.0000 13.5794 24.2514 4.9114
56 20.0000 60.0000 20.0000 14.1710 24.4880 8.0265
57 20.0000 60.0000 40.0000 15.9537 25.2011 17.4142
58 20.0000 60.0000 60.0000 19.2717 26.5283 34.8865
59 20.0000 60.0000 80.0000 24.3695 28.5674 61.7312
60 20.0000 60.0000 100.0000 31.4489 31.3992 99.0109
61 20.0000 80.0000 0.0000 23.6790 44.4506 8.2779
62 20.0000 80.0000 20.0000 24.2706 44.6873 11.3930
63 20.0000 80.0000 40.0000 26.0533 45.4004 20.7807
64 20.0000 80.0000 60.0000 29.3713 46.7276 38.2530
65 20.0000 80.0000 80.0000 34.4691 48.7667 65.0977
66 20.0000 80.0000 100.0000 41.5485 51.5984 102.3774
67 20.0000 100.0000 0.0000 37.7045 72.5016 12.9531
68 20.0000 100.0000 20.0000 38.2961 72.7382 16.0682
69 20.0000 100.0000 40.0000 40.0788 73.4513 25.4559
70 20.0000 100.0000 60.0000 43.3968 74.7785 42.9281
71 20.0000 100.0000 80.0000 48.4946 76.8176 69.7729
72 20.0000 100.0000 100.0000 55.5740 79.6494 107.0526
73 40.0000 0.0000 0.0000 6.3752 3.7965 1.3429
74 40.0000 0.0000 20.0000 6.9668 4.0332 4.4580
75 40.0000 0.0000 40.0000 8.7495 4.7462 13.8457
76 40.0000 0.0000 60.0000 12.0675 6.0734 31.3180
77 40.0000 0.0000 80.0000 17.1653 8.1126 58.1627
78 40.0000 0.0000 100.0000 24.2447 10.9443 95.4424
79 40.0000 20.0000 0.0000 7.5472 6.1405 1.7335
80 40.0000 20.0000 20.0000 8.1387 6.3771 4.8487
81 40.0000 20.0000 40.0000 9.9215 7.0902 14.2364
82 40.0000 20.0000 60.0000 13.2395 8.4174 31.7086
83 40.0000 20.0000 80.0000 18.3373 10.4565 58.5534
84 40.0000 20.0000 100.0000 25.4167 13.2883 95.8330
85 40.0000 40.0000 0.0000 11.0791 13.2042 2.9108
86 40.0000 40.0000 20.0000 11.6706 13.4409 6.0260
87 40.0000 40.0000 40.0000 13.4533 14.1540 15.4137
88 40.0000 40.0000 60.0000 16.7713 15.4812 32.8859
89 40.0000 40.0000 80.0000 21.8691 17.5203 59.7307
90 40.0000 40.0000 100.0000 28.9486 20.3520 97.0103
91 40.0000 60.0000 0.0000 17.6525 26.3512 5.1020
92 40.0000 60.0000 20.0000 18.2441 26.5878 8.2171
93 40.0000 60.0000 40.0000 20.0268 27.3009 17.6048
94 40.0000 60.0000 60.0000 23.3448 28.6281 35.0771
95 40.0000 60.0000 80.0000 28.4426 30.6672 61.9218
96 40.0000 60.0000 100.0000 35.5220 33.4990 99.2015
97 40.0000 80.0000 0.0000 27.7521 46.5504 8.4685
98 40.0000 80.0000 20.0000 28.3437 46.7870 11.5837
99 40.0000 80.0000 40.0000 30.1264 47.5001 20.9714
100 40.0000 80.0000 60.0000 33.4444 48.8273 38.4436
101 40.0000 80.0000 80.0000 38.5422 50.8664 65.2884
102 40.0000 80.0000 100.0000 45.6216 53.6982 102.5680
103 40.0000 100.0000 0.0000 41.7776 74.6013 13.1437
104 40.0000 100.0000 20.0000 42.3692 74.8380 16.2588
105 40.0000 100.0000 40.0000 44.1519 75.5510 25.6465
106 40.0000 100.0000 60.0000 47.4699 76.8782 43.1188
107 40.0000 100.0000 80.0000 52.5677 78.9174 69.9635
108 40.0000 100.0000 100.0000 59.6471 81.7491 107.2432
109 60.0000 0.0000 0.0000 13.9560 7.7046 1.6976
110 60.0000 0.0000 20.0000 14.5476 7.9412 4.8128
111 60.0000 0.0000 40.0000 16.3303 8.6543 14.2005
112 60.0000 0.0000 60.0000 19.6483 9.9815 31.6727
113 60.0000 0.0000 80.0000 24.7461 12.0206 58.5175
114 60.0000 0.0000 100.0000 31.8255 14.8524 95.7971
115 60.0000 20.0000 0.0000 15.1280 10.0486 2.0883
116 60.0000 20.0000 20.0000 15.7196 10.2852 5.2035
117 60.0000 20.0000 40.0000 17.5023 10.9983 14.5912
118 60.0000 20.0000 60.0000 20.8203 12.3255 32.0634
119 60.0000 20.0000 80.0000 25.9181 14.3646 58.9082
120 60.0000 20.0000 100.0000 32.9975 17.1964 96.1878
121 60.0000 40.0000 0.0000 18.6599 17.1123 3.2656
122 60.0000 40.0000 20.0000 19.2514 17.3489 6.3807
123 60.0000 40.0000 40.0000 21.0341 18.0620 15.7684
124 60.0000 40.0000 60.0000 24.3521 19.3892 33.2407
125 60.0000 40.0000 80.0000 29.4500 21.4283 60.0855
126 60.0000 40.0000 100.0000 36.5294 24.2601 97.3651
127 60.0000 60.0000 0.0000 25.2333 30.2592 5.4568
128 60.0000 60.0000 20.0000 25.8249 30.4958 8.5719
129 60.0000 60.0000 40.0000 27.6076 31.2089 17.9596
130 60.0000 60.0000 60.0000 30.9256 32.5361 35.4318
131 60.0000 60.0000 80.0000 36.0234 34.5753 62.2766
132 60.0000 60.0000 100.0000 43.1028 37.4070 99.5563
133 60.0000 80.0000 0.0000 35.3329 50.4585 8.8233
134 60.0000 80.0000 20.0000 35.9245 50.6951 11.9384
135 60.0000 80.0000 40.0000 37.7072 51.4082 21.3261
136 60.0000 80.0000 60.0000 41.0252 52.7354 38.7984
137 60.0000 80.0000 80.0000 46.1230 54.7745 65.6431
138 60.0000 80.0000 100.0000 53.2024 57.6063 102.9228
139 60.0000 100.0000 0.0000 49.3584 78.5094 13.4984
140 60.0000 100.0000 20.0000 49.9500 78.7460 16.6136
141 60.0000 100.0000 40.0000 51.7327 79.4591 26.0013
142 60.0000 100.0000 60.0000 55.0507 80.7863 43.4735
143 60.0000 100.0000 80.0000 60.1485 82.8254 70.3183
144 60.0000 100.0000 100.0000 67.2279 85.6572 107.5979
145 80.0000 0.0000 0.0000 25.6033 13.7090 2.2427
146 80.0000 0.0000 20.0000 26.1949 13.9456 5.3579
147 80.0000 0.0000 40.0000 27.9776 14.6587 14.7456
148 80.0000 0.0000 60.0000 31.2956 15.9859 32.2178
149 80.0000 0.0000 80.0000 36.3934 18.0250 59.0626
150 80.0000 0.0000 100.0000 43.4728 20.8568 96.3422
151 80.0000 20.0000 0.0000 26.7753 16.0530 2.6334
152 80.0000 20.0000 20.0000 27.3669 16.2896 5.7485
153 80.0000 20.0000 40.0000 29.1496 17.0027 15.1362
154 80.0000 20.0000 60.0000 32.4676 18.3299 32.6085
155 80.0000 20.0000 80.0000 37.5654 20.3690 59.4532
156 80.0000 20.0000 100.0000 44.6448 23.2008 96.7329
157 80.0000 40.0000 0.0000 30.3072 23.1167 3.8107
158 80.0000 40.0000 20.0000 30.8987 23.3533 6.9258
159 80.0000 40.0000 40.0000 32.6815 24.0664 16.3135
160 80.0000 40.0000 60.0000 35.9995 25.3936 33.7858
161 80.0000 40.0000 80.0000 41.0973 27.4327 60.6305
162 80.0000 40.0000 100.0000 48.1767 30.2645 97.9102
163 80.0000 60.0000 0.0000 36.8806 36.2636 6.0018
164 80.0000 60.0000 20.0000 37.4722 36.5003 9.1170
165 80.0000 60.0000 40.0000 39.2549 37.2134 18.5047
166 80.0000 60.0000 60.0000 42.5729 38.5405 35.9769
167 80.0000 60.0000 80.0000 47.6707 40.5797 62.8217
168 80.0000 60.0000 100.0000 54.7501 43.4114 100.1013
169 80.0000 80.0000 0.0000 46.9803 56.4629 9.3684
170 80.0000 80.0000 20.0000 47.5718 56.6995 12.4835
171 80.0000 80.0000 40.0000 49.3545 57.4126 21.8712
172 80.0000 80.0000 60.0000 52.6725 58.7398 39.3435
173 80.0000 80.0000 80.0000 57.7704 60.7789 66.1882
174 80.0000 80.0000 100.0000 64.8498 63.6107 103.4679
175 80.0000 100.0000 0.0000 61.0057 84.5138 14.0435
176 80.0000 100.0000 20.0000 61.5973 84.7504 17.1587
177 80.0000 100.0000 40.0000 63.3800 85.4635 26.5464
178 80.0000 100.0000 60.0000 66.6980 86.7907 44.0186
179 80.0000 100.0000 80.0000 71.7958 88.8298 70.8634
180 80.0000 100.0000 100.0000 78.8752 91.6616 108.1430
181 100.0000 0.0000 0.0000 41.7781 22.0474 2.9997
182 100.0000 0.0000 20.0000 42.3697 22.2840 6.1148
183 100.0000 0.0000 40.0000 44.1524 22.9971 15.5025
184 100.0000 0.0000 60.0000 47.4704 24.3243 32.9748
185 100.0000 0.0000 80.0000 52.5682 26.3634 59.8196
186 100.0000 0.0000 100.0000 59.6476 29.1952 97.0992
187 100.0000 20.0000 0.0000 42.9501 24.3914 3.3904
188 100.0000 20.0000 20.0000 43.5417 24.6280 6.5055
189 100.0000 20.0000 40.0000 45.3244 25.3411 15.8932
190 100.0000 20.0000 60.0000 48.6424 26.6683 33.3655
191 100.0000 20.0000 80.0000 53.7402 28.7074 60.2102
192 100.0000 20.0000 100.0000 60.8196 31.5392 97.4899
193 100.0000 40.0000 0.0000 46.4820 31.4551 4.5677
194 100.0000 40.0000 20.0000 47.0735 31.6917 7.6828
195 100.0000 40.0000 40.0000 48.8562 32.4048 17.0705
196 100.0000 40.0000 60.0000 52.1742 33.7320 34.5427
197 100.0000 40.0000 80.0000 57.2721 35.7712 61.3875
198 100.0000 40.0000 100.0000 64.3515 38.6029 98.6672
199 100.0000 60.0000 0.0000 53.0554 44.6020 6.7588
200 100.0000 60.0000 20.0000 53.6470 44.8387 9.8739
201 100.0000 60.0000 40.0000 55.4297 45.5518 19.2616
202 100.0000 60.0000 60.0000 58.7477 46.8789 36.7339
203 100.0000 60.0000 80.0000 63.8455 48.9181 63.5787
204 100.0000 60.0000 100.0000 70.9249 51.7498 100.8583
205 100.0000 80.0000 0.0000 63.1550 64.8013 10.1253
206 100.0000 80.0000 20.0000 63.7466 65.0379 13.2405
207 100.0000 80.0000 40.0000 65.5293 65.7510 22.6282
208 100.0000 80.0000 60.0000 68.8473 67.0782 40.1004
209 100.0000 80.0000 80.0000 73.9451 69.1173 66.9452
210 100.0000 80.0000 100.0000 81.0245 71.9491 104.2248
211 100.0000 100.0000 0.0000 77.1805 92.8522 14.8005
212 100.0000 100.0000 20.0000 77.7721 93.0888 17.9156
213 100.0000 100.0000 40.0000 79.5548 93.8019 27.3033
214 100.0000 100.0000 60.0000 82.8728 95.1291 44.7756
215 100.0000 100.0000 80.0000 87.9706 97.1682 71.6204
216 100.0000 100.0000 100.0000 95.0500 100.0000 108.9000
217 10.0000 0.0000 0.0000 1.3597 1.2110 1.1082
218 0.0000 10.0000 0.0000 1.3053 1.7097 1.2073
219 0.0000 0.0000 10.0000 1.1296 1.0716 2.0321
220 90.0000 0.0000 0.0000 33.0987 17.5730 2.5935
221 100.0000 10.0000 0.0000 42.1329 22.7571 3.1180
222 100.0000 0.0000 10.0000 41.9572 22.1190 3.9428
223 10.0000 100.0000 0.0000 36.7621 72.0158 12.9090
224 0.0000 90.0000 0.0000 28.8268 56.7526 10.3811
225 0.0000 100.0000 10.0000 36.5320 71.8764 13.8329
226 10.0000 0.0000 100.0000 19.2292 8.3588 95.2077
227 0.0000 10.0000 100.0000 19.1748 8.8575 95.3068
228 0.0000 0.0000 90.0000 15.0212 6.6283 75.1841
229 10.0000 100.0000 100.0000 54.6316 79.1636 107.0085
230 0.0000 90.0000 100.0000 46.6963 63.9004 104.4806
231 0.0000 100.0000 90.0000 50.4236 77.4331 86.9849
232 90.0000 0.0000 100.0000 50.9682 24.7208 96.6930
233 100.0000 10.0000 100.0000 60.0024 29.9049 97.2175
234 100.0000 0.0000 90.0000 55.8488 27.6757 77.0948
235 90.0000 100.0000 0.0000 68.5011 88.3778 14.3943
236 100.0000 90.0000 0.0000 69.6544 77.8000 12.2918
237 100.0000 100.0000 10.0000 77.3596 92.9238 15.7436
238 90.0000 100.0000 100.0000 86.3706 95.5256 108.4938
239 100.0000 90.0000 100.0000 87.5239 84.9478 106.3913
240 100.0000 100.0000 90.0000 91.2512 98.4805 88.8956
241 71.7316 63.0300 57.1276 37.9454 38.1413 33.0995
242 83.9016 71.0212 62.0963 50.9090 50.3605 40.1624
243 93.2539 79.9971 70.8734 65.3951 65.0028 53.1799
244 99.4270 89.9894 83.6815 81.0557 82.2874 75.1342
245 69.9704 63.7066 56.3088 37.0462 38.1413 32.3139
246 81.2781 72.0656 60.8480 49.2890 50.3605 38.8399
247 90.5595 81.0577 69.6008 63.4738 65.0028 51.5763
248 97.5238 90.7024 82.8109 79.5479 82.2874 73.7575
249 68.1392 55.5166 50.2397 31.5547 30.4520 25.4166
250 81.4775 62.7464 54.8112 43.7532 41.0015 31.0285
251 90.8624 71.5494 63.4036 56.8802 53.8102 42.0274
252 95.7433 81.9669 76.2719 70.2070 69.0971 61.3995
253 66.4590 56.2865 48.6657 30.6603 30.4520 24.1181
254 78.9530 63.9622 52.4068 42.1044 41.0015 28.8387
255 88.2709 72.7761 60.9497 54.9074 53.8102 39.3229
256 93.9254 82.7688 74.5908 68.6617 69.0971 59.0096
257 64.1411 49.8857 43.1136 26.3407 24.9609 18.9630
258 77.8465 56.7452 46.5368 37.3950 34.2227 22.7560
259 87.2415 65.4081 54.9148 49.2462 45.6079 31.7291
260 91.6299 75.9172 68.5758 61.0873 59.3359 49.2641
261 62.0415 50.8596 41.3588 25.3605 24.9609 17.7827
262 74.6929 58.2962 43.8342 35.5582 34.2227 20.7892
263 83.9966 66.9695 52.1608 47.0268 45.6079 29.2427
264 89.3413 76.9280 66.7004 59.3399 59.3359 46.9636
265 57.8997 40.2001 32.6256 19.2844 17.3288 11.4154
266 72.3964 46.1260 34.7453 28.8034 24.6099 13.4480
267 81.8543 54.5507 42.7790 38.7986 33.7860 19.7700
268 85.2890 65.4810 57.1388 48.2131 45.0762 33.9084
269 55.4767 41.4633 30.2370 18.3086 17.3288 10.2960
270 68.7252 48.1949 30.9981 26.9066 24.6099 11.6098
271 78.0724 56.6106 38.9821 36.4664 33.7860 17.3324
272 82.6307 66.7673 54.5867 46.3696 45.0762 31.4590
273 43.3928 27.7735 22.2998 10.3445 9.0536 5.9631
274 56.8255 33.3360 25.1301 16.6292 13.7515 7.5380
275 65.9502 41.3765 32.7694 23.5939 19.9926 11.7764
276 69.7229 51.8474 45.6172 30.4167 27.9961 21.2024
277 41.5096 28.8496 20.0483 9.8072 9.0536 5.2914
278 53.9319 35.1289 21.5702 15.5168 13.7515 6.3613
279 62.9599 43.1433 29.1565 22.1685 19.9926 10.1116
280 67.6315 52.9270 43.1793 29.2583 27.9961 19.4425
281 28.0553 20.4052 18.8539 5.3094 4.9928 4.4066
282 38.5019 26.7879 24.4429 8.8912 8.0585 6.5918
283 46.7806 34.4674 31.9761 13.4582 12.3914 10.4406
284 52.3123 43.4453 41.6201 18.7754 18.2105 17.0063
285 26.2827 19.6086 16.5704 4.7911 4.6080 3.7753
286 37.5369 27.3692 22.6866 8.6046 8.0585 5.9913
287 45.7823 35.0503 30.1535 13.0696 12.3914 9.5801
288 50.4680 42.6645 39.1958 17.5343 17.2912 15.2827
289 0.9000 45.0000 26.9925 8.0784 13.5204 8.6767
290 21.1125 0.9000 45.0000 5.5220 3.0410 17.2249
291 1.4500 72.5000 36.9750 20.1588 36.1280 17.4076
292 27.5017 1.4500 72.5000 12.1563 5.8358 46.8033
293 2.0000 100.0000 42.0167 39.0508 72.8913 26.7671
294 10.5750 45.0000 27.7875 8.5598 13.7613 9.0291
295 23.1975 10.5750 45.0000 6.1817 3.9194 17.3597
296 17.0375 72.5000 44.7688 22.1209 37.0236 22.7343
297 37.3737 17.0375 72.5000 15.1815 8.6299 47.1832
298 23.5000 100.0000 61.7500 44.2574 75.1792 44.9092
299 20.2500 45.0000 30.3563 9.7158 14.3320 10.2264
300 27.0563 20.2500 45.0000 7.6288 5.8716 17.6602
301 32.6250 72.5000 52.5625 25.9111 38.8335 29.4172
302 47.2458 32.6250 72.5000 20.4178 14.6036 48.0602
303 45.0000 100.0000 77.5417 53.3804 79.4206 66.1934
304 17.8875 30.0000 1.5000 4.6624 6.7601 2.1139
305 1.5000 30.0000 23.1125 4.3706 6.5221 6.0624
306 42.7083 62.5000 3.1250 19.5640 28.9063 5.7210
307 3.1250 62.5000 42.7083 16.1151 26.8182 19.5703
308 73.1896 95.0000 4.7500 52.7251 74.4566 12.8867
309 22.7500 30.0000 8.2500 5.4059 7.1303 2.7416
310 8.2500 30.0000 22.7500 4.6067 6.6465 5.9508
311 47.3958 62.5000 17.1875 21.5223 29.8692 7.9194
312 17.1875 62.5000 47.3958 17.7178 27.5658 23.1965
313 72.0417 95.0000 26.1250 52.9504 74.4659 17.7266
314 26.3750 30.0000 15.0000 6.2027 7.5162 3.9063
315 15.0000 30.0000 23.6250 5.1577 6.9239 6.2764
316 52.0833 62.5000 31.2500 24.2575 31.1666 13.1371
317 31.2500 62.5000 52.0833 20.7162 29.0226 27.3574
318 74.8125 95.0000 47.5000 57.0973 76.3227 30.6166
319 30.0000 0.6000 10.1550 4.1405 2.6477 2.2004
320 27.3050 30.0000 0.6000 6.0257 7.4644 2.1128
321 65.0000 1.3000 27.8417 17.6287 9.5208 7.7556
322 65.0000 65.0000 1.3000 29.9402 35.9162 6.3948
323 100.0000 2.0000 51.8167 45.9651 23.8099 24.7778
324 30.0000 8.5500 17.4875 4.6822 3.2866 3.7510
325 30.0000 30.0000 8.5500 6.6750 7.7838 2.8383
326 65.0000 18.5250 37.8896 19.6016 11.8783 13.3097
327 65.0000 65.0000 18.5250 30.4349 36.1141 9.0002
328 100.0000 28.5000 58.2917 49.4582 28.8596 31.9118
329 30.0000 16.5000 23.3625 5.5593 4.5047 5.6966
330 30.0000 28.7625 16.5000 6.7369 7.4699 4.2084
331 65.0000 35.7500 47.9375 23.6772 17.8311 21.4456
332 65.0000 65.0000 35.7500 31.7986 36.6596 16.1811
333 100.0000 55.0000 69.6250 59.0088 43.8525 47.7613
334 14.0750 0.6000 30.0000 2.9922 1.9258 8.0198
335 28.5858 0.6000 8.7408 3.8253 2.4895 1.9910
336 24.6567 1.3000 65.0000 9.7990 4.8299 36.9586
337 63.8453 0.1453 26.6870 16.9028 9.1101 7.2360
338 28.9500 2.0000 100.0000 21.6571 9.6917 95.3370
339 15.9400 7.8000 30.0000 3.3964 2.4745 8.1044
340 28.8453 6.6453 15.8953 4.2984 2.9744 3.3284
341 34.5367 16.9000 65.0000 12.5913 7.4912 37.3251
342 63.8453 15.7453 35.7870 18.5010 10.9530 11.9413
343 53.1333 26.0000 100.0000 30.7361 17.1798 96.3038
344 19.1250 15.0000 30.0000 4.1963 3.5525 8.2703
345 28.8453 13.8453 21.4703 4.9933 3.9025 4.9833
346 44.4167 32.5000 65.0000 17.5702 13.3152 38.1868
347 65.0000 32.5000 46.0417 22.7226 16.3859 19.6968
348 72.9167 50.0000 100.0000 46.4297 33.6299 98.6518
349 0.0000 0.0000 2.0000 0.9782 1.0111 1.2347
350 3.4483 3.4483 3.4483 1.2016 1.2642 1.3767
351 6.8966 6.8966 6.8966 1.5022 1.5804 1.7211
352 10.3448 10.3448 10.3448 1.9448 2.0461 2.2282
353 13.7931 13.7931 13.7931 2.5454 2.6780 2.9164
354 17.2414 17.2414 17.2414 3.3172 3.4899 3.8005
355 19.2754 20.6897 22.1039 4.1768 4.4354 5.3325
356 24.1379 24.1379 24.1379 5.4196 5.7018 6.2093
357 27.5862 27.5862 27.5862 6.7706 7.1233 7.7572
358 31.0345 31.0345 31.0345 8.3341 8.7681 9.5485
359 34.4828 34.4828 34.4828 10.1185 10.6455 11.5929
360 37.9310 37.9310 37.9310 12.1320 12.7639 13.8998
361 41.3793 41.3793 41.3793 14.3824 15.1314 16.4781
362 44.8276 44.8276 44.8276 16.8768 17.7558 19.3360
363 48.2759 48.2759 48.2759 19.6225 20.6444 22.4818
364 51.7241 51.7241 51.7241 22.6261 23.8044 25.9230
365 55.1724 55.1724 55.1724 25.8942 27.2427 29.6673
366 58.6207 58.6207 58.6207 29.4329 30.9657 33.7217
367 62.0690 62.0690 62.0690 33.2484 34.9800 38.0932
368 65.5172 65.5172 65.5172 37.3466 39.2915 42.7884
369 68.9655 68.9655 68.9655 41.7330 43.9064 47.8140
370 72.4138 72.4138 72.4138 46.4133 48.8304 53.1763
371 75.8621 75.8621 75.8621 51.3927 54.0691 58.8813
372 78.1556 78.1556 78.1556 54.8730 57.7307 62.8687
373 82.7586 82.7586 82.7586 62.2700 65.5129 71.3435
374 86.2069 86.2069 86.2069 68.1779 71.7284 78.1123
375 89.6552 89.6552 89.6552 74.4051 78.2800 85.2469
376 93.1034 93.1034 93.1034 80.9565 85.1725 92.7529
377 96.5517 96.5517 96.5517 87.8366 92.4109 100.6355
378 98.0000 100.0000 100.0000 93.2170 99.0551 108.8142
379 2.3094 0.0000 0.0000 1.0235 1.0376 1.0924
380 2.3094 0.0000 2.0000 1.0511 1.0487 1.2381
381 0.0000 2.3094 0.0000 1.0138 1.1266 1.1101
382 0.0000 2.3094 2.0000 1.0414 1.1376 1.2558
383 0.0000 0.0000 4.3094 1.0102 1.0239 1.4036
384 0.0000 2.1213 4.4307 1.0702 1.1409 1.4324
385 5.1516 0.0000 0.0000 1.1168 1.0857 1.0968
386 3.9969 1.1547 1.1547 1.1244 1.1348 1.1896
387 2.6165 2.5351 0.0000 1.1026 1.1816 1.1160
388 0.2257 4.9259 0.0000 1.0946 1.2777 1.1350
389 0.0000 5.1516 2.0000 1.1224 1.2995 1.2827
390 0.0000 7.1516 0.0000 1.1685 1.4359 1.1617
391 1.4142 3.7712 2.7946 1.1372 1.2452 1.3291
392 2.0000 1.3804 3.7712 1.1037 1.1291 1.3792
393 0.0000 0.0000 6.5658 1.0487 1.0393 1.6060
394 0.0000 2.1213 7.2729 1.1212 1.1613 1.7011
395 2.7946 0.0000 5.1854 1.1122 1.0749 1.4794
396 3.7712 0.0000 3.3804 1.1164 1.0801 1.3408
397 8.9761 4.3573 6.6667 1.5177 1.4586 1.6726
398 8.9761 6.6667 4.3573 1.5567 1.6001 1.4897
399 6.6667 8.9761 4.3573 1.5409 1.7445 1.5184
400 4.3573 8.9761 6.6667 1.4899 1.7136 1.7233
401 4.3573 6.6667 8.9761 1.4390 1.5289 1.9621
402 6.6667 4.3573 8.9761 1.4511 1.4183 1.9401
403 11.8183 2.8954 5.2863 1.6389 1.4640 1.5355
404 11.8183 5.2863 2.8954 1.6732 1.5886 1.3744
405 10.4379 8.0470 1.5151 1.6658 1.7476 1.3054
406 8.0470 10.4379 1.5151 1.6470 1.9198 1.3397
407 5.2863 11.8183 2.8954 1.6250 2.0305 1.4623
408 2.8954 11.8183 5.2863 1.5801 2.0033 1.6427
409 1.5151 10.4379 8.0470 1.5074 1.8353 1.9004
410 1.5151 8.0470 10.4379 1.4467 1.6149 2.1852
411 2.8954 5.2863 11.8183 1.4244 1.4379 2.3736
412 5.2863 2.8954 11.8183 1.4350 1.3405 2.3543
413 8.0470 1.5151 10.4379 1.4797 1.3123 2.1251
414 10.4379 1.5151 8.0470 1.5592 1.3604 1.8060
415 15.6427 11.0239 13.3333 2.5121 2.3862 2.7725
416 15.6427 13.3333 11.0239 2.5877 2.6605 2.4178
417 13.3333 15.6427 11.0239 2.5599 2.9152 2.4684
418 11.0239 15.6427 13.3333 2.4610 2.8553 2.8657
419 11.0239 13.3333 15.6427 2.3712 2.5295 3.2870
420 13.3333 11.0239 15.6427 2.3946 2.3150 3.2443
421 18.4849 9.5621 11.9530 2.6867 2.3593 2.5079
422 18.4849 11.9530 9.5621 2.7563 2.6119 2.1813
423 17.1046 14.7137 8.1817 2.7664 2.9170 2.0591
424 14.7137 17.1046 8.1817 2.7348 3.2073 2.1168
425 11.9530 18.4849 9.5621 2.6735 3.3709 2.3322
426 9.5621 18.4849 11.9530 2.5824 3.3157 2.6980
427 8.1817 17.1046 14.7137 2.4701 3.0471 3.1795
428 8.1817 14.7137 17.1046 2.3679 2.6757 3.6596
429 9.5621 11.9530 18.4849 2.3150 2.3447 3.9534
430 11.9530 9.5621 18.4849 2.3365 2.1472 3.9141
431 14.7137 8.1817 17.1046 2.4304 2.1022 3.5456
432 17.1046 8.1817 14.7137 2.5643 2.1833 3.0078
433 22.3094 17.6906 20.0000 4.1395 3.9610 4.5931
434 22.3094 20.0000 17.6906 4.2577 4.3903 4.0380
435 20.0000 22.3094 17.6906 4.2162 4.7713 4.1137
436 17.6906 22.3094 20.0000 4.0613 4.6776 4.7355
437 16.5359 18.8453 21.1547 3.6091 3.8512 4.9476
438 20.0000 17.6906 22.3094 3.9637 3.8545 5.2990
439 25.1516 16.2288 18.6196 4.3683 3.8871 4.1791
440 23.9969 17.4649 15.0741 4.1324 3.9527 3.3436
441 23.7712 21.3804 14.8484 4.5067 4.7680 3.4328
442 21.3804 23.7712 14.8484 4.4604 5.1922 3.5171
443 18.6196 25.1516 16.2288 4.3587 5.4162 3.8735
444 16.2288 25.1516 18.6196 4.2113 5.3270 4.4653
445 14.8484 23.7712 21.3804 4.0401 4.9377 5.2051
446 14.8484 21.3804 23.7712 3.8906 4.3950 5.9067
447 16.2288 18.6196 25.1516 3.8165 3.8935 6.3186
448 18.6196 16.2288 25.1516 3.8513 3.5741 6.2551
449 21.3804 14.8484 23.7712 3.9899 3.4840 5.7256
450 23.7712 14.8484 21.3804 4.1857 3.6025 4.9397
451 28.9761 24.3573 26.6667 6.4822 6.2729 7.2294
452 28.9761 26.6667 24.3573 6.6481 6.8754 6.4504
453 26.6667 28.9761 24.3573 6.5913 7.3961 6.5540
454 24.3573 28.9761 26.6667 6.3741 7.2645 7.4265
455 24.3573 26.6667 28.9761 6.1906 6.5983 8.2878
456 26.6667 24.3573 28.9761 6.2419 6.1274 8.1942
457 31.8183 22.8954 25.2863 6.7684 6.1440 6.6484
458 31.8183 25.2863 22.8954 6.9293 6.7281 5.8933
459 30.4379 28.0470 21.5151 6.9730 7.3865 5.5656
460 28.0470 30.4379 21.5151 6.9107 7.9580 5.6792
461 25.2863 31.8183 22.8954 6.7636 8.2475 6.1953
462 22.8954 31.8183 25.2863 6.5529 8.1200 7.0412
463 21.5151 30.4379 28.0470 6.3157 7.5978 8.0683
464 21.5151 28.0470 30.4379 6.1143 6.8666 9.0137
465 22.8954 25.2863 31.8183 6.0175 6.1761 9.5544
466 25.2863 22.8954 31.8183 6.0673 5.7195 9.4636
467 28.0470 21.5151 30.4379 6.2549 5.5771 8.7574
468 30.4379 21.5151 28.0470 6.5186 5.7368 7.6984
