demo-projects/old/Demo-Report-Matrix-2026-08-10_231948/runs/run1/verifications/2026-08-01_100000/Demo-Report-Matrix-verify.ti3
CTI3   
KEYWORD "CHROMIQ_VERIFICATION"
CHROMIQ_VERIFICATION "true"

DESCRIPTOR "Argyll Calibration Target chart information 3"
ORIGINATOR "Argyll fakeread"
CREATED "Mon Aug 10 23:17:26 2026"
DEVICE_CLASS "DISPLAY"
COLOR_REP "iRGB_XYZ"

KEYWORD "CHROMIQ_MEASURED"
CHROMIQ_MEASURED "2026-08-01T10:00:00"
TARGET_INSTRUMENT "X-Rite ColorMunki"
NUMBER_OF_FIELDS 7
BEGIN_DATA_FORMAT
SAMPLE_ID RGB_R RGB_G RGB_B XYZ_X XYZ_Y XYZ_Z 
END_DATA_FORMAT

NUMBER_OF_SETS 108
BEGIN_DATA
1 107.7547 98.88450 86.10550 89.14880 96.14866 82.52256 
2 107.7547 98.88450 86.10550 89.34972 96.43385 82.94418 
3 107.7547 98.88450 86.10550 89.45000 96.83418 82.36397 
4 107.7547 98.88450 86.10550 88.74262 95.49517 81.90602 
5 0.00000 0.00000 0.00000 0.000466453 0.000387835 0.000615454 
6 0.00000 0.00000 0.00000 0.000145143 0.000125730 0.000550623 
7 0.00000 0.00000 0.00000 0.0000124568 0.0000248280 4.23887e-06 
8 0.00000 0.00000 0.00000 0.000355881 0.000296956 0.000166649 
9 104.1450 95.57200 83.22100 85.69902 90.66690 77.07644 
10 100.5470 92.27010 80.34590 82.23879 85.41639 70.85423 
11 96.95970 88.97810 77.47930 77.02253 80.38391 65.39283 
12 93.38480 85.69750 74.62270 70.82378 73.46455 61.01772 
13 89.82180 82.42780 71.77550 64.55455 66.95199 55.71695 
14 86.27060 79.16890 68.93780 59.22126 60.81039 50.62451 
15 82.73340 75.92290 66.11130 53.67243 56.01531 45.86803 
16 79.20870 72.68830 63.29470 48.99059 50.59318 42.24967 
17 75.69770 69.46640 60.48910 44.35157 45.74210 38.14199 
18 72.20110 66.25760 57.69500 40.35879 41.57529 34.54792 
19 68.72070 63.06370 54.91390 35.94568 37.18031 30.25374 
20 65.25510 59.88340 52.14450 32.25193 33.18115 27.82509 
21 61.80500 56.71730 49.38760 28.97382 29.90422 24.53270 
22 58.37170 53.56660 46.64410 25.16170 25.79779 21.35819 
23 54.95840 50.43430 43.91660 22.38607 23.22024 19.86645 
24 51.56210 47.31760 41.20270 19.11280 19.46172 16.23081 
25 48.18480 44.21830 38.50390 16.69587 17.45826 13.78034 
26 44.82930 41.13900 35.82250 14.01346 14.44011 11.86080 
27 41.49700 38.08100 33.15970 11.86713 12.16621 10.45960 
28 38.18500 35.04170 30.51320 9.968194 10.43829 8.439462 
29 34.90060 32.02760 27.88860 8.129571 8.273757 6.891340 
30 31.64510 29.04010 25.28720 6.659402 6.762774 5.712986 
31 28.41720 26.07790 22.70780 5.297943 5.625315 4.382390 
32 25.21900 23.14300 20.15220 4.194441 4.336292 3.460932 
33 22.05940 20.24350 17.62740 3.014818 3.209991 2.500521 
34 18.93730 17.37840 15.13250 2.133546 2.242338 1.797913 
35 15.86550 14.55950 12.67790 1.464952 1.557332 1.189428 
36 12.84510 11.78770 10.26430 0.937716 0.955509 0.831910 
37 9.879900 9.066600 7.894900 0.598446 0.641917 0.473261 
38 6.968200 6.394600 5.568200 0.250942 0.264184 0.195918 
39 13.05040 7.592500 87.95840 14.38017 6.120896 71.50830 
40 13.97150 33.27320 58.76180 9.678307 9.181335 31.76206 
41 106.3005 86.39160 25.46570 68.11058 73.77564 15.42458 
42 35.41340 99.15450 70.74310 47.75574 75.37154 56.33831 
43 23.81210 63.49250 70.88050 23.59128 30.78877 49.33941 
44 96.94400 0.00000 55.82790 43.84461 22.14732 28.94711 
45 91.01040 51.64230 40.42830 44.15702 34.59877 17.75825 
46 77.87420 43.60830 86.05570 42.69415 29.38585 71.00041 
47 73.42840 87.20000 46.12250 50.74917 64.89805 27.60411 
48 15.61980 43.81720 30.37250 7.801944 12.51348 8.697322 
49 59.54010 31.92900 38.67350 18.86168 13.99866 14.17598 
50 75.67850 72.14660 87.06070 53.42988 52.14263 77.66811 
51 77.41170 52.94010 67.23040 39.99091 33.06689 42.98015 
52 62.25810 82.99690 72.00360 47.67147 59.15706 55.03402 
53 26.75260 0.715500 31.60750 3.810231 1.805347 8.034773 
54 72.85430 62.80720 38.02660 35.62726 37.27654 17.02861 
55 25.36050 35.68920 87.80430 19.41433 14.10686 72.66047 
56 8.595800 10.44360 54.53750 5.239627 2.495363 25.23373 
57 82.46470 0.00000 27.10130 27.92187 14.35816 6.823757 
58 23.71810 67.56160 33.63940 18.98672 32.67249 14.15757 
59 40.09180 99.20250 86.56750 54.12789 78.47929 80.84835 
60 74.54130 53.50650 49.32670 34.68417 31.00371 23.88902 
61 21.86960 0.00000 11.30390 1.687328 0.855429 0.971043 
62 64.40150 98.98890 35.55550 53.14825 79.12067 22.42244 
63 91.61370 86.97700 86.59450 73.79922 75.19804 79.53618 
64 22.12270 60.62050 55.29910 18.56907 26.76001 29.88662 
65 82.57360 0.00000 12.44610 27.11320 14.03412 2.408560 
66 101.1700 98.87970 72.32890 85.05397 94.71469 60.51222 
67 40.51250 58.87090 75.62830 26.55351 28.75835 55.26259 
68 47.68940 31.85720 18.96990 11.64565 10.19094 3.798364 
69 65.78910 0.00000 56.23140 21.71885 10.67399 27.90842 
70 56.83820 25.29870 87.77270 27.30276 15.20031 72.51354 
71 92.39490 98.96920 81.67210 81.48954 92.43784 74.12923 
72 58.65710 54.52610 58.13540 27.59569 27.62570 33.05482 
73 7.981400 20.46600 27.91460 2.397090 2.834676 5.920209 
74 40.55470 42.41290 25.42740 12.32231 14.39571 6.972094 
75 59.07940 0.00000 35.62630 14.87781 7.496671 10.66925 
76 67.26030 85.41730 86.81640 56.01406 64.49235 79.85360 
77 57.21880 77.56680 54.53500 37.08591 48.77297 32.57742 
78 35.01690 11.55470 26.33470 5.514072 3.230170 5.497469 
79 100.9289 98.81370 46.67190 78.84591 91.05301 31.70198 
80 104.3940 55.44960 22.71350 51.74796 41.38453 9.177501 
81 32.60750 79.41060 62.65620 31.51191 47.20592 41.35440 
82 62.99430 26.70620 23.37140 17.82127 12.11619 5.375585 
83 42.37970 31.62680 45.84080 12.47964 10.61993 18.28255 
84 63.75380 0.00000 27.59390 16.39017 8.372159 6.580856 
85 46.77940 63.47970 25.66860 21.74389 30.49564 9.793224 
86 59.48700 99.04990 57.29020 53.55812 78.49836 40.21564 
87 90.66010 41.75440 47.36150 41.44911 28.57128 21.29743 
88 55.61710 3.228000 0.00000 11.54079 6.014565 0.609716 
89 51.63680 60.54240 57.45810 27.53292 31.56401 32.93583 
90 15.44940 40.47360 49.89820 9.414249 11.50207 22.10794 
91 15.48110 16.59440 0.00000 1.440997 1.834992 0.287821 
92 56.98610 26.89940 47.21500 17.67421 11.78181 20.08308 
93 103.6626 0.00000 87.49280 54.84263 26.88607 73.56446 
94 50.77730 54.06770 87.51450 31.83575 28.43032 73.53063 
95 39.54910 6.922400 14.51590 5.621137 3.028265 1.639277 
96 27.55830 20.13440 24.77040 4.444728 3.840255 5.004869 
97 85.28930 39.07600 57.85610 38.59395 26.12683 31.32356 
98 16.43190 43.75360 44.27510 9.453387 12.94631 17.64133 
99 71.71070 58.48450 13.05530 31.40431 32.68296 5.932731 
100 31.45630 85.20320 85.49370 41.20850 56.82953 75.55467 
101 100.0000 100.0000 100.0000 94.55371 99.75900 107.9750 
102 0.00000 0.00000 0.00000 0.000306641 0.000160064 0.0000162502 
103 100.0000 0.00000 0.00000 40.80769 21.15515 2.134256 
104 0.00000 100.0000 0.00000 35.45983 70.67539 12.06725 
105 0.00000 0.00000 100.0000 18.14775 7.363852 94.45585 
106 0.00000 100.0000 100.0000 53.84138 78.50563 106.6019 
107 100.0000 0.00000 100.0000 58.86757 28.50792 95.01136 
108 100.0000 100.0000 0.00000 76.90383 92.63632 14.32664 
END_DATA
