demo-projects/old/Demo-Report-Matrix-2026-08-11_112103/runs/run1/verifications/2026-07-10_100000/Demo-Report-Matrix-verify.ti3
CTI3   
KEYWORD "CHROMIQ_VERIFICATION"
CHROMIQ_VERIFICATION "true"

DESCRIPTOR "Argyll Calibration Target chart information 3"
ORIGINATOR "Argyll fakeread"
CREATED "Mon Aug 10 23:21:26 2026"
DEVICE_CLASS "DISPLAY"
COLOR_REP "iRGB_XYZ"

KEYWORD "CHROMIQ_MEASURED"
CHROMIQ_MEASURED "2026-07-10T10:00:00"
TARGET_INSTRUMENT "X-Rite ColorMunki"
NUMBER_OF_FIELDS 7
BEGIN_DATA_FORMAT
SAMPLE_ID RGB_R RGB_G RGB_B XYZ_X XYZ_Y XYZ_Z 
END_DATA_FORMAT

NUMBER_OF_SETS 105
BEGIN_DATA
1 100.0000 100.0000 100.0000 94.86851 99.91821 107.7868 
2 100.0000 100.0000 100.0000 94.85236 99.88731 108.8402 
3 100.0000 100.0000 100.0000 94.91300 99.93635 108.0186 
4 100.0000 100.0000 100.0000 93.79203 99.33807 108.7854 
5 0.00000 0.00000 0.00000 0.000143291 0.000285757 0.0000485391 
6 0.00000 0.00000 0.00000 0.00201983 0.00346015 0.00242762 
7 0.00000 0.00000 0.00000 0.0000237374 0.0000473393 8.03741e-06 
8 0.00000 0.00000 0.00000 0.0000190651 9.87543e-06 9.85355e-07 
9 100.0000 100.0000 0.00000 76.91083 92.59689 14.23678 
10 0.00000 0.00000 100.0000 18.16530 7.408511 94.62383 
11 100.0000 0.00000 0.00000 41.17391 21.32750 2.135387 
12 0.00000 100.0000 100.0000 53.62279 78.44067 105.6468 
13 0.00000 100.0000 0.00000 35.74131 71.27192 12.10063 
14 100.0000 0.00000 100.0000 58.98195 28.54851 96.73293 
15 0.00000 38.69451 100.0000 22.55679 16.16084 96.10969 
16 0.00000 61.01825 0.00000 11.73078 23.39333 3.971757 
17 0.00000 0.00000 49.66734 3.791580 1.546040 19.74195 
18 100.0000 0.00000 49.59690 44.78706 22.77805 22.00035 
19 100.0000 51.96322 100.0000 67.62002 45.25259 99.55616 
20 100.0000 51.02120 0.00000 48.45255 38.04567 5.023345 
21 49.79587 0.00000 0.00000 8.758167 4.536583 0.452933 
22 100.0000 100.0000 50.20307 80.27877 93.92721 33.78306 
23 0.00000 100.0000 50.70625 39.87746 72.95800 33.65810 
24 49.48561 100.0000 100.0000 63.11333 83.44700 107.1998 
25 51.72588 100.0000 0.00000 44.28311 74.20617 12.27526 
26 50.05958 0.00000 100.0000 27.46376 12.23288 94.88333 
27 0.00000 47.79621 60.34591 13.53730 17.26307 34.46800 
28 100.0000 59.17416 43.63085 55.25418 44.73898 21.23575 
29 47.31399 48.98978 0.00000 15.45849 19.60250 3.052431 
30 52.09288 0.00000 45.52943 12.66058 6.182670 18.20657 
31 55.39583 47.66229 100.0000 37.02201 27.32393 97.57062 
32 49.20125 100.0000 50.84061 47.89814 77.15848 31.92618 
33 48.29114 47.33520 50.18713 19.36578 20.38099 23.40596 
34 0.00000 30.94905 0.00000 2.885657 5.754832 0.977072 
35 100.0000 21.19106 79.12555 53.34536 28.18811 59.71434 
36 33.94804 70.69041 100.0000 38.41367 41.63097 100.2830 
37 74.96124 25.82053 0.00000 24.00331 15.24049 1.786958 
38 0.00000 77.61705 71.72771 29.33398 44.39791 53.20341 
39 24.97790 0.00000 23.41364 3.252965 1.597933 4.422689 
40 76.31808 100.0000 28.35106 59.54094 82.90996 19.37634 
41 0.00000 77.00365 31.43299 21.27463 40.20136 14.03854 
42 75.41143 77.79628 100.0000 61.30395 59.60672 100.8227 
43 100.0000 23.29829 20.42453 43.27639 24.58818 5.709369 
44 100.0000 80.02238 22.27702 63.79313 65.39639 12.98805 
45 75.35445 100.0000 76.01304 65.82560 84.03519 64.64460 
46 75.31505 74.81469 0.00000 41.82155 49.95288 7.660249 
47 100.0000 79.49395 78.19811 73.48218 69.44292 63.16719 
48 26.41218 100.0000 75.99234 47.32814 74.91355 64.57999 
49 28.19308 28.22301 100.0000 22.80169 12.81206 95.44688 
50 76.81359 0.00000 23.55016 23.29349 11.99258 4.621230 
51 75.25932 0.00000 74.69026 31.89243 15.42169 53.00306 
52 29.89921 74.23536 0.00000 21.72205 38.97990 6.511518 
53 25.50439 100.0000 24.78846 38.60070 72.66664 16.28934 
54 77.21225 23.71451 100.0000 42.71335 22.50483 96.35527 
55 0.00000 21.07405 72.23364 10.09221 6.013815 46.74438 
56 26.28049 0.00000 71.93547 10.41924 4.498933 42.56537 
57 0.00000 19.89483 30.07019 2.518767 3.034492 6.932773 
58 26.28079 33.45692 23.52814 6.191490 7.948926 5.750471 
59 66.56754 70.38587 52.30860 38.45823 43.48168 29.28666 
60 75.09479 52.62129 65.01886 38.48310 31.72594 42.27567 
61 26.64973 49.33561 81.42125 21.48952 20.88008 63.26203 
62 45.91179 68.61670 63.70484 28.51825 36.12394 39.21794 
63 71.11740 50.49568 34.71935 30.08329 27.97706 12.99594 
64 54.43736 27.35888 62.61652 18.93087 12.11092 36.42616 
65 34.69612 74.79966 32.60823 24.55400 40.40599 14.12766 
66 74.85889 20.44437 50.18860 25.55540 14.38546 21.91498 
67 47.85106 20.11464 33.14580 10.75816 6.861959 9.221230 
68 27.20651 32.63652 48.27367 9.163681 8.604473 20.40345 
69 27.58870 24.69734 0.00000 4.083444 4.765587 0.727067 
70 0.00000 69.14068 100.0000 33.84561 38.67956 99.93312 
71 20.53684 59.80271 49.57175 16.13298 24.67428 23.57453 
72 0.00000 46.98630 28.11508 7.627378 13.58371 7.579000 
73 73.54294 75.32966 75.96305 49.92539 51.51277 60.82229 
74 63.36650 75.70063 29.24590 35.66519 47.49537 14.35174 
75 100.0000 50.88622 71.33775 57.70925 41.05376 51.51731 
76 23.55356 85.77019 53.26247 30.73495 52.30884 30.02558 
77 100.0000 29.41094 48.41781 47.12007 27.45310 22.15745 
78 72.19800 51.56213 8.666635 28.09684 26.11387 4.054801 
79 21.36322 53.66478 11.70929 10.43879 18.96328 3.821846 
80 12.24937 81.96187 10.32227 24.50152 48.19564 8.855890 
81 50.32410 91.80251 71.76533 47.65484 67.76524 56.02896 
82 48.45094 95.04594 23.03440 40.38135 67.04907 15.44729 
83 47.91670 54.94911 27.45694 18.20411 22.69293 9.574208 
84 3.781525 53.33689 81.63552 20.67189 23.38666 61.38372 
85 76.14076 97.71765 95.89858 74.00791 87.91241 96.95069 
86 74.72769 92.97172 51.48222 56.42499 73.94106 35.28460 
87 91.51768 77.11623 49.84954 57.83524 59.06519 30.71449 
88 55.99479 23.67844 88.16304 26.55711 14.65926 72.44067 
89 76.02370 54.61404 92.04182 48.36697 37.15864 84.88939 
90 52.92777 23.07148 11.01567 11.77002 8.263273 1.779256 
91 2.113597 97.73685 76.72762 43.77161 71.61783 62.78080 
92 77.95688 25.26049 74.12841 34.49330 19.45292 51.34350 
93 5.158119 95.50651 28.71841 34.38807 66.74533 17.14504 
94 4.213096 24.16053 51.05457 5.668353 4.748209 21.93662 
95 51.24030 47.80404 76.36550 27.61342 23.80761 56.08668 
96 97.40498 100.0000 75.01152 84.39669 95.38796 65.43626 
97 49.19419 5.350316 74.01136 18.19134 8.499807 49.00652 
98 91.32533 51.59153 22.20459 44.22820 35.34740 8.884338 
99 74.48121 24.34677 26.05584 23.76363 14.70672 6.354598 
100 94.19953 74.22767 93.65841 70.62779 61.96192 90.55532 
101 23.32810 75.54038 80.93191 32.57308 44.12705 65.50419 
102 56.07175 76.90790 5.268606 31.63095 46.01299 7.470765 
103 27.55381 8.135545 46.48987 5.817885 2.827900 17.70918 
104 27.88054 25.86915 72.11177 12.93964 8.653589 45.95342 
105 51.80627 80.99682 89.24284 47.19566 56.94104 84.03304 
END_DATA
