assets/charts/knut/rgb/colormunki/cm_letter_204p_1page_portrait_w10_0mm_fast_reading_speed/chart.ti1
CTI1   

DESCRIPTOR "Argyll Calibration Target chart information 1"
ORIGINATOR "ChromIQ"
APPROX_WHITE_POINT "95.050000 100.000000 108.900000"
COLOR_REP "iRGB"
WHITE_COLOR_PATCHES "1"
BLACK_COLOR_PATCHES "1"
CREATED "Sun Aug 16 16:18:42 2026"

NUMBER_OF_FIELDS 7
BEGIN_DATA_FORMAT
SAMPLE_ID RGB_R RGB_G RGB_B XYZ_X XYZ_Y XYZ_Z
END_DATA_FORMAT

NUMBER_OF_SETS 204
BEGIN_DATA
1 0.0000 0.0000 0.0000 0.9505 1.0000 1.0890
2 0.0000 0.0000 25.0000 1.8596 1.3637 5.8764
3 0.0000 0.0000 50.0000 4.7753 2.5299 21.2302
4 0.0000 0.0000 75.0000 10.2877 4.7349 50.2580
5 0.0000 0.0000 100.0000 18.8200 8.1478 95.1885
6 0.0000 25.0000 0.0000 2.7516 4.6023 1.6894
7 0.0000 25.0000 25.0000 3.6608 4.9659 6.4768
8 0.0000 25.0000 50.0000 6.5764 6.1322 21.8305
9 0.0000 25.0000 75.0000 12.0888 8.3372 50.8584
10 0.0000 25.0000 100.0000 20.6211 11.7501 95.7889
11 0.0000 50.0000 0.0000 8.5281 16.1551 3.6149
12 0.0000 50.0000 25.0000 9.4372 16.5188 8.4023
13 0.0000 50.0000 50.0000 12.3529 17.6851 23.7560
14 0.0000 50.0000 75.0000 17.8653 19.8900 52.7839
15 0.0000 50.0000 100.0000 26.3976 23.3029 97.7144
16 0.0000 75.0000 0.0000 19.4490 37.9970 7.2552
17 0.0000 75.0000 25.0000 20.3581 38.3607 12.0426
18 0.0000 75.0000 50.0000 23.2738 39.5270 27.3963
19 0.0000 75.0000 75.0000 28.7862 41.7319 56.4242
20 0.0000 75.0000 100.0000 37.3185 45.1448 101.3547
21 0.0000 100.0000 0.0000 36.3529 71.8048 12.8898
22 0.0000 100.0000 25.0000 37.2620 72.1685 17.6772
23 0.0000 100.0000 50.0000 40.1777 73.3347 33.0310
24 0.0000 100.0000 75.0000 45.6901 75.5397 62.0588
25 0.0000 100.0000 100.0000 54.2224 78.9526 106.9893
26 25.0000 0.0000 0.0000 3.0276 2.0708 1.1862
27 25.0000 0.0000 25.0000 3.9368 2.4345 5.9736
28 25.0000 0.0000 50.0000 6.8525 3.6007 21.3274
29 25.0000 0.0000 75.0000 12.3648 5.8057 50.3552
30 25.0000 0.0000 100.0000 20.8971 9.2186 95.2857
31 25.0000 25.0000 0.0000 4.8288 5.6731 1.7866
32 25.0000 25.0000 25.0000 5.7379 6.0367 6.5740
33 25.0000 25.0000 50.0000 8.6536 7.2030 21.9278
34 25.0000 25.0000 75.0000 14.1660 9.4080 50.9556
35 25.0000 25.0000 100.0000 22.6983 12.8209 95.8861
36 25.0000 50.0000 0.0000 10.6052 17.2259 3.7121
37 25.0000 50.0000 25.0000 11.5143 17.5896 8.4995
38 25.0000 50.0000 50.0000 14.4300 18.7559 23.8532
39 25.0000 50.0000 75.0000 19.9424 20.9608 52.8811
40 25.0000 50.0000 100.0000 28.4747 24.3737 97.8116
41 25.0000 75.0000 0.0000 21.5262 39.0678 7.3524
42 25.0000 75.0000 25.0000 22.4353 39.4315 12.1398
43 25.0000 75.0000 50.0000 25.3510 40.5978 27.4935
44 25.0000 75.0000 75.0000 30.8634 42.8027 56.5214
45 25.0000 75.0000 100.0000 39.3957 46.2156 101.4519
46 25.0000 100.0000 0.0000 38.4300 72.8756 12.9870
47 25.0000 100.0000 25.0000 39.3392 73.2393 17.7744
48 25.0000 100.0000 50.0000 42.2549 74.4055 33.1282
49 25.0000 100.0000 75.0000 47.7672 76.6105 62.1560
50 25.0000 100.0000 100.0000 56.2995 80.0234 107.0865
51 50.0000 0.0000 0.0000 9.6893 5.5050 1.4980
52 50.0000 0.0000 25.0000 10.5984 5.8687 6.2854
53 50.0000 0.0000 50.0000 13.5141 7.0349 21.6391
54 50.0000 0.0000 75.0000 19.0265 9.2399 50.6670
55 50.0000 0.0000 100.0000 27.5588 12.6528 95.5975
56 50.0000 25.0000 0.0000 11.4904 9.1073 2.0983
57 50.0000 25.0000 25.0000 12.3996 9.4709 6.8858
58 50.0000 25.0000 50.0000 15.3152 10.6372 22.2395
59 50.0000 25.0000 75.0000 20.8276 12.8422 51.2674
60 50.0000 25.0000 100.0000 29.3599 16.2551 96.1978
61 50.0000 50.0000 0.0000 17.2669 20.6601 4.0238
62 50.0000 50.0000 25.0000 18.1760 21.0238 8.8112
63 50.0000 50.0000 50.0000 21.0917 22.1901 24.1650
64 50.0000 50.0000 75.0000 26.6041 24.3950 53.1928
65 50.0000 50.0000 100.0000 35.1364 27.8079 98.1233
66 50.0000 75.0000 0.0000 28.1878 42.5020 7.6641
67 50.0000 75.0000 25.0000 29.0969 42.8657 12.4516
68 50.0000 75.0000 50.0000 32.0126 44.0320 27.8053
69 50.0000 75.0000 75.0000 37.5250 46.2369 56.8332
70 50.0000 75.0000 100.0000 46.0573 49.6498 101.7636
71 50.0000 100.0000 0.0000 45.0917 76.3098 13.2988
72 50.0000 100.0000 25.0000 46.0008 76.6735 18.0862
73 50.0000 100.0000 50.0000 48.9165 77.8397 33.4399
74 50.0000 100.0000 75.0000 54.4289 80.0447 62.4678
75 50.0000 100.0000 100.0000 62.9612 83.4576 107.3983
76 75.0000 0.0000 0.0000 22.2838 11.9977 2.0874
77 75.0000 0.0000 25.0000 23.1929 12.3614 6.8748
78 75.0000 0.0000 50.0000 26.1086 13.5276 22.2285
79 75.0000 0.0000 75.0000 31.6210 15.7326 51.2564
80 75.0000 0.0000 100.0000 40.1533 19.1455 96.1869
81 75.0000 25.0000 0.0000 24.0849 15.6000 2.6878
82 75.0000 25.0000 25.0000 24.9941 15.9636 7.4752
83 75.0000 25.0000 50.0000 27.9097 17.1299 22.8289
84 75.0000 25.0000 75.0000 33.4221 19.3349 51.8568
85 75.0000 25.0000 100.0000 41.9544 22.7478 96.7873
86 75.0000 50.0000 0.0000 29.8614 27.1529 4.6132
87 75.0000 50.0000 25.0000 30.7705 27.5165 9.4007
88 75.0000 50.0000 50.0000 33.6862 28.6828 24.7544
89 75.0000 50.0000 75.0000 39.1986 30.8877 53.7823
90 75.0000 50.0000 100.0000 47.7309 34.3007 98.7127
91 75.0000 75.0000 0.0000 40.7823 48.9948 8.2536
92 75.0000 75.0000 25.0000 41.6914 49.3584 13.0410
93 75.0000 75.0000 50.0000 44.6071 50.5247 28.3947
94 75.0000 75.0000 75.0000 50.1195 52.7296 57.4226
95 75.0000 75.0000 100.0000 58.6518 56.1426 102.3531
96 75.0000 100.0000 0.0000 57.6862 82.8025 13.8882
97 75.0000 100.0000 25.0000 58.5953 83.1662 18.6756
98 75.0000 100.0000 50.0000 61.5110 84.3324 34.0293
99 75.0000 100.0000 75.0000 67.0234 86.5374 63.0572
100 75.0000 100.0000 100.0000 75.5557 89.9503 107.9877
101 100.0000 0.0000 0.0000 41.7781 22.0474 2.9997
102 100.0000 0.0000 25.0000 42.6872 22.4111 7.7871
103 100.0000 0.0000 50.0000 45.6029 23.5773 23.1409
104 100.0000 0.0000 75.0000 51.1153 25.7823 52.1687
105 100.0000 0.0000 100.0000 59.6476 29.1952 97.0992
106 100.0000 25.0000 0.0000 43.5792 25.6497 3.6001
107 100.0000 25.0000 25.0000 44.4884 26.0133 8.3875
108 100.0000 25.0000 50.0000 47.4040 27.1796 23.7412
109 100.0000 25.0000 75.0000 52.9164 29.3846 52.7691
110 100.0000 25.0000 100.0000 61.4487 32.7975 97.6996
111 100.0000 50.0000 0.0000 49.3557 37.2025 5.5256
112 100.0000 50.0000 25.0000 50.2648 37.5662 10.3130
113 100.0000 50.0000 50.0000 53.1805 38.7325 25.6667
114 100.0000 50.0000 75.0000 58.6929 40.9374 54.6946
115 100.0000 50.0000 100.0000 67.2252 44.3503 99.6251
116 100.0000 75.0000 0.0000 60.2766 59.0444 9.1659
117 100.0000 75.0000 25.0000 61.1857 59.4081 13.9533
118 100.0000 75.0000 50.0000 64.1014 60.5744 29.3070
119 100.0000 75.0000 75.0000 69.6138 62.7793 58.3349
120 100.0000 75.0000 100.0000 78.1461 66.1922 103.2654
121 100.0000 100.0000 0.0000 77.1805 92.8522 14.8005
122 100.0000 100.0000 25.0000 78.0896 93.2159 19.5879
123 100.0000 100.0000 50.0000 81.0053 94.3821 34.9417
124 100.0000 100.0000 75.0000 86.5177 96.5871 63.9695
125 100.0000 100.0000 100.0000 95.0500 100.0000 108.9000
126 0.0000 0.0000 2.0000 0.9782 1.0111 1.2347
127 3.3333 3.3333 3.3333 1.1933 1.2554 1.3672
128 6.6667 6.6667 6.6667 1.4780 1.5549 1.6933
129 10.0000 10.0000 10.0000 1.8936 1.9923 2.1696
130 13.3333 13.3333 13.3333 2.4557 2.5836 2.8136
131 16.6667 16.6667 16.6667 3.1762 3.3416 3.6390
132 20.0000 20.0000 20.0000 4.0656 4.2774 4.6581
133 23.3333 23.3333 23.3333 5.1339 5.4013 5.8820
134 26.6667 26.6667 26.6667 6.3900 6.7227 7.3211
135 30.0000 30.0000 30.0000 7.8422 8.2507 8.9850
136 33.3333 33.3333 33.3333 9.4987 9.9933 10.8827
137 36.6667 36.6667 36.6667 11.3667 11.9586 13.0229
138 40.0000 40.0000 40.0000 13.4533 14.1540 15.4137
139 43.3333 43.3333 43.3333 15.7655 16.5865 18.0627
140 46.6667 46.6667 46.6667 18.3095 19.2630 20.9774
141 48.8453 48.8453 48.8453 20.1006 21.1474 23.0295
142 53.3333 53.3333 53.3333 24.1179 25.3739 27.6322
143 56.6667 56.6667 56.6667 27.3940 28.8207 31.3857
144 60.0000 60.0000 60.0000 30.9256 32.5361 35.4318
145 63.3333 63.3333 63.3333 34.7180 36.5260 39.7768
146 66.6667 66.6667 66.6667 38.7764 40.7958 44.4266
147 70.0000 70.0000 70.0000 43.1060 45.3509 49.3871
148 73.3333 73.3333 73.3333 47.7116 50.1964 54.6638
149 76.6667 76.6667 76.6667 52.5982 55.3374 60.2624
150 80.0000 80.0000 80.0000 57.7704 60.7789 66.1882
151 83.3333 83.3333 83.3333 63.2327 66.5257 72.4465
152 86.6667 86.6667 86.6667 68.9896 72.5825 79.0423
153 90.0000 90.0000 90.0000 75.0456 78.9538 85.9807
154 93.3333 93.3333 93.3333 81.4049 85.6443 93.2666
155 96.6667 96.6667 96.6667 88.0716 92.6582 100.9048
156 98.0000 100.0000 100.0000 93.2170 99.0551 108.8142
157 2.6667 0.0000 0.0000 1.0348 1.0434 1.0929
158 0.1786 2.4880 0.0000 1.0243 1.1393 1.1120
159 0.0000 2.6667 2.0000 1.0512 1.1572 1.2590
160 2.0000 1.3333 1.3333 1.0687 1.1130 1.2012
161 0.0000 0.0000 4.0809 1.0070 1.0226 1.3863
162 2.7475 0.0000 2.7475 1.0753 1.0600 1.2932
163 16.9524 12.9524 12.9524 2.7577 2.7006 2.7485
164 15.6190 15.6190 11.6190 2.7831 3.0251 2.5748
165 12.9524 16.9524 12.9524 2.7080 3.1564 2.8391
166 11.6190 15.6190 15.6190 2.5917 2.9093 3.3433
167 12.9524 12.9524 16.9524 2.5474 2.5733 3.5930
168 15.6190 11.6190 15.6190 2.6369 2.4945 3.2609
169 31.2381 27.2381 27.2381 7.4094 7.3743 7.6268
170 29.9048 29.9048 25.9048 7.4728 8.0740 7.2221
171 27.2381 31.2381 27.2381 7.3052 8.3306 7.8169
172 25.9048 29.9048 29.9048 7.0551 7.8211 8.8995
173 27.2381 27.2381 31.2381 6.9682 7.1071 9.3986
174 29.9048 25.9048 29.9048 7.1538 6.9158 8.7195
175 45.5238 41.5238 41.5238 15.7527 15.8912 16.6516
176 44.1905 44.1905 40.1905 15.8621 17.0371 15.9686
177 41.5238 45.5238 41.5238 15.5838 17.4399 16.9594
178 40.1905 44.1905 44.1905 15.1746 16.6209 18.7293
179 41.5238 41.5238 45.5238 15.0381 15.4586 19.5210
180 44.1905 40.1905 44.1905 15.3371 15.1308 18.4331
181 59.8095 55.8095 55.8095 28.3451 28.8460 30.4779
182 58.4762 58.4762 54.4762 28.5069 30.4950 29.4791
183 55.8095 59.8095 55.8095 28.1036 31.0612 30.9182
184 54.4762 58.4762 58.4762 27.5148 29.8944 33.4629
185 55.8095 55.8095 59.8095 27.3230 28.2272 34.5822
186 58.4762 54.4762 58.4762 27.7493 27.7442 33.0355
187 74.0952 70.0952 70.0952 45.6504 46.7311 49.6465
188 72.7619 72.7619 68.7619 45.8699 48.9319 48.3002
189 70.0952 74.0952 70.0952 45.3293 49.6763 50.2319
190 68.7619 72.7619 72.7619 44.5436 48.1289 53.6262
191 70.0952 70.0952 74.0952 44.2914 45.9083 55.1033
192 72.7619 68.7619 72.7619 44.8570 45.2543 53.0548
193 88.3810 84.3810 84.3810 68.0717 69.9740 74.6261
194 87.0476 87.0476 83.0476 68.3536 72.7695 72.9043
195 84.3810 88.3810 84.3810 67.6648 73.7052 75.3678
196 83.0476 87.0476 87.0476 66.6669 71.7482 79.6774
197 84.3810 84.3810 88.3810 66.3501 68.9316 81.5393
198 87.0476 83.0476 87.0476 67.0655 68.0925 78.9508
199 98.8453 97.5120 97.5120 91.0202 95.1119 102.9549
200 100.0000 100.0000 97.3333 93.9851 99.5740 103.2923
201 97.2525 98.5858 98.6667 90.8790 96.2369 105.5777
202 95.3333 100.0000 100.0000 90.8491 97.8344 108.7034
203 98.6667 96.6667 100.0000 91.1971 94.1164 107.9674
204 100.0000 95.9191 98.5858 91.2824 93.3761 104.8350
END_DATA
CTI1   

DESCRIPTOR "Argyll Calibration Target chart information 1"
ORIGINATOR "ChromIQ"
DENSITY_EXTREME_VALUES "8"
CREATED "Sun Aug 16 16:18:42 2026"

NUMBER_OF_FIELDS 7
BEGIN_DATA_FORMAT
INDEX RGB_R RGB_G RGB_B XYZ_X XYZ_Y XYZ_Z
END_DATA_FORMAT

NUMBER_OF_SETS 8
BEGIN_DATA
0 100.0000 100.0000 100.0000 95.0500 100.0000 108.9000
1 0.0000 100.0000 100.0000 54.2224 78.9526 106.9893
2 100.0000 0.0000 100.0000 59.6476 29.1952 97.0992
3 0.0000 0.0000 100.0000 18.8200 8.1478 95.1885
4 100.0000 100.0000 0.0000 77.1805 92.8522 14.8005
5 0.0000 100.0000 0.0000 36.3529 71.8048 12.8898
6 100.0000 0.0000 0.0000 41.7781 22.0474 2.9997
7 0.0000 0.0000 0.0000 0.9505 1.0000 1.0890
END_DATA
CTI1   

DESCRIPTOR "Argyll Calibration Target chart information 1"
ORIGINATOR "ChromIQ"
DEVICE_COMBINATION_VALUES "9"
CREATED "Sun Aug 16 16:18:42 2026"

NUMBER_OF_FIELDS 7
BEGIN_DATA_FORMAT
INDEX RGB_R RGB_G RGB_B XYZ_X XYZ_Y XYZ_Z
END_DATA_FORMAT

NUMBER_OF_SETS 9
BEGIN_DATA
0 100.0000 100.0000 100.0000 95.0500 100.0000 108.9000
1 0.0000 100.0000 100.0000 54.2224 78.9526 106.9893
2 100.0000 0.0000 100.0000 59.6476 29.1952 97.0992
3 0.0000 0.0000 100.0000 18.8200 8.1478 95.1885
4 100.0000 100.0000 0.0000 77.1805 92.8522 14.8005
5 0.0000 100.0000 0.0000 36.3529 71.8048 12.8898
6 100.0000 0.0000 0.0000 41.7781 22.0474 2.9997
7 0.0000 0.0000 0.0000 0.9505 1.0000 1.0890
8 50.0000 50.0000 50.0000 21.0917 22.1901 24.1650
END_DATA
