demo-projects/old/Demo-Report-Matrix-2026-08-10_231948/runs/run2/verifications/2026-08-10_120000/Demo-Report-Matrix-verify.ti3
CTI3   
KEYWORD "CHROMIQ_VERIFICATION"
CHROMIQ_VERIFICATION "true"

DESCRIPTOR "Argyll Calibration Target chart information 3"
ORIGINATOR "Argyll fakeread"
CREATED "Mon Aug 10 23:17:27 2026"
DEVICE_CLASS "DISPLAY"
COLOR_REP "iRGB_XYZ"

KEYWORD "CHROMIQ_MEASURED"
CHROMIQ_MEASURED "2026-08-10T12:00:00"
TARGET_INSTRUMENT "X-Rite ColorMunki"
NUMBER_OF_FIELDS 7
BEGIN_DATA_FORMAT
SAMPLE_ID RGB_R RGB_G RGB_B XYZ_X XYZ_Y XYZ_Z 
END_DATA_FORMAT

NUMBER_OF_SETS 105
BEGIN_DATA
1 100.0000 100.0000 100.0000 95.04547 100.0000 108.9050 
2 100.0000 100.0000 100.0000 95.00565 99.98407 108.6953 
3 100.0000 100.0000 100.0000 94.15213 98.21333 108.6073 
4 100.0000 100.0000 100.0000 95.04547 100.0000 108.9050 
5 0.00000 0.00000 0.00000 0.0557312 0.0488790 0.00649846 
6 0.00000 0.00000 0.00000 0.0107159 0.0214317 0.00357169 
7 0.00000 0.00000 0.00000 0.0337070 0.0674137 0.0112348 
8 0.00000 0.00000 0.00000 0.0167342 0.0334683 0.00557764 
9 100.0000 100.0000 0.00000 76.73663 92.52609 13.81551 
10 0.00000 0.00000 100.0000 17.85255 7.140607 94.02111 
11 100.0000 0.00000 0.00000 40.82206 21.06314 1.915533 
12 0.00000 100.0000 100.0000 52.94599 77.71341 104.5272 
13 0.00000 100.0000 0.00000 35.76906 71.52162 11.94307 
14 100.0000 0.00000 100.0000 59.22682 28.45923 96.66976 
15 0.00000 38.69451 100.0000 22.44367 15.93821 96.47121 
16 0.00000 61.01825 0.00000 11.91524 23.81354 4.023354 
17 0.00000 0.00000 49.66734 3.660201 1.464692 19.27444 
18 100.0000 0.00000 49.59690 45.14550 22.83076 22.49842 
19 100.0000 51.96322 100.0000 67.68992 45.45375 99.27965 
20 100.0000 51.02120 0.00000 48.90207 36.93416 4.552900 
21 49.79587 0.00000 0.00000 8.863089 4.570190 0.415324 
22 100.0000 100.0000 50.20307 80.38408 93.91129 33.01466 
23 0.00000 100.0000 50.70625 39.58218 72.80242 32.80540 
24 49.48561 100.0000 100.0000 62.40636 83.16987 107.3756 
25 51.72588 100.0000 0.00000 45.10339 76.33534 12.35647 
26 50.05958 0.00000 100.0000 26.69783 11.71887 95.46704 
27 0.00000 47.79621 60.34591 13.16317 17.19165 32.55147 
28 100.0000 59.17416 43.63085 55.15983 44.57567 20.81133 
29 47.31399 48.98978 0.00000 14.87906 18.52403 2.791386 
30 52.09288 0.00000 45.52943 13.07708 6.423876 17.14929 
31 55.39583 47.66229 100.0000 35.39811 26.33668 96.00699 
32 49.20125 100.0000 50.84061 48.31355 77.53582 33.03109 
33 48.29114 47.33520 50.18713 19.46847 20.35621 23.43987 
34 0.00000 30.94905 0.00000 2.987024 5.959511 1.040338 
35 100.0000 21.19106 79.12555 53.20596 28.05144 58.79289 
36 33.94804 70.69041 100.0000 38.53040 42.04558 100.6965 
37 74.96124 25.82053 0.00000 23.39029 14.89444 1.642854 
38 0.00000 77.61705 71.72771 29.59590 45.66454 51.57150 
39 24.97790 0.00000 23.41364 3.055970 1.483456 4.462651 
40 76.31808 100.0000 28.35106 59.19072 82.72566 19.37229 
41 0.00000 77.00365 31.43299 21.08602 39.78581 14.38489 
42 75.41143 77.79628 100.0000 59.79616 59.11527 101.3023 
43 100.0000 23.29829 20.42453 43.30937 24.73656 5.660958 
44 100.0000 80.02238 22.27702 62.70910 63.77234 12.78527 
45 75.35445 100.0000 76.01304 67.55197 86.79471 63.77379 
46 75.31505 74.81469 0.00000 40.34741 47.86051 7.111836 
47 100.0000 79.49395 78.19811 73.31810 68.35146 65.26236 
48 26.41218 100.0000 75.99234 47.38251 75.81410 63.08780 
49 28.19308 28.22301 100.0000 22.71199 13.07254 93.99776 
50 76.81359 0.00000 23.55016 24.02953 12.28822 5.748890 
51 75.25932 0.00000 74.69026 30.88233 14.86368 49.88020 
52 29.89921 74.23536 0.00000 21.35753 38.04475 6.217384 
53 25.50439 100.0000 24.78846 38.89346 73.02012 17.16947 
54 77.21225 23.71451 100.0000 42.87608 22.39204 96.67498 
55 0.00000 21.07405 72.23364 9.820576 6.181935 44.72361 
56 26.28049 0.00000 71.93547 10.88918 4.613552 45.92220 
57 0.00000 19.89483 30.07019 2.680988 3.196643 7.569765 
58 26.28079 33.45692 23.52814 7.004976 8.749138 6.062880 
59 66.56754 70.38587 52.30860 37.18436 42.39045 28.90066 
60 75.09479 52.62129 65.01886 36.75051 30.44403 40.09694 
61 26.64973 49.33561 81.42125 21.30174 20.81493 62.23933 
62 45.91179 68.61670 63.70484 29.74344 37.64904 41.32980 
63 71.11740 50.49568 34.71935 29.17719 26.53297 13.02198 
64 54.43736 27.35888 62.61652 19.06960 12.34995 35.35161 
65 34.69612 74.79966 32.60823 24.02277 39.71039 14.40968 
66 74.85889 20.44437 50.18860 26.67665 14.89107 21.78934 
67 47.85106 20.11464 33.14580 10.53947 7.127788 8.942218 
68 27.20651 32.63652 48.27367 9.236350 9.066212 19.67110 
69 27.58870 24.69734 0.00000 4.317773 4.951577 0.728225 
70 0.00000 69.14068 100.0000 33.95870 39.00957 100.3513 
71 20.53684 59.80271 49.57175 16.60065 24.98684 23.98365 
72 0.00000 46.98630 28.11508 7.866832 13.89145 8.301853 
73 73.54294 75.32966 75.96305 48.83352 53.12483 56.70187 
74 63.36650 75.70063 29.24590 36.02076 47.03226 13.68784 
75 100.0000 50.88622 71.33775 57.90522 41.23947 48.67508 
76 23.55356 85.77019 53.26247 32.23921 54.46047 32.42906 
77 100.0000 29.41094 48.41781 45.67765 26.54493 20.99864 
78 72.19800 51.56213 8.666635 28.58890 26.90960 4.536560 
79 21.36322 53.66478 11.70929 10.70512 18.69016 4.302110 
80 12.24937 81.96187 10.32227 23.53475 45.95248 8.549508 
81 50.32410 91.80251 71.76533 46.21646 65.33152 54.62168 
82 48.45094 95.04594 23.03440 40.78445 67.69520 14.80910 
83 47.91670 54.94911 27.45694 18.29985 23.17906 9.046352 
84 3.781525 53.33689 81.63552 20.06415 21.90506 62.24769 
85 76.14076 97.71765 95.89858 72.19021 84.68332 98.57365 
86 74.72769 92.97172 51.48222 54.69036 71.78008 33.41626 
87 91.51768 77.11623 49.84954 57.28694 58.42640 27.46057 
88 55.99479 23.67844 88.16304 26.94175 14.68917 72.07922 
89 76.02370 54.61404 92.04182 46.77155 36.86618 82.55220 
90 52.92777 23.07148 11.01567 11.66124 8.103070 2.235497 
91 2.113597 97.73685 76.72762 42.94573 69.81725 63.51004 
92 77.95688 25.26049 74.12841 34.93132 19.62392 50.54915 
93 5.158119 95.50651 28.71841 33.71827 65.31782 17.16702 
94 4.213096 24.16053 51.05457 6.102568 5.327207 22.75225 
95 51.24030 47.80404 76.36550 25.98977 22.87231 55.97543 
96 97.40498 100.0000 75.01152 83.95424 95.28963 62.86357 
97 49.19419 5.350316 74.01136 17.80201 8.276870 49.42069 
98 91.32533 51.59153 22.20459 42.42936 33.71705 8.225203 
99 74.48121 24.34677 26.05584 23.64328 14.75733 6.581471 
100 94.19953 74.22767 93.65841 70.08434 61.92907 89.47300 
101 23.32810 75.54038 80.93191 32.35182 43.67407 65.87992 
102 56.07175 76.90790 5.268606 32.05621 46.79133 7.789314 
103 27.55381 8.135545 46.48987 6.032451 3.127120 16.68111 
104 27.88054 25.86915 72.11177 13.11426 8.840503 44.98953 
105 51.80627 80.99682 89.24284 46.24543 55.05114 83.75392 
END_DATA
