demo-projects/old/Demo-Report-Matrix-2026-08-10_232125/runs/run1/verifications/2026-07-20_100000/Demo-Report-Matrix-verify.ti3
CTI3   
KEYWORD "CHROMIQ_VERIFICATION"
CHROMIQ_VERIFICATION "true"

DESCRIPTOR "Argyll Calibration Target chart information 3"
ORIGINATOR "Argyll fakeread"
CREATED "Mon Aug 10 23:19:49 2026"
DEVICE_CLASS "DISPLAY"
COLOR_REP "iRGB_XYZ"

KEYWORD "CHROMIQ_MEASURED"
CHROMIQ_MEASURED "2026-07-20T10:00:00"
TARGET_INSTRUMENT "X-Rite ColorMunki"
NUMBER_OF_FIELDS 7
BEGIN_DATA_FORMAT
SAMPLE_ID RGB_R RGB_G RGB_B XYZ_X XYZ_Y XYZ_Z 
END_DATA_FORMAT

NUMBER_OF_SETS 105
BEGIN_DATA
1 100.0000 100.0000 100.0000 94.93963 99.94543 108.9001 
2 100.0000 100.0000 100.0000 94.65911 99.22728 108.7763 
3 100.0000 100.0000 100.0000 94.79661 99.87167 108.8934 
4 100.0000 100.0000 100.0000 95.04547 100.0000 108.9050 
5 0.00000 0.00000 0.00000 0.0126585 0.0253168 0.00421916 
6 0.00000 0.00000 0.00000 0.00940703 0.00412226 0.0333120 
7 0.00000 0.00000 0.00000 0.00653008 0.00336719 0.000306000 
8 0.00000 0.00000 0.00000 0.0354524 0.0216807 0.0527424 
9 100.0000 100.0000 0.00000 76.99679 92.78095 13.85099 
10 0.00000 0.00000 100.0000 18.05617 7.234031 95.05653 
11 100.0000 0.00000 0.00000 41.23828 21.26423 1.932425 
12 0.00000 100.0000 100.0000 53.34982 77.82104 106.8202 
13 0.00000 100.0000 0.00000 35.78051 71.52806 11.91960 
14 100.0000 0.00000 100.0000 58.97232 28.32104 96.97172 
15 0.00000 38.69451 100.0000 22.39022 15.86868 96.49465 
16 0.00000 61.01825 0.00000 11.01405 22.02801 3.671063 
17 0.00000 0.00000 49.66734 3.906987 1.563406 20.54464 
18 100.0000 0.00000 49.59690 43.98324 22.25073 21.41693 
19 100.0000 51.96322 100.0000 67.40857 44.72644 99.69345 
20 100.0000 51.02120 0.00000 48.57612 37.09872 4.606098 
21 49.79587 0.00000 0.00000 8.325435 4.341726 0.399542 
22 100.0000 100.0000 50.20307 80.27258 93.34734 33.39648 
23 0.00000 100.0000 50.70625 38.91771 71.43270 32.71162 
24 49.48561 100.0000 100.0000 61.95430 81.69741 107.1152 
25 51.72588 100.0000 0.00000 45.58445 76.58329 12.38354 
26 50.05958 0.00000 100.0000 26.76079 11.71139 95.46228 
27 0.00000 47.79621 60.34591 13.09832 16.44101 34.42024 
28 100.0000 59.17416 43.63085 55.19872 44.20108 21.95216 
29 47.31399 48.98978 0.00000 16.02302 19.99841 3.030353 
30 52.09288 0.00000 45.52943 12.62998 6.146113 17.12869 
31 55.39583 47.66229 100.0000 35.80463 26.38620 97.38027 
32 49.20125 100.0000 50.84061 48.52862 77.62212 34.15138 
33 48.29114 47.33520 50.18713 19.28885 19.53755 22.97389 
34 0.00000 30.94905 0.00000 2.842581 5.681840 0.957621 
35 100.0000 21.19106 79.12555 53.84120 28.50921 61.51040 
36 33.94804 70.69041 100.0000 38.80690 42.79299 100.8262 
37 74.96124 25.82053 0.00000 23.63603 15.02534 1.655176 
38 0.00000 77.61705 71.72771 29.21315 45.11882 50.76632 
39 24.97790 0.00000 23.41364 2.890251 1.389275 4.696086 
40 76.31808 100.0000 28.35106 58.66999 81.80794 19.41308 
41 0.00000 77.00365 31.43299 20.38238 38.36829 14.16586 
42 75.41143 77.79628 100.0000 59.99301 58.36902 102.6235 
43 100.0000 23.29829 20.42453 43.10718 24.46879 5.765279 
44 100.0000 80.02238 22.27702 62.96996 65.01397 12.98125 
45 75.35445 100.0000 76.01304 67.43580 86.58215 63.19090 
46 75.31505 74.81469 0.00000 40.09202 48.20410 7.191587 
47 100.0000 79.49395 78.19811 72.92013 68.51704 64.77855 
48 26.41218 100.0000 75.99234 47.49734 76.45079 62.96458 
49 28.19308 28.22301 100.0000 22.55294 12.77009 95.88812 
50 76.81359 0.00000 23.55016 23.75414 12.15242 5.456056 
51 75.25932 0.00000 74.69026 31.37562 15.13877 50.28438 
52 29.89921 74.23536 0.00000 21.30314 38.22808 6.255627 
53 25.50439 100.0000 24.78846 38.28487 72.16146 16.17854 
54 77.21225 23.71451 100.0000 42.67557 22.33955 96.19246 
55 0.00000 21.07405 72.23364 10.28843 6.056266 48.19942 
56 26.28049 0.00000 71.93547 10.63758 4.496049 45.13574 
57 0.00000 19.89483 30.07019 2.343644 2.620726 7.141012 
58 26.28079 33.45692 23.52814 6.400195 8.125942 5.799154 
59 66.56754 70.38587 52.30860 36.67365 42.95114 28.28889 
60 75.09479 52.62129 65.01886 37.62215 31.77157 40.10053 
61 26.64973 49.33561 81.42125 21.36988 20.67220 62.15935 
62 45.91179 68.61670 63.70484 28.90601 36.42126 39.55530 
63 71.11740 50.49568 34.71935 28.60515 26.20347 13.02961 
64 54.43736 27.35888 62.61652 18.58861 12.17032 33.78432 
65 34.69612 74.79966 32.60823 25.05810 41.56313 14.62034 
66 74.85889 20.44437 50.18860 26.16872 14.76603 21.91466 
67 47.85106 20.11464 33.14580 10.54062 7.280215 9.006034 
68 27.20651 32.63652 48.27367 9.041208 8.801125 19.91490 
69 27.58870 24.69734 0.00000 4.641148 4.928944 0.762252 
70 0.00000 69.14068 100.0000 33.61102 38.46164 99.75305 
71 20.53684 59.80271 49.57175 16.06688 23.89439 23.06517 
72 0.00000 46.98630 28.11508 8.059631 14.10520 8.791839 
73 73.54294 75.32966 75.96305 48.92398 52.19650 58.57378 
74 63.36650 75.70063 29.24590 34.04179 44.81585 13.00932 
75 100.0000 50.88622 71.33775 56.52558 38.97740 49.02186 
76 23.55356 85.77019 53.26247 33.03159 55.60792 33.06333 
77 100.0000 29.41094 48.41781 47.20257 27.41989 21.71953 
78 72.19800 51.56213 8.666635 27.38766 25.43417 4.296127 
79 21.36322 53.66478 11.70929 10.89906 18.91809 4.361071 
80 12.24937 81.96187 10.32227 22.99478 44.90569 8.368985 
81 50.32410 91.80251 71.76533 46.91158 67.39424 56.15370 
82 48.45094 95.04594 23.03440 41.16383 69.33514 15.36432 
83 47.91670 54.94911 27.45694 18.91823 24.04830 9.439072 
84 3.781525 53.33689 81.63552 20.47645 21.85472 65.12871 
85 76.14076 97.71765 95.89858 71.99067 84.89638 99.07168 
86 74.72769 92.97172 51.48222 54.97684 72.62235 32.38216 
87 91.51768 77.11623 49.84954 57.28758 57.77765 27.78378 
88 55.99479 23.67844 88.16304 26.11851 14.12679 71.00276 
89 76.02370 54.61404 92.04182 46.69748 35.92636 83.13892 
90 52.92777 23.07148 11.01567 11.61195 8.389987 2.080479 
91 2.113597 97.73685 76.72762 43.41595 70.63385 63.92006 
92 77.95688 25.26049 74.12841 34.15311 19.40458 49.43307 
93 5.158119 95.50651 28.71841 34.33313 66.41139 17.33720 
94 4.213096 24.16053 51.05457 6.223005 5.389332 23.18484 
95 51.24030 47.80404 76.36550 25.75150 22.14097 53.00379 
96 97.40498 100.0000 75.01152 83.71848 94.35441 62.70186 
97 49.19419 5.350316 74.01136 18.03803 8.362294 50.13851 
98 91.32533 51.59153 22.20459 42.68078 33.63766 7.839455 
99 74.48121 24.34677 26.05584 24.07801 15.12401 6.505100 
100 94.19953 74.22767 93.65841 70.97388 63.17231 91.05606 
101 23.32810 75.54038 80.93191 31.77998 43.01670 65.58371 
102 56.07175 76.90790 5.268606 30.37074 44.81666 7.417561 
103 27.55381 8.135545 46.48987 5.884077 3.032419 17.02548 
104 27.88054 25.86915 72.11177 12.95846 8.302302 46.94617 
105 51.80627 80.99682 89.24284 46.45031 56.78311 82.45003 
END_DATA
