demo-projects/old/Demo-Report-Matrix-2026-08-11_112103/runs/run1/verifications/2026-08-09_100000/Demo-Report-Matrix-verify.ti3
CTI3   
KEYWORD "CHROMIQ_VERIFICATION"
CHROMIQ_VERIFICATION "true"

DESCRIPTOR "Argyll Calibration Target chart information 3"
ORIGINATOR "Argyll fakeread"
CREATED "Mon Aug 10 23:21:27 2026"
DEVICE_CLASS "DISPLAY"
COLOR_REP "iRGB_XYZ"

KEYWORD "CHROMIQ_MEASURED"
CHROMIQ_MEASURED "2026-08-09T10:00:00"
TARGET_INSTRUMENT "X-Rite ColorMunki"
NUMBER_OF_FIELDS 7
BEGIN_DATA_FORMAT
SAMPLE_ID RGB_R RGB_G RGB_B XYZ_X XYZ_Y XYZ_Z 
END_DATA_FORMAT

NUMBER_OF_SETS 108
BEGIN_DATA
1 107.7174 98.90280 86.09210 89.51605 96.68766 83.12183 
2 107.7174 98.90280 86.09210 89.32616 96.60258 82.15612 
3 107.7174 98.90280 86.09210 88.43074 95.24132 80.54981 
4 107.7174 98.90280 86.09210 89.36524 96.19106 83.67200 
5 0.00000 0.00000 0.00000 0.00000 0.00000 0.00000 
6 0.00000 0.00000 0.00000 0.000513448 0.000350236 0.0000795148 
7 0.00000 0.00000 0.00000 6.25757e-06 3.24132e-06 3.23414e-07 
8 0.00000 0.00000 0.00000 5.98342e-06 3.09932e-06 3.09245e-07 
9 104.1090 95.58970 83.20820 86.20106 92.28834 75.20930 
10 100.5121 92.28720 80.33340 82.07842 85.08385 70.69042 
11 96.92610 88.99450 77.46730 76.66025 79.50289 65.76485 
12 93.35250 85.71340 74.61110 68.74037 71.28031 60.21941 
13 89.79070 82.44300 71.76440 64.20339 66.09612 54.84365 
14 86.24070 79.18360 68.92710 59.27612 61.53396 50.01299 
15 82.70480 75.93700 66.10100 54.27514 56.15409 47.43332 
16 79.18120 72.70180 63.28490 49.15601 51.40292 42.42584 
17 75.67150 69.47920 60.47970 44.80849 45.96276 37.95695 
18 72.17600 66.26980 57.68610 40.14912 41.61633 33.96526 
19 68.69690 63.07540 54.90540 35.63935 36.92010 30.82022 
20 65.23250 59.89440 52.13650 31.56395 32.89350 26.29833 
21 61.78360 56.72780 49.38000 28.41158 29.16618 24.04442 
22 58.35150 53.57650 46.63690 25.70368 26.67513 21.86755 
23 54.93930 50.44360 43.90980 22.14689 22.81215 19.01954 
24 51.54420 47.32640 41.19630 19.00151 19.70418 16.58115 
25 48.16810 44.22650 38.49800 16.51501 17.36103 14.08822 
26 44.81380 41.14660 35.81700 14.36909 15.03762 12.75010 
27 41.48260 38.08810 33.15460 11.97895 12.25968 10.33347 
28 38.17180 35.04810 30.50840 9.871487 10.19875 9.009557 
29 34.88850 32.03350 27.88430 8.526260 9.197442 7.227365 
30 31.63410 29.04550 25.28330 6.716884 6.876319 5.460853 
31 28.40740 26.08280 22.70430 5.000319 5.258643 4.404919 
32 25.21030 23.14730 20.14910 4.033487 4.230696 3.376304 
33 22.05180 20.24720 17.62470 2.956339 2.978066 2.800360 
34 18.93070 17.38160 15.13020 2.113015 2.177620 1.941620 
35 15.86000 14.56220 12.67600 1.517120 1.638368 1.260454 
36 12.84060 11.78990 10.26270 0.861631 0.821831 0.721229 
37 9.876500 9.068300 7.893700 0.574337 0.587053 0.503954 
38 6.965800 6.395800 5.567300 0.280319 0.290736 0.206905 
39 13.40980 7.062400 87.89020 13.93674 5.906796 69.56619 
40 14.11760 33.24490 58.72200 9.253860 8.846743 30.08518 
41 106.2337 86.43090 25.62930 67.99423 73.35111 15.71066 
42 35.51040 99.16400 70.73900 47.52088 74.95110 56.04780 
43 23.93990 63.48260 70.84450 23.33777 30.69114 48.58547 
44 96.88440 0.00000 55.80380 43.36979 21.92202 27.62851 
45 90.95340 51.67250 40.44510 44.44489 35.15965 17.42757 
46 77.86230 43.58120 86.00250 43.12322 29.67114 71.88104 
47 73.40210 87.22270 46.16200 50.51965 64.66855 27.21815 
48 15.66080 43.82180 30.37210 7.962735 12.68182 8.861776 
49 59.50820 31.94050 38.66240 18.75133 13.90643 13.03628 
50 75.67810 72.14120 87.01890 53.61081 51.63282 76.75144 
51 77.38430 52.94290 67.20100 40.54181 33.32615 44.08871 
52 62.26770 83.00370 71.98590 47.20923 58.85766 54.95196 
53 26.74960 0.00000 31.58520 3.796887 1.800139 7.987158 
54 72.81590 62.82870 38.05160 35.91341 37.64102 17.20132 
55 25.51880 35.61850 87.74070 19.60770 14.46152 72.28182 
56 8.804500 10.32260 54.49560 5.044336 2.458675 24.01703 
57 82.40630 0.00000 27.11220 27.54352 14.14944 6.934233 
58 23.75940 67.57360 33.66630 18.64030 32.09059 13.72441 
59 40.20240 99.20420 86.54070 53.87320 77.98325 81.51182 
60 74.50460 53.52190 49.32080 34.34204 30.81995 24.39391 
61 21.85550 0.00000 11.30000 1.516265 0.770301 0.784536 
62 64.38690 99.01450 35.65270 53.06269 79.25253 22.51885 
63 91.59390 86.98490 86.56660 73.05592 74.46838 80.05382 
64 22.20970 60.61980 55.27930 17.94417 26.17824 28.53242 
65 82.51240 0.00000 12.51690 27.19366 14.06597 2.350051 
66 101.1310 98.90300 72.33630 84.49630 93.47183 60.56132 
67 40.56660 58.85620 75.58600 26.70693 29.22285 56.36007 
68 47.65970 31.87330 18.98980 11.42472 10.07055 3.924892 
69 65.76060 0.00000 56.19590 21.76930 10.69937 28.10161 
70 56.86230 25.20510 87.70990 27.17131 15.05362 71.57953 
71 92.37380 98.98470 81.66130 80.86710 91.16829 73.57767 
72 58.64660 54.52880 58.11320 28.15184 28.27184 32.39892 
73 8.039500 20.45830 27.89780 2.524882 3.067979 6.036539 
74 40.53790 42.42430 25.44100 11.97393 14.20601 6.840502 
75 59.04390 0.00000 35.60970 15.07150 7.602336 10.34941 
76 67.27970 85.41680 86.78200 55.85829 64.70247 79.27869 
77 57.21620 77.57960 54.53820 37.01645 48.81513 32.89428 
78 34.99960 11.55550 26.32090 5.450724 3.191300 5.593748 
79 100.8768 98.84670 46.74240 78.68547 90.86947 31.00615 
80 104.3218 55.49450 22.81630 51.68762 41.16155 9.174604 
81 32.67880 79.41570 62.64400 32.05954 48.10089 42.08206 
82 62.95200 26.73320 23.38520 18.30353 12.26743 5.318492 
83 42.37380 31.62080 45.81590 12.75730 10.45560 18.86607 
84 63.71070 0.00000 27.59030 16.51101 8.428004 6.673034 
85 46.76430 63.49670 25.72060 21.78156 30.55522 9.766613 
86 59.49510 99.06850 57.31530 53.65811 79.21435 39.99860 
87 90.60480 41.78210 47.35730 42.16565 29.58772 22.20237 
88 55.57560 3.473700 0.00000 11.27873 5.871957 0.590385 
89 51.63850 60.54590 57.43960 27.30359 31.50583 32.11453 
90 15.54590 40.46340 49.87030 9.562233 11.49879 23.01717 
91 15.47210 16.60060 0.00000 1.479511 1.924509 0.301630 
92 56.96200 26.89810 47.19040 17.52633 11.86119 19.43434 
93 103.6168 0.00000 87.43800 54.88041 26.91537 73.53979 
94 50.82220 54.03820 87.45940 32.34646 28.73406 75.59255 
95 39.52170 6.961700 14.51930 6.162091 3.329520 1.823049 
96 27.54950 20.13520 24.75970 4.331754 3.758753 5.036137 
97 85.24420 39.08940 57.83350 39.88491 26.86547 32.07402 
98 16.50470 43.75020 44.25550 9.682165 13.35001 17.72669 
99 71.66510 58.51160 13.21680 31.33322 32.25172 5.831409 
100 31.59960 85.19720 85.45640 40.54977 56.58020 73.96361 
101 100.0000 100.0000 100.0000 94.94391 99.94895 108.1796 
102 0.00000 0.00000 0.00000 0.000234177 0.000270224 0.000680413 
103 100.0000 0.00000 0.00000 41.17236 21.32661 2.128102 
104 0.00000 100.0000 0.00000 35.73760 71.26992 12.10415 
105 0.00000 0.00000 100.0000 18.16477 7.407456 94.62365 
106 0.00000 100.0000 100.0000 53.87745 78.66552 106.6031 
107 100.0000 0.00000 100.0000 59.33604 28.73194 96.75123 
108 100.0000 100.0000 0.00000 75.74624 91.40169 14.05553 
END_DATA
