assets/charts/knut/rgb/colormunki/cm_a3_456p_1page_landscape_w10_0mm_fast_reading_speed/chart.ti1
CTI1   

DESCRIPTOR "Argyll Calibration Target chart information 1"
ORIGINATOR "ChromIQ"
APPROX_WHITE_POINT "95.050000 100.000000 108.900000"
COLOR_REP "iRGB"
WHITE_COLOR_PATCHES "2"
BLACK_COLOR_PATCHES "2"
CREATED "Sun Aug 16 18:22:40 2026"

NUMBER_OF_FIELDS 7
BEGIN_DATA_FORMAT
SAMPLE_ID RGB_R RGB_G RGB_B XYZ_X XYZ_Y XYZ_Z
END_DATA_FORMAT

NUMBER_OF_SETS 456
BEGIN_DATA
1 0.0000 0.0000 0.0000 0.9505 1.0000 1.0890
2 0.0000 0.0000 20.0000 1.5421 1.2366 4.2041
3 0.0000 0.0000 40.0000 3.3248 1.9497 13.5918
4 0.0000 0.0000 60.0000 6.6428 3.2769 31.0641
5 0.0000 0.0000 80.0000 11.7406 5.3160 57.9089
6 0.0000 0.0000 100.0000 18.8200 8.1478 95.1885
7 0.0000 20.0000 0.0000 2.1225 3.3440 1.4797
8 0.0000 20.0000 20.0000 2.7141 3.5806 4.5948
9 0.0000 20.0000 40.0000 4.4968 4.2937 13.9825
10 0.0000 20.0000 60.0000 7.8148 5.6209 31.4548
11 0.0000 20.0000 80.0000 12.9126 7.6600 58.2995
12 0.0000 20.0000 100.0000 19.9920 10.4918 95.5792
13 0.0000 40.0000 0.0000 5.6544 10.4077 2.6570
14 0.0000 40.0000 20.0000 6.2459 10.6443 5.7721
15 0.0000 40.0000 40.0000 8.0286 11.3574 15.1598
16 0.0000 40.0000 60.0000 11.3466 12.6846 32.6320
17 0.0000 40.0000 80.0000 16.4445 14.7238 59.4768
18 0.0000 40.0000 100.0000 23.5239 17.5555 96.7565
19 0.0000 60.0000 0.0000 12.2278 23.5546 4.8481
20 0.0000 60.0000 20.0000 12.8194 23.7913 7.9632
21 0.0000 60.0000 40.0000 14.6021 24.5044 17.3509
22 0.0000 60.0000 60.0000 17.9201 25.8315 34.8232
23 0.0000 60.0000 80.0000 23.0179 27.8707 61.6680
24 0.0000 60.0000 100.0000 30.0973 30.7024 98.9476
25 0.0000 80.0000 0.0000 22.3274 43.7539 8.2146
26 0.0000 80.0000 20.0000 22.9190 43.9905 11.3298
27 0.0000 80.0000 40.0000 24.7017 44.7036 20.7175
28 0.0000 80.0000 60.0000 28.0197 46.0308 38.1897
29 0.0000 80.0000 80.0000 33.1175 48.0699 65.0345
30 0.0000 80.0000 100.0000 40.1969 50.9017 102.3141
31 0.0000 100.0000 0.0000 36.3529 71.8048 12.8898
32 0.0000 100.0000 20.0000 36.9445 72.0414 16.0049
33 0.0000 100.0000 40.0000 38.7272 72.7545 25.3926
34 0.0000 100.0000 60.0000 42.0452 74.0817 42.8649
35 0.0000 100.0000 80.0000 47.1430 76.1208 69.7097
36 0.0000 100.0000 100.0000 54.2224 78.9526 106.9893
37 20.0000 0.0000 0.0000 2.3021 1.6968 1.1523
38 20.0000 0.0000 20.0000 2.8937 1.9334 4.2674
39 20.0000 0.0000 40.0000 4.6764 2.6465 13.6551
40 20.0000 0.0000 60.0000 7.9944 3.9737 31.1273
41 20.0000 0.0000 80.0000 13.0922 6.0128 57.9721
42 20.0000 0.0000 100.0000 20.1716 8.8446 95.2518
43 20.0000 20.0000 0.0000 3.4741 4.0407 1.5429
44 20.0000 20.0000 20.0000 4.0656 4.2774 4.6581
45 20.0000 20.0000 40.0000 5.8484 4.9905 14.0458
46 20.0000 20.0000 60.0000 9.1663 6.3177 31.5180
47 20.0000 20.0000 80.0000 14.2642 8.3568 58.3628
48 20.0000 20.0000 100.0000 21.3436 11.1885 95.6424
49 20.0000 40.0000 0.0000 7.0059 11.1045 2.7202
50 20.0000 40.0000 20.0000 7.5975 11.3411 5.8353
51 20.0000 40.0000 40.0000 9.3802 12.0542 15.2230
52 20.0000 40.0000 60.0000 12.6982 13.3814 32.6953
53 20.0000 40.0000 80.0000 17.7960 15.4205 59.5401
54 20.0000 40.0000 100.0000 24.8754 18.2523 96.8197
55 20.0000 60.0000 0.0000 13.5794 24.2514 4.9114
56 20.0000 60.0000 20.0000 14.1710 24.4880 8.0265
57 20.0000 60.0000 40.0000 15.9537 25.2011 17.4142
58 20.0000 60.0000 60.0000 19.2717 26.5283 34.8865
59 20.0000 60.0000 80.0000 24.3695 28.5674 61.7312
60 20.0000 60.0000 100.0000 31.4489 31.3992 99.0109
61 20.0000 80.0000 0.0000 23.6790 44.4506 8.2779
62 20.0000 80.0000 20.0000 24.2706 44.6873 11.3930
63 20.0000 80.0000 40.0000 26.0533 45.4004 20.7807
64 20.0000 80.0000 60.0000 29.3713 46.7276 38.2530
65 20.0000 80.0000 80.0000 34.4691 48.7667 65.0977
66 20.0000 80.0000 100.0000 41.5485 51.5984 102.3774
67 20.0000 100.0000 0.0000 37.7045 72.5016 12.9531
68 20.0000 100.0000 20.0000 38.2961 72.7382 16.0682
69 20.0000 100.0000 40.0000 40.0788 73.4513 25.4559
70 20.0000 100.0000 60.0000 43.3968 74.7785 42.9281
71 20.0000 100.0000 80.0000 48.4946 76.8176 69.7729
72 20.0000 100.0000 100.0000 55.5740 79.6494 107.0526
73 40.0000 0.0000 0.0000 6.3752 3.7965 1.3429
74 40.0000 0.0000 20.0000 6.9668 4.0332 4.4580
75 40.0000 0.0000 40.0000 8.7495 4.7462 13.8457
76 40.0000 0.0000 60.0000 12.0675 6.0734 31.3180
77 40.0000 0.0000 80.0000 17.1653 8.1126 58.1627
78 40.0000 0.0000 100.0000 24.2447 10.9443 95.4424
79 40.0000 20.0000 0.0000 7.5472 6.1405 1.7335
80 40.0000 20.0000 20.0000 8.1387 6.3771 4.8487
81 40.0000 20.0000 40.0000 9.9215 7.0902 14.2364
82 40.0000 20.0000 60.0000 13.2395 8.4174 31.7086
83 40.0000 20.0000 80.0000 18.3373 10.4565 58.5534
84 40.0000 20.0000 100.0000 25.4167 13.2883 95.8330
85 40.0000 40.0000 0.0000 11.0791 13.2042 2.9108
86 40.0000 40.0000 20.0000 11.6706 13.4409 6.0260
87 40.0000 40.0000 40.0000 13.4533 14.1540 15.4137
88 40.0000 40.0000 60.0000 16.7713 15.4812 32.8859
89 40.0000 40.0000 80.0000 21.8691 17.5203 59.7307
90 40.0000 40.0000 100.0000 28.9486 20.3520 97.0103
91 40.0000 60.0000 0.0000 17.6525 26.3512 5.1020
92 40.0000 60.0000 20.0000 18.2441 26.5878 8.2171
93 40.0000 60.0000 40.0000 20.0268 27.3009 17.6048
94 40.0000 60.0000 60.0000 23.3448 28.6281 35.0771
95 40.0000 60.0000 80.0000 28.4426 30.6672 61.9218
96 40.0000 60.0000 100.0000 35.5220 33.4990 99.2015
97 40.0000 80.0000 0.0000 27.7521 46.5504 8.4685
98 40.0000 80.0000 20.0000 28.3437 46.7870 11.5837
99 40.0000 80.0000 40.0000 30.1264 47.5001 20.9714
100 40.0000 80.0000 60.0000 33.4444 48.8273 38.4436
101 40.0000 80.0000 80.0000 38.5422 50.8664 65.2884
102 40.0000 80.0000 100.0000 45.6216 53.6982 102.5680
103 40.0000 100.0000 0.0000 41.7776 74.6013 13.1437
104 40.0000 100.0000 20.0000 42.3692 74.8380 16.2588
105 40.0000 100.0000 40.0000 44.1519 75.5510 25.6465
106 40.0000 100.0000 60.0000 47.4699 76.8782 43.1188
107 40.0000 100.0000 80.0000 52.5677 78.9174 69.9635
108 40.0000 100.0000 100.0000 59.6471 81.7491 107.2432
109 60.0000 0.0000 0.0000 13.9560 7.7046 1.6976
110 60.0000 0.0000 20.0000 14.5476 7.9412 4.8128
111 60.0000 0.0000 40.0000 16.3303 8.6543 14.2005
112 60.0000 0.0000 60.0000 19.6483 9.9815 31.6727
113 60.0000 0.0000 80.0000 24.7461 12.0206 58.5175
114 60.0000 0.0000 100.0000 31.8255 14.8524 95.7971
115 60.0000 20.0000 0.0000 15.1280 10.0486 2.0883
116 60.0000 20.0000 20.0000 15.7196 10.2852 5.2035
117 60.0000 20.0000 40.0000 17.5023 10.9983 14.5912
118 60.0000 20.0000 60.0000 20.8203 12.3255 32.0634
119 60.0000 20.0000 80.0000 25.9181 14.3646 58.9082
120 60.0000 20.0000 100.0000 32.9975 17.1964 96.1878
121 60.0000 40.0000 0.0000 18.6599 17.1123 3.2656
122 60.0000 40.0000 20.0000 19.2514 17.3489 6.3807
123 60.0000 40.0000 40.0000 21.0341 18.0620 15.7684
124 60.0000 40.0000 60.0000 24.3521 19.3892 33.2407
125 60.0000 40.0000 80.0000 29.4500 21.4283 60.0855
126 60.0000 40.0000 100.0000 36.5294 24.2601 97.3651
127 60.0000 60.0000 0.0000 25.2333 30.2592 5.4568
128 60.0000 60.0000 20.0000 25.8249 30.4958 8.5719
129 60.0000 60.0000 40.0000 27.6076 31.2089 17.9596
130 60.0000 60.0000 60.0000 30.9256 32.5361 35.4318
131 60.0000 60.0000 80.0000 36.0234 34.5753 62.2766
132 60.0000 60.0000 100.0000 43.1028 37.4070 99.5563
133 60.0000 80.0000 0.0000 35.3329 50.4585 8.8233
134 60.0000 80.0000 20.0000 35.9245 50.6951 11.9384
135 60.0000 80.0000 40.0000 37.7072 51.4082 21.3261
136 60.0000 80.0000 60.0000 41.0252 52.7354 38.7984
137 60.0000 80.0000 80.0000 46.1230 54.7745 65.6431
138 60.0000 80.0000 100.0000 53.2024 57.6063 102.9228
139 60.0000 100.0000 0.0000 49.3584 78.5094 13.4984
140 60.0000 100.0000 20.0000 49.9500 78.7460 16.6136
141 60.0000 100.0000 40.0000 51.7327 79.4591 26.0013
142 60.0000 100.0000 60.0000 55.0507 80.7863 43.4735
143 60.0000 100.0000 80.0000 60.1485 82.8254 70.3183
144 60.0000 100.0000 100.0000 67.2279 85.6572 107.5979
145 80.0000 0.0000 0.0000 25.6033 13.7090 2.2427
146 80.0000 0.0000 20.0000 26.1949 13.9456 5.3579
147 80.0000 0.0000 40.0000 27.9776 14.6587 14.7456
148 80.0000 0.0000 60.0000 31.2956 15.9859 32.2178
149 80.0000 0.0000 80.0000 36.3934 18.0250 59.0626
150 80.0000 0.0000 100.0000 43.4728 20.8568 96.3422
151 80.0000 20.0000 0.0000 26.7753 16.0530 2.6334
152 80.0000 20.0000 20.0000 27.3669 16.2896 5.7485
153 80.0000 20.0000 40.0000 29.1496 17.0027 15.1362
154 80.0000 20.0000 60.0000 32.4676 18.3299 32.6085
155 80.0000 20.0000 80.0000 37.5654 20.3690 59.4532
156 80.0000 20.0000 100.0000 44.6448 23.2008 96.7329
157 80.0000 40.0000 0.0000 30.3072 23.1167 3.8107
158 80.0000 40.0000 20.0000 30.8987 23.3533 6.9258
159 80.0000 40.0000 40.0000 32.6815 24.0664 16.3135
160 80.0000 40.0000 60.0000 35.9995 25.3936 33.7858
161 80.0000 40.0000 80.0000 41.0973 27.4327 60.6305
162 80.0000 40.0000 100.0000 48.1767 30.2645 97.9102
163 80.0000 60.0000 0.0000 36.8806 36.2636 6.0018
164 80.0000 60.0000 20.0000 37.4722 36.5003 9.1170
165 80.0000 60.0000 40.0000 39.2549 37.2134 18.5047
166 80.0000 60.0000 60.0000 42.5729 38.5405 35.9769
167 80.0000 60.0000 80.0000 47.6707 40.5797 62.8217
168 80.0000 60.0000 100.0000 54.7501 43.4114 100.1013
169 80.0000 80.0000 0.0000 46.9803 56.4629 9.3684
170 80.0000 80.0000 20.0000 47.5718 56.6995 12.4835
171 80.0000 80.0000 40.0000 49.3545 57.4126 21.8712
172 80.0000 80.0000 60.0000 52.6725 58.7398 39.3435
173 80.0000 80.0000 80.0000 57.7704 60.7789 66.1882
174 80.0000 80.0000 100.0000 64.8498 63.6107 103.4679
175 80.0000 100.0000 0.0000 61.0057 84.5138 14.0435
176 80.0000 100.0000 20.0000 61.5973 84.7504 17.1587
177 80.0000 100.0000 40.0000 63.3800 85.4635 26.5464
178 80.0000 100.0000 60.0000 66.6980 86.7907 44.0186
179 80.0000 100.0000 80.0000 71.7958 88.8298 70.8634
180 80.0000 100.0000 100.0000 78.8752 91.6616 108.1430
181 100.0000 0.0000 0.0000 41.7781 22.0474 2.9997
182 100.0000 0.0000 20.0000 42.3697 22.2840 6.1148
183 100.0000 0.0000 40.0000 44.1524 22.9971 15.5025
184 100.0000 0.0000 60.0000 47.4704 24.3243 32.9748
185 100.0000 0.0000 80.0000 52.5682 26.3634 59.8196
186 100.0000 0.0000 100.0000 59.6476 29.1952 97.0992
187 100.0000 20.0000 0.0000 42.9501 24.3914 3.3904
188 100.0000 20.0000 20.0000 43.5417 24.6280 6.5055
189 100.0000 20.0000 40.0000 45.3244 25.3411 15.8932
190 100.0000 20.0000 60.0000 48.6424 26.6683 33.3655
191 100.0000 20.0000 80.0000 53.7402 28.7074 60.2102
192 100.0000 20.0000 100.0000 60.8196 31.5392 97.4899
193 100.0000 40.0000 0.0000 46.4820 31.4551 4.5677
194 100.0000 40.0000 20.0000 47.0735 31.6917 7.6828
195 100.0000 40.0000 40.0000 48.8562 32.4048 17.0705
196 100.0000 40.0000 60.0000 52.1742 33.7320 34.5427
197 100.0000 40.0000 80.0000 57.2721 35.7712 61.3875
198 100.0000 40.0000 100.0000 64.3515 38.6029 98.6672
199 100.0000 60.0000 0.0000 53.0554 44.6020 6.7588
200 100.0000 60.0000 20.0000 53.6470 44.8387 9.8739
201 100.0000 60.0000 40.0000 55.4297 45.5518 19.2616
202 100.0000 60.0000 60.0000 58.7477 46.8789 36.7339
203 100.0000 60.0000 80.0000 63.8455 48.9181 63.5787
204 100.0000 60.0000 100.0000 70.9249 51.7498 100.8583
205 100.0000 80.0000 0.0000 63.1550 64.8013 10.1253
206 100.0000 80.0000 20.0000 63.7466 65.0379 13.2405
207 100.0000 80.0000 40.0000 65.5293 65.7510 22.6282
208 100.0000 80.0000 60.0000 68.8473 67.0782 40.1004
209 100.0000 80.0000 80.0000 73.9451 69.1173 66.9452
210 100.0000 80.0000 100.0000 81.0245 71.9491 104.2248
211 100.0000 100.0000 0.0000 77.1805 92.8522 14.8005
212 100.0000 100.0000 20.0000 77.7721 93.0888 17.9156
213 100.0000 100.0000 40.0000 79.5548 93.8019 27.3033
214 100.0000 100.0000 60.0000 82.8728 95.1291 44.7756
215 100.0000 100.0000 80.0000 87.9706 97.1682 71.6204
216 100.0000 100.0000 100.0000 95.0500 100.0000 108.9000
217 10.0000 0.0000 0.0000 1.3597 1.2110 1.1082
218 30.0000 0.0000 0.0000 3.9407 2.5415 1.2289
219 50.0000 0.0000 0.0000 9.6893 5.5050 1.4980
220 70.0000 0.0000 0.0000 19.2408 10.4290 1.9450
221 90.0000 0.0000 0.0000 33.0987 17.5730 2.5935
222 0.0000 10.0000 0.0000 1.3053 1.7097 1.2073
223 0.0000 30.0000 0.0000 3.5433 6.1857 1.9533
224 0.0000 50.0000 0.0000 8.5281 16.1551 3.6149
225 0.0000 70.0000 0.0000 16.8104 32.7197 6.3756
226 0.0000 90.0000 0.0000 28.8268 56.7526 10.3811
227 0.0000 0.0000 10.0000 1.1296 1.0716 2.0321
228 0.0000 0.0000 30.0000 2.2592 1.5235 7.9807
229 0.0000 0.0000 50.0000 4.7753 2.5299 21.2302
230 0.0000 0.0000 70.0000 8.9558 4.2021 43.2445
231 0.0000 0.0000 90.0000 15.0212 6.6283 75.1841
232 100.0000 10.0000 0.0000 42.1329 22.7571 3.1180
233 100.0000 30.0000 0.0000 44.3709 27.2331 3.8640
234 100.0000 50.0000 0.0000 49.3557 37.2025 5.5256
235 100.0000 70.0000 0.0000 57.6380 53.7671 8.2863
236 100.0000 90.0000 0.0000 69.6544 77.8000 12.2918
237 100.0000 0.0000 10.0000 41.9572 22.1190 3.9428
238 100.0000 0.0000 30.0000 43.0868 22.5709 9.8914
239 100.0000 0.0000 50.0000 45.6029 23.5773 23.1409
240 100.0000 0.0000 70.0000 49.7834 25.2495 45.1552
241 100.0000 0.0000 90.0000 55.8488 27.6757 77.0948
242 10.0000 100.0000 0.0000 36.7621 72.0158 12.9090
243 30.0000 100.0000 0.0000 39.3431 73.3463 13.0297
244 50.0000 100.0000 0.0000 45.0917 76.3098 13.2988
245 70.0000 100.0000 0.0000 54.6432 81.2338 13.7458
246 90.0000 100.0000 0.0000 68.5011 88.3778 14.3943
247 0.0000 100.0000 10.0000 36.5320 71.8764 13.8329
248 0.0000 100.0000 30.0000 37.6616 72.3283 19.7815
249 0.0000 100.0000 50.0000 40.1777 73.3347 33.0310
250 0.0000 100.0000 70.0000 44.3582 75.0069 55.0453
251 0.0000 100.0000 90.0000 50.4236 77.4331 86.9849
252 0.0000 10.0000 100.0000 19.1748 8.8575 95.3068
253 0.0000 30.0000 100.0000 21.4128 13.3335 96.0528
254 0.0000 50.0000 100.0000 26.3976 23.3029 97.7144
255 0.0000 70.0000 100.0000 34.6799 39.8675 100.4751
256 0.0000 90.0000 100.0000 46.6963 63.9004 104.4806
257 10.0000 0.0000 100.0000 19.2292 8.3588 95.2077
258 30.0000 0.0000 100.0000 21.8102 9.6893 95.3284
259 50.0000 0.0000 100.0000 27.5588 12.6528 95.5975
260 70.0000 0.0000 100.0000 37.1103 17.5768 96.0445
261 90.0000 0.0000 100.0000 50.9682 24.7208 96.6930
262 100.0000 100.0000 10.0000 77.3596 92.9238 15.7436
263 100.0000 100.0000 30.0000 78.4892 93.3757 21.6922
264 100.0000 100.0000 50.0000 81.0053 94.3821 34.9417
265 100.0000 100.0000 70.0000 85.1858 96.0543 56.9560
266 100.0000 100.0000 90.0000 91.2512 98.4805 88.8956
267 10.0000 100.0000 100.0000 54.6316 79.1636 107.0085
268 30.0000 100.0000 100.0000 57.2126 80.4941 107.1292
269 50.0000 100.0000 100.0000 62.9612 83.4576 107.3983
270 70.0000 100.0000 100.0000 72.5127 88.3816 107.8453
271 90.0000 100.0000 100.0000 86.3706 95.5256 108.4938
272 100.0000 10.0000 100.0000 60.0024 29.9049 97.2175
273 100.0000 30.0000 100.0000 62.2404 34.3809 97.9635
274 100.0000 50.0000 100.0000 67.2252 44.3503 99.6251
275 100.0000 70.0000 100.0000 75.5075 60.9149 102.3858
276 100.0000 90.0000 100.0000 87.5239 84.9478 106.3913
277 71.7316 63.0300 57.1276 37.9454 38.1413 33.0995
278 88.9391 75.3832 65.9938 57.9822 57.3651 45.7756
279 99.4270 89.9894 83.6815 81.0557 82.2874 75.1342
280 69.9704 63.7066 56.3088 37.0462 38.1413 32.3139
281 86.1783 76.4816 64.6807 56.1411 57.3651 44.2707
282 97.5238 90.7024 82.8109 79.5479 82.2874 73.7575
283 68.1392 55.5166 50.2397 31.5547 30.4520 25.4166
284 86.6784 66.9447 58.5879 50.2452 47.1098 35.7061
285 95.7433 81.9669 76.2719 70.2070 69.0971 61.3995
286 66.4590 56.2865 48.6657 30.6603 30.4520 24.1181
287 84.0198 68.2232 56.0570 48.3602 47.1098 33.1956
288 93.9254 82.7688 74.5908 68.6617 69.0971 59.0096
289 64.1411 49.8857 43.1136 26.3407 24.9609 18.9630
290 83.0998 60.8431 50.0837 43.2706 39.6362 26.4361
291 91.6299 75.9172 68.5758 61.0873 59.3359 49.2641
292 62.0415 50.8596 41.3588 25.3605 24.9609 17.7827
293 79.7755 62.4740 47.2381 41.1589 39.6362 24.1632
294 88.1866 75.7733 67.8551 58.0512 57.6716 48.1733
295 57.8997 40.2001 32.6256 19.2844 17.3288 11.4154
296 77.7806 50.0129 37.9920 33.8076 28.9474 15.9187
297 85.2890 65.4810 57.1388 48.2131 45.0762 33.9084
298 55.4767 41.4633 30.2370 18.3086 17.3288 10.2960
299 73.9055 52.1850 34.0477 31.6036 28.9474 13.7566
300 82.6307 66.7673 54.5867 46.3696 45.0762 31.4590
301 43.3928 27.7735 22.2998 10.3445 9.0536 5.9631
302 61.9618 37.0348 28.3198 20.0769 16.6655 9.2108
303 69.7229 51.8474 45.6172 30.4167 27.9961 21.2024
304 41.5096 28.8496 20.0483 9.8072 9.0536 5.2914
305 58.8994 38.9116 24.5694 18.7546 16.6655 7.7796
306 67.6315 52.9270 43.1793 29.2583 27.9961 19.4425
307 28.0553 20.4052 18.8539 5.3094 4.9928 4.4066
308 42.9394 30.4615 27.9555 11.0642 10.0529 8.2528
309 52.3123 43.4453 41.6201 18.7754 18.2105 17.0063
310 26.2827 19.6086 16.5704 4.7911 4.6080 3.7753
311 41.9160 31.0725 26.0914 10.7137 10.0529 7.5065
312 50.4680 42.6645 39.1958 17.5343 17.2912 15.2827
313 0.0000 0.0000 2.0000 0.9782 1.0111 1.2347
314 3.0303 3.0303 3.0303 1.1712 1.2322 1.3419
315 6.0606 6.0606 6.0606 1.4171 1.4909 1.6236
316 9.0909 9.0909 9.0909 1.7663 1.8583 2.0237
317 12.1212 12.1212 12.1212 2.2336 2.3499 2.5591
318 15.1515 15.1515 15.1515 2.8284 2.9757 3.2405
319 18.1818 18.1818 18.1818 3.5589 3.7443 4.0775
320 21.2121 21.2121 21.2121 4.4329 4.6638 5.0789
321 24.2424 24.2424 24.2424 5.4575 5.7417 6.2527
322 27.2727 27.2727 27.2727 6.6392 6.9849 7.6066
323 30.3030 30.3030 30.3030 7.9843 8.4001 9.1477
324 33.3333 33.3333 33.3333 9.4987 9.9933 10.8827
325 36.3636 36.3636 36.3636 11.1879 11.7706 12.8181
326 38.2392 38.2392 38.2392 12.3234 12.9652 14.1191
327 42.4242 42.4242 42.4242 15.1122 15.8992 17.3142
328 45.4545 45.4545 45.4545 17.3572 18.2611 19.8863
329 48.4848 48.4848 48.4848 19.7971 20.8281 22.6818
330 51.5152 51.5152 51.5152 22.4366 23.6051 25.7059
331 54.5455 54.5455 54.5455 25.2800 26.5966 28.9637
332 57.5758 57.5758 57.5758 28.3316 29.8071 32.4599
333 59.1918 60.6061 62.0203 31.2264 33.0156 37.7650
334 63.6364 63.6364 63.6364 35.0758 36.9025 40.1868
335 66.6667 66.6667 66.6667 38.7764 40.7958 44.4266
336 69.6970 69.6970 69.6970 42.7011 44.9248 48.9231
337 72.7273 72.7273 72.7273 46.8535 49.2935 53.6807
338 75.7576 75.7576 75.7576 51.2374 53.9057 58.7033
339 78.7879 78.7879 78.7879 55.8562 58.7651 63.9952
340 81.8182 81.8182 81.8182 60.7135 63.8754 69.5603
341 84.8485 84.8485 84.8485 65.8127 69.2401 75.4024
342 87.8788 87.8788 87.8788 71.1570 74.8627 81.5255
343 90.9091 90.9091 90.9091 76.7497 80.7467 87.9331
344 93.9394 93.9394 93.9394 82.5940 86.8953 94.6290
345 96.9697 96.9697 96.9697 88.6931 93.3120 101.6168
346 98.0000 100.0000 100.0000 93.2170 99.0551 108.8142
347 2.6667 0.0000 0.0000 1.0348 1.0434 1.0929
348 0.1786 2.4880 0.0000 1.0243 1.1393 1.1120
349 0.0000 2.6667 2.0000 1.0512 1.1572 1.2590
350 2.0000 1.3333 1.3333 1.0687 1.1130 1.2012
351 0.0000 0.0000 4.0809 1.0070 1.0226 1.3863
352 2.7475 0.0000 2.7475 1.0753 1.0600 1.2932
353 8.5490 4.5490 4.5490 1.4624 1.4428 1.4793
354 7.2157 7.2157 3.2157 1.4700 1.5902 1.4087
355 4.5490 8.5490 4.5490 1.4387 1.6604 1.5225
356 3.2157 7.2157 7.2157 1.3841 1.5382 1.7537
357 4.5490 4.5490 8.5490 1.3620 1.3820 1.8825
358 7.2157 3.2157 7.2157 1.4044 1.3519 1.7167
359 14.4314 10.4314 10.4314 2.2690 2.2202 2.2577
360 13.0980 13.0980 9.0980 2.2888 2.4877 2.1186
361 10.4314 14.4314 10.4314 2.2277 2.5995 2.3331
362 9.0980 13.0980 13.0980 2.1317 2.3926 2.7492
363 10.4314 10.4314 14.4314 2.0941 2.1143 2.9603
364 13.0980 9.0980 13.0980 2.1688 2.0522 2.6816
365 20.3137 16.3137 16.3137 3.5547 3.4916 3.5643
366 18.9804 18.9804 14.9804 3.5882 3.8969 3.3413
367 16.3137 20.3137 16.3137 3.4933 4.0555 3.6764
368 14.9804 18.9804 18.9804 3.3482 3.7516 4.3051
369 16.3137 16.3137 20.3137 3.2946 3.3341 4.6090
370 18.9804 14.9804 18.9804 3.4049 3.2314 4.2017
371 26.1961 22.1961 22.1961 5.3788 5.3209 5.4702
372 24.8627 24.8627 20.8627 5.4278 5.8791 5.1532
373 22.1961 26.1961 22.1961 5.2951 6.0887 5.6228
374 20.8627 24.8627 24.8627 5.0955 5.6779 6.4873
375 22.1961 22.1961 26.1961 5.0245 5.1064 6.8929
376 24.8627 20.8627 24.8627 5.1740 4.9579 6.3442
377 32.0784 28.0784 28.0784 7.7920 7.7624 8.0358
378 30.7451 30.7451 26.7451 7.8579 8.4866 7.6159
379 28.0784 32.0784 28.0784 7.6842 8.7512 8.2323
380 26.7451 30.7451 30.7451 7.4254 8.2248 9.3526
381 28.0784 28.0784 32.0784 7.3357 7.4862 9.8678
382 30.7451 26.7451 30.7451 7.5276 7.2874 9.1663
383 37.9608 33.9608 33.9608 10.8390 10.8642 11.3139
384 36.6275 36.6275 32.6275 10.9232 11.7661 10.7834
385 33.9608 37.9608 33.9608 10.7054 12.0891 11.5573
386 32.6275 36.6275 36.6275 10.3833 11.4392 12.9514
387 33.9608 33.9608 37.9608 10.2738 10.5220 13.5834
388 36.6275 32.6275 36.6275 10.5109 10.2690 12.7188
389 43.8431 39.8431 39.8431 14.5603 14.6693 15.3521
390 42.5098 42.5098 38.5098 14.6640 15.7595 14.7039
391 39.8431 43.8431 39.8431 14.3995 16.1441 15.6452
392 38.5098 42.5098 42.5098 14.0102 15.3637 17.3294
393 39.8431 39.8431 43.8431 13.8798 14.2573 18.0847
394 42.5098 38.5098 42.5098 14.1647 13.9466 17.0477
395 49.7255 45.7255 45.7255 18.9931 19.2172 20.1938
396 48.3922 48.3922 44.3922 19.1173 20.5056 19.4215
397 45.7255 49.7255 45.7255 18.8036 20.9548 20.5392
398 44.3922 48.3922 48.3922 18.3436 20.0372 22.5286
399 45.7255 45.7255 49.7255 18.1914 18.7318 23.4132
400 48.3922 44.3922 48.3922 18.5264 18.3602 22.1952
401 55.6078 51.6078 51.6078 24.1716 24.5445 25.8794
402 54.2745 54.2745 50.2745 24.3175 26.0403 24.9769
403 51.6078 55.6078 51.6078 23.9522 26.5567 26.2793
404 50.2745 54.2745 54.2745 23.4182 25.4958 28.5879
405 51.6078 51.6078 55.6078 23.2432 23.9824 29.6075
406 54.2745 50.2745 54.2745 23.6307 23.5469 28.2005
407 61.4902 57.4902 57.4902 30.1282 30.6854 32.4461
408 60.1569 60.1569 56.1569 30.2965 32.3970 31.4080
409 57.4902 61.4902 57.4902 29.8776 32.9834 32.9029
410 56.1569 60.1569 60.1569 29.2665 31.7734 35.5438
411 57.4902 57.4902 61.4902 29.0679 30.0435 36.7038
412 60.1569 56.1569 60.1569 29.5099 29.5412 35.1001
413 67.3725 63.3725 63.3725 36.8929 37.6720 39.9294
414 66.0392 66.0392 62.0392 37.0846 39.6075 38.7502
415 63.3725 67.3725 63.3725 36.6100 40.2663 40.4450
416 62.0392 66.0392 66.0392 35.9190 38.9018 43.4308
417 63.3725 63.3725 67.3725 35.6959 36.9473 44.7360
418 66.0392 62.0392 66.0392 36.1945 36.3756 42.9287
419 73.2549 69.2549 69.2549 44.4945 45.5346 48.3624
420 71.9216 71.9216 67.9216 44.7105 47.7018 47.0373
421 69.2549 73.2549 69.2549 44.1782 48.4353 48.9390
422 67.9216 71.9216 71.9216 43.4046 46.9111 52.2813
423 69.2549 69.2549 73.2549 43.1561 44.7243 53.7367
424 71.9216 67.9216 71.9216 43.7132 44.0807 51.7187
425 79.1373 75.1373 75.1373 52.9603 54.3022 57.7769
426 77.8039 77.8039 73.8039 53.2013 56.7082 56.3010
427 75.1373 79.1373 75.1373 52.6096 57.5187 58.4162
428 73.8039 77.8039 77.8039 51.7506 55.8299 62.1264
429 75.1373 75.1373 79.1373 51.4761 53.4036 63.7364
430 77.8039 73.8039 77.8039 52.0934 52.6858 61.5014
431 85.0196 81.0196 81.0196 62.3162 64.0022 68.2030
432 83.6863 83.6863 79.6863 62.5830 66.6542 66.5718
433 81.0196 85.0196 81.0196 61.9300 67.5438 68.9069
434 79.6863 83.6863 83.6863 60.9833 65.6856 72.9956
435 81.0196 81.0196 85.0196 60.6821 63.0129 74.7647
436 83.6863 79.6863 83.6863 61.3613 62.2185 72.3065
437 90.9020 86.9020 86.9020 72.5871 74.6611 79.6696
438 89.5686 89.5686 85.5686 72.8806 77.5657 77.8788
439 86.9020 90.9020 86.9020 72.1646 78.5365 80.4399
440 85.5686 89.5686 89.5686 71.1277 76.5044 84.9174
441 86.9020 86.9020 90.9020 70.7990 73.5785 86.8498
442 89.5686 85.5686 89.5686 71.5419 72.7055 84.1623
443 96.7843 92.7843 92.7843 83.7971 86.3042 92.2044
444 95.4510 95.4510 91.4510 84.1178 89.4678 90.2499
445 92.7843 96.7843 92.7843 83.3372 90.5218 93.0427
446 91.4510 95.4510 95.4510 82.2079 88.3115 97.9190
447 92.7843 92.7843 96.7843 81.8511 85.1260 100.0187
448 95.4510 91.4510 95.4510 82.6592 84.1722 97.0963
449 98.8453 97.5120 97.5120 91.0202 95.1119 102.9549
450 100.0000 100.0000 97.3333 93.9851 99.5740 103.2923
451 97.2525 98.5858 98.6667 90.8790 96.2369 105.5777
452 95.3333 100.0000 100.0000 90.8491 97.8344 108.7034
453 98.6667 96.6667 100.0000 91.1971 94.1164 107.9674
454 100.0000 95.9191 98.5858 91.2824 93.3761 104.8350
455 100.0000 100.0000 100.0000 95.0500 100.0000 108.9000
456 0.0000 0.0000 0.0000 0.9505 1.0000 1.0890
END_DATA
CTI1   

DESCRIPTOR "Argyll Calibration Target chart information 1"
ORIGINATOR "ChromIQ"
DENSITY_EXTREME_VALUES "8"
CREATED "Sun Aug 16 18:22:40 2026"

NUMBER_OF_FIELDS 7
BEGIN_DATA_FORMAT
INDEX RGB_R RGB_G RGB_B XYZ_X XYZ_Y XYZ_Z
END_DATA_FORMAT

NUMBER_OF_SETS 8
BEGIN_DATA
0 100.0000 100.0000 100.0000 95.0500 100.0000 108.9000
