demo-projects/old/Demo-Report-Matrix-2026-08-11_112103/runs/run1/verifications/2026-06-01_100000/Demo-Report-Matrix-verify.ti3
CTI3   
KEYWORD "CHROMIQ_VERIFICATION"
CHROMIQ_VERIFICATION "true"

DESCRIPTOR "Argyll Calibration Target chart information 3"
ORIGINATOR "Argyll fakeread"
CREATED "Mon Aug 10 23:21:26 2026"
DEVICE_CLASS "DISPLAY"
COLOR_REP "iRGB_XYZ"

KEYWORD "CHROMIQ_MEASURED"
CHROMIQ_MEASURED "2026-06-01T10:00:00"
TARGET_INSTRUMENT "X-Rite ColorMunki"
NUMBER_OF_FIELDS 7
BEGIN_DATA_FORMAT
SAMPLE_ID RGB_R RGB_G RGB_B XYZ_X XYZ_Y XYZ_Z 
END_DATA_FORMAT

NUMBER_OF_SETS 105
BEGIN_DATA
1 100.0000 100.0000 100.0000 94.72926 99.87352 107.2397 
2 100.0000 100.0000 100.0000 94.70150 99.82263 108.8889 
3 100.0000 100.0000 100.0000 94.79799 99.90101 107.6017 
4 100.0000 100.0000 100.0000 93.05609 98.97419 108.8118 
5 0.00000 0.00000 0.00000 0.0143631 0.0285908 0.00520454 
6 0.00000 0.00000 0.00000 0.0581572 0.0924345 0.0930100 
7 0.00000 0.00000 0.00000 0.00627711 0.0125542 0.00209221 
8 0.00000 0.00000 0.00000 0.00613838 0.00316522 0.000287645 
9 100.0000 100.0000 0.00000 77.02633 92.79276 14.00657 
10 0.00000 0.00000 100.0000 18.09119 7.304078 95.06820 
11 100.0000 0.00000 0.00000 41.28104 21.30536 2.083535 
12 0.00000 100.0000 100.0000 53.39612 78.38313 105.2900 
13 0.00000 100.0000 0.00000 35.83445 71.55558 11.93515 
14 100.0000 0.00000 100.0000 58.73460 28.19847 96.96058 
15 0.00000 38.69451 100.0000 22.42120 15.86278 96.49188 
16 0.00000 61.01825 0.00000 11.27162 22.49206 3.747055 
17 0.00000 0.00000 49.66734 3.658542 1.469183 19.00383 
18 100.0000 0.00000 49.59690 44.57526 22.56252 21.15088 
19 100.0000 51.96322 100.0000 67.24429 44.39788 99.63870 
20 100.0000 51.02120 0.00000 47.77416 37.74180 4.860455 
21 49.79587 0.00000 0.00000 8.466794 4.365115 0.429610 
22 100.0000 100.0000 50.20307 79.91138 93.87670 32.36032 
23 0.00000 100.0000 50.70625 39.83436 73.15340 33.09362 
24 49.48561 100.0000 100.0000 62.98681 83.46917 107.4028 
25 51.72588 100.0000 0.00000 43.47182 73.16280 12.07519 
26 50.05958 0.00000 100.0000 27.29784 12.08954 95.15782 
27 0.00000 47.79621 60.34591 13.36663 17.13844 34.03418 
28 100.0000 59.17416 43.63085 54.85104 43.91219 20.58301 
29 47.31399 48.98978 0.00000 15.09063 19.41169 2.951546 
30 52.09288 0.00000 45.52943 12.12187 5.859639 18.20915 
31 55.39583 47.66229 100.0000 36.69879 26.67782 97.82727 
32 49.20125 100.0000 50.84061 47.29172 77.06813 30.31151 
33 48.29114 47.33520 50.18713 18.90351 20.15037 22.68767 
34 0.00000 30.94905 0.00000 2.987630 5.975233 0.995798 
35 100.0000 21.19106 79.12555 53.32712 28.20567 59.10489 
36 33.94804 70.69041 100.0000 37.76568 40.24611 100.3895 
37 74.96124 25.82053 0.00000 23.82413 15.27407 1.747165 
38 0.00000 77.61705 71.72771 28.81567 43.61035 52.45642 
39 24.97790 0.00000 23.41364 3.702075 1.884093 4.900797 
40 76.31808 100.0000 28.35106 59.10275 82.53638 19.29920 
41 0.00000 77.00365 31.43299 20.75888 39.28014 13.80314 
42 75.41143 77.79628 100.0000 60.59326 58.34574 99.81559 
43 100.0000 23.29829 20.42453 43.53863 24.80931 5.953852 
44 100.0000 80.02238 22.27702 63.56871 64.80346 12.83296 
45 75.35445 100.0000 76.01304 64.12016 82.33347 63.31357 
46 75.31505 74.81469 0.00000 41.44843 49.44290 7.410629 
47 100.0000 79.49395 78.19811 72.99682 68.97954 61.23758 
48 26.41218 100.0000 75.99234 46.84372 74.13824 63.87451 
49 28.19308 28.22301 100.0000 22.76426 12.64901 95.85363 
50 76.81359 0.00000 23.55016 22.66438 11.60927 4.557481 
51 75.25932 0.00000 74.69026 31.34340 15.01805 53.09186 
52 29.89921 74.23536 0.00000 21.50569 38.54851 6.306800 
53 25.50439 100.0000 24.78846 38.74839 72.96624 16.21846 
54 77.21225 23.71451 100.0000 42.12536 22.23982 96.68513 
55 0.00000 21.07405 72.23364 9.963748 6.103411 45.94370 
56 26.28049 0.00000 71.93547 10.00372 4.314293 40.05943 
57 0.00000 19.89483 30.07019 2.816683 3.530437 7.036254 
58 26.28079 33.45692 23.52814 6.342424 8.057784 6.281400 
59 66.56754 70.38587 52.30860 37.86650 42.46703 28.42391 
60 75.09479 52.62129 65.01886 37.97276 30.92548 41.91028 
61 26.64973 49.33561 81.42125 21.16019 20.31537 62.62107 
62 45.91179 68.61670 63.70484 27.13932 34.42733 37.41276 
63 71.11740 50.49568 34.71935 29.83010 27.89477 12.78139 
64 54.43736 27.35888 62.61652 18.28582 11.82058 36.23910 
65 34.69612 74.79966 32.60823 24.19347 39.72016 13.71771 
66 74.85889 20.44437 50.18860 24.46728 13.93202 21.16156 
67 47.85106 20.11464 33.14580 10.63720 6.912522 9.286749 
68 27.20651 32.63652 48.27367 9.175660 8.523537 20.01491 
69 27.58870 24.69734 0.00000 4.263593 5.086131 0.813899 
70 0.00000 69.14068 100.0000 33.24803 37.61762 100.1201 
71 20.53684 59.80271 49.57175 15.56543 23.80780 22.64503 
72 0.00000 46.98630 28.11508 7.353490 13.08770 7.443410 
73 73.54294 75.32966 75.96305 48.79195 49.58665 60.45604 
74 63.36650 75.70063 29.24590 34.88866 46.86271 14.47726 
75 100.0000 50.88622 71.33775 57.14099 40.40682 51.15792 
76 23.55356 85.77019 53.26247 29.88967 51.13535 28.14599 
77 100.0000 29.41094 48.41781 47.02568 27.32199 21.51658 
78 72.19800 51.56213 8.666635 27.29582 25.02156 3.999943 
79 21.36322 53.66478 11.70929 10.28759 18.60279 3.932169 
80 12.24937 81.96187 10.32227 24.83371 48.74158 9.151326 
81 50.32410 91.80251 71.76533 47.04748 67.44075 54.83698 
82 48.45094 95.04594 23.03440 39.71881 66.13605 15.65788 
83 47.91670 54.94911 27.45694 17.47150 21.58419 9.749999 
84 3.781525 53.33689 81.63552 20.28552 23.13379 59.38934 
85 76.14076 97.71765 95.89858 73.83516 88.49621 95.56910 
86 74.72769 92.97172 51.48222 55.69014 73.53402 35.28434 
87 91.51768 77.11623 49.84954 56.99122 57.94645 30.58355 
88 55.99479 23.67844 88.16304 25.98762 14.50113 71.73250 
89 76.02370 54.61404 92.04182 48.11653 36.43929 85.32171 
90 52.92777 23.07148 11.01567 11.66725 8.371657 2.096988 
91 2.113597 97.73685 76.72762 43.37859 71.42734 60.97045 
92 77.95688 25.26049 74.12841 33.65817 19.08445 50.64783 
93 5.158119 95.50651 28.71841 34.85345 67.76537 17.18542 
94 4.213096 24.16053 51.05457 5.650657 4.847408 21.35221 
95 51.24030 47.80404 76.36550 27.38957 23.46681 55.55594 
96 97.40498 100.0000 75.01152 84.19157 95.37031 64.75621 
97 49.19419 5.350316 74.01136 17.84155 8.417864 47.98712 
98 91.32533 51.59153 22.20459 44.62266 35.24102 9.278753 
99 74.48121 24.34677 26.05584 23.29259 14.60897 6.386637 
100 94.19953 74.22767 93.65841 70.04741 60.85420 90.30282 
101 23.32810 75.54038 80.93191 32.12046 43.38107 64.25311 
102 56.07175 76.90790 5.268606 30.95650 45.18017 7.324756 
103 27.55381 8.135545 46.48987 5.841422 2.969722 17.33529 
104 27.88054 25.86915 72.11177 12.72940 8.730772 44.64401 
105 51.80627 80.99682 89.24284 46.80833 56.67856 84.56848 
END_DATA
