demo-projects/old/Demo-Report-Matrix-2026-08-10_232125/runs/run1/verifications/2026-08-08_100000/Demo-Report-Matrix-verify.ti3
CTI3   
KEYWORD "CHROMIQ_VERIFICATION"
CHROMIQ_VERIFICATION "true"

DESCRIPTOR "Argyll Calibration Target chart information 3"
ORIGINATOR "Argyll fakeread"
CREATED "Mon Aug 10 23:19:49 2026"
DEVICE_CLASS "DISPLAY"
COLOR_REP "iRGB_XYZ"

KEYWORD "CHROMIQ_MEASURED"
CHROMIQ_MEASURED "2026-08-08T10:00:00"
TARGET_INSTRUMENT "X-Rite ColorMunki"
NUMBER_OF_FIELDS 7
BEGIN_DATA_FORMAT
SAMPLE_ID RGB_R RGB_G RGB_B XYZ_X XYZ_Y XYZ_Z 
END_DATA_FORMAT

NUMBER_OF_SETS 108
BEGIN_DATA
1 107.7255 98.89800 86.06100 90.22577 97.64963 84.76882 
2 107.7255 98.89800 86.06100 88.83152 95.22841 83.19780 
3 107.7255 98.89800 86.06100 90.39365 98.09406 84.48802 
4 107.7255 98.89800 86.06100 89.92771 97.55688 83.12703 
5 0.00000 0.00000 0.00000 0.000649334 0.00129408 0.000219964 
6 0.00000 0.00000 0.00000 0.000344737 0.000143112 0.00166648 
7 0.00000 0.00000 0.00000 0.000128628 0.0000667029 6.71489e-06 
8 0.00000 0.00000 0.00000 0.00281641 0.00141269 0.00431949 
9 104.1169 95.58500 83.17800 86.52880 92.88380 75.51813 
10 100.5198 92.28270 80.30440 82.40386 86.11469 71.61872 
11 96.93340 88.99020 77.43930 76.67854 79.33176 64.31641 
12 93.35960 85.70920 74.58410 70.18822 72.10610 62.11706 
13 89.79750 82.43900 71.73840 66.01681 68.64127 55.09447 
14 86.24720 79.17970 68.90220 58.77815 60.82274 51.34334 
15 82.71100 75.93330 66.07710 54.88308 55.88379 48.41258 
16 79.18720 72.69820 63.26200 47.03800 47.68764 40.38184 
17 75.67720 69.47580 60.45790 44.58835 45.73397 38.97382 
18 72.18150 66.26660 57.66520 38.73449 40.45410 33.34928 
19 68.70210 63.07230 54.88550 36.89051 37.22556 32.01728 
20 65.23740 59.89150 52.11760 31.75928 33.49894 27.66877 
21 61.78830 56.72500 49.36210 28.28960 30.57902 24.10591 
22 58.35590 53.57390 46.62000 24.83373 25.51377 20.32011 
23 54.94350 50.44120 43.89390 21.38126 21.76364 18.85874 
24 51.54810 47.32410 41.18140 19.61480 19.38808 17.89095 
25 48.17180 44.22430 38.48400 17.52794 18.38061 14.43298 
26 44.81720 41.14460 35.80400 13.87100 13.73296 14.08360 
27 41.48580 38.08620 33.14260 12.30591 12.65801 11.34453 
28 38.17460 35.04640 30.49740 10.21713 10.19437 9.758676 
29 34.89110 32.03200 27.87420 9.080757 9.782378 7.349092 
30 31.63650 29.04410 25.27420 6.377426 6.612670 5.660958 
31 28.40950 26.08150 22.69610 5.129034 5.187505 4.322078 
32 25.21220 23.14620 20.14180 4.248051 4.398352 3.861693 
33 22.05340 20.24630 17.61830 3.268159 3.220542 2.489330 
34 18.93210 17.38070 15.12470 2.184362 2.306066 1.900941 
35 15.86120 14.56150 12.67140 1.693575 1.707884 1.859744 
36 12.84160 11.78930 10.25900 1.049332 1.126949 0.815071 
37 9.877200 9.067900 7.890800 0.506287 0.515959 0.299513 
38 6.966300 6.395500 5.565300 0.283996 0.368853 0.154987 
39 13.48720 7.243000 87.87860 14.69320 6.123178 73.96901 
40 14.12040 33.26050 58.71290 9.509793 8.480690 32.52108 
41 106.2431 86.41380 25.55240 66.52011 70.33975 15.46313 
42 35.42420 99.17970 70.71770 47.24257 74.18004 56.12998 
43 23.90350 63.49790 70.83070 23.42818 30.51013 49.41232 
44 96.91580 0.00000 55.78150 42.08361 21.26953 27.88815 
45 90.97290 51.64450 40.41540 45.07652 35.42550 17.03001 
46 77.88680 43.57450 85.98420 42.20514 28.97196 70.51396 
47 73.39070 87.22350 46.13200 51.02547 66.05827 28.56884 
48 15.62230 43.82860 30.36260 7.694942 12.51980 8.897020 
49 59.52280 31.92320 38.64740 16.90013 12.46969 13.43240 
50 75.68720 72.14510 86.99820 53.24955 51.30369 77.35083 
51 77.40120 52.93340 67.18190 41.01157 34.36044 44.14616 
52 62.25520 83.01150 71.96500 46.66431 58.58848 52.15694 
53 26.76100 0.00000 31.57930 3.424006 1.633573 6.744294 
54 72.82150 62.82050 38.02550 35.70650 37.22732 16.63093 
55 25.54350 35.64700 87.72790 19.89447 13.82528 76.37075 
56 8.846100 10.36450 54.48830 5.032704 2.301009 24.90611 
57 82.43140 0.00000 27.08370 28.04549 14.43331 6.563363 
58 23.69350 67.58250 33.64940 18.77170 32.15309 14.72624 
59 40.13780 99.22200 86.51960 53.90131 79.22159 80.20410 
60 74.51740 53.51010 49.30020 35.52666 32.16539 24.52169 
61 21.86250 0.00000 11.29470 2.006665 1.023846 0.879353 
62 64.35280 99.02020 35.61310 51.93293 77.21111 22.05700 
63 91.60120 86.98460 86.54090 73.39567 75.59849 80.31604 
64 22.16500 60.63150 55.26660 18.25194 26.86589 29.14545 
65 82.53700 0.00000 12.45260 27.50784 14.25964 2.278411 
66 101.1333 98.89890 72.30410 84.26300 93.05478 60.34439 
67 40.56270 58.86910 75.57140 26.90178 30.78157 54.23162 
68 47.66770 31.86210 18.97140 11.25060 10.00125 3.836545 
69 65.78420 0.00000 56.18210 23.45982 11.56594 28.94702 
70 56.88920 25.21790 87.69530 27.81899 15.54157 71.64460 
71 92.37190 98.98630 81.63290 80.83896 90.13296 72.33175 
72 58.65250 54.52890 58.09720 28.81241 28.57126 34.37907 
73 8.032500 20.46470 27.89300 2.389079 2.780764 6.281274 
74 40.53630 42.42310 25.42630 11.17103 13.10623 6.146974 
75 59.06320 0.00000 35.59640 14.57021 7.340323 10.71762 
76 67.27270 85.42660 86.76060 59.20829 68.88896 81.79785 
77 57.20090 77.58500 54.51760 37.40411 47.92779 32.49280 
78 35.01060 11.53670 26.31310 5.250193 2.884929 5.697896 
79 100.8763 98.83940 46.69830 79.72177 92.59954 32.38528 
80 104.3442 55.45550 22.75010 51.18495 40.27513 8.739712 
81 32.62530 79.42860 62.62700 31.81560 48.21411 42.67013 
82 62.96800 26.70170 23.36330 17.18936 12.05924 5.498105 
83 42.38350 31.61970 45.80530 12.78565 10.89425 18.54103 
84 63.73050 0.00000 27.57280 16.59820 8.466464 7.380435 
85 46.74900 63.49890 25.69600 21.38114 29.91983 9.730332 
86 59.45760 99.07750 57.28900 52.57432 77.96413 39.87206 
87 90.62790 41.74490 47.33260 42.20187 28.70751 21.16968 
88 55.59190 3.135700 0.00000 11.49279 5.964042 0.600785 
89 51.63540 60.55040 57.42370 27.17219 30.76902 32.86005 
90 15.52690 40.47440 49.86120 9.720998 12.25237 22.17069 
91 15.47070 16.59970 0.00000 1.450528 1.624885 0.246388 
92 56.97850 26.88180 47.17740 17.21774 11.67241 19.03709 
93 103.6540 0.00000 87.41630 54.67651 26.84979 72.58087 
94 50.83320 54.05170 87.44360 33.32783 30.02837 78.13085 
95 39.53340 6.899700 14.50670 5.888768 3.133015 1.429229 
96 27.55500 20.13270 24.75280 4.335546 3.570435 4.702395 
97 85.26750 39.05840 57.81320 38.74181 25.30089 33.07327 
98 16.47650 43.75960 44.24620 9.278491 12.56866 16.99461 
99 71.67120 58.49990 13.14650 31.90709 33.95259 5.914111 
100 31.54260 85.21530 85.43830 43.21191 60.37721 77.71485 
101 100.0000 100.0000 100.0000 93.68277 98.75219 108.7349 
102 0.00000 0.00000 0.00000 0.00000 0.00000 0.00000 
103 100.0000 0.00000 0.00000 40.40292 20.95184 2.109192 
104 0.00000 100.0000 0.00000 34.39587 68.54782 11.65392 
105 0.00000 0.00000 100.0000 18.16288 7.407600 94.65059 
106 0.00000 100.0000 100.0000 53.23474 78.37708 103.2307 
107 100.0000 0.00000 100.0000 58.75045 28.43981 96.76643 
108 100.0000 100.0000 0.00000 75.96486 90.69928 13.93849 
END_DATA
