assets/charts/knut/rgb/i1prophoto/i1_photo_130x180mm_288p_1page_portrait_w7_5mm_maximised_no_clip_border/chart.ti1
CTI1   

DESCRIPTOR "Argyll Calibration Target chart information 1"
ORIGINATOR "ChromIQ"
APPROX_WHITE_POINT "95.050000 100.000000 108.900000"
COLOR_REP "iRGB"
WHITE_COLOR_PATCHES "1"
BLACK_COLOR_PATCHES "1"
CREATED "Fri Sep 18 02:20:04 2026"

NUMBER_OF_FIELDS 7
BEGIN_DATA_FORMAT
SAMPLE_ID RGB_R RGB_G RGB_B XYZ_X XYZ_Y XYZ_Z
END_DATA_FORMAT

NUMBER_OF_SETS 288
BEGIN_DATA
1 0.0000 0.0000 0.0000 0.9505 1.0000 1.0890
2 0.0000 0.0000 25.0000 1.8596 1.3637 5.8764
3 0.0000 0.0000 50.0000 4.7753 2.5299 21.2302
4 0.0000 0.0000 75.0000 10.2877 4.7349 50.2580
5 0.0000 0.0000 100.0000 18.8200 8.1478 95.1885
6 0.0000 25.0000 0.0000 2.7516 4.6023 1.6894
7 0.0000 25.0000 25.0000 3.6608 4.9659 6.4768
8 0.0000 25.0000 50.0000 6.5764 6.1322 21.8305
9 0.0000 25.0000 75.0000 12.0888 8.3372 50.8584
10 0.0000 25.0000 100.0000 20.6211 11.7501 95.7889
11 0.0000 50.0000 0.0000 8.5281 16.1551 3.6149
12 0.0000 50.0000 25.0000 9.4372 16.5188 8.4023
13 0.0000 50.0000 50.0000 12.3529 17.6851 23.7560
14 0.0000 50.0000 75.0000 17.8653 19.8900 52.7839
15 0.0000 50.0000 100.0000 26.3976 23.3029 97.7144
16 0.0000 75.0000 0.0000 19.4490 37.9970 7.2552
17 0.0000 75.0000 25.0000 20.3581 38.3607 12.0426
18 0.0000 75.0000 50.0000 23.2738 39.5270 27.3963
19 0.0000 75.0000 75.0000 28.7862 41.7319 56.4242
20 0.0000 75.0000 100.0000 37.3185 45.1448 101.3547
21 0.0000 100.0000 0.0000 36.3529 71.8048 12.8898
22 0.0000 100.0000 25.0000 37.2620 72.1685 17.6772
23 0.0000 100.0000 50.0000 40.1777 73.3347 33.0310
24 0.0000 100.0000 75.0000 45.6901 75.5397 62.0588
25 0.0000 100.0000 100.0000 54.2224 78.9526 106.9893
26 25.0000 0.0000 0.0000 3.0276 2.0708 1.1862
27 25.0000 0.0000 25.0000 3.9368 2.4345 5.9736
28 25.0000 0.0000 50.0000 6.8525 3.6007 21.3274
29 25.0000 0.0000 75.0000 12.3648 5.8057 50.3552
30 25.0000 0.0000 100.0000 20.8971 9.2186 95.2857
31 25.0000 25.0000 0.0000 4.8288 5.6731 1.7866
32 25.0000 25.0000 25.0000 5.7379 6.0367 6.5740
33 25.0000 25.0000 50.0000 8.6536 7.2030 21.9278
34 25.0000 25.0000 75.0000 14.1660 9.4080 50.9556
35 25.0000 25.0000 100.0000 22.6983 12.8209 95.8861
36 25.0000 50.0000 0.0000 10.6052 17.2259 3.7121
37 25.0000 50.0000 25.0000 11.5143 17.5896 8.4995
38 25.0000 50.0000 50.0000 14.4300 18.7559 23.8532
39 25.0000 50.0000 75.0000 19.9424 20.9608 52.8811
40 25.0000 50.0000 100.0000 28.4747 24.3737 97.8116
41 25.0000 75.0000 0.0000 21.5262 39.0678 7.3524
42 25.0000 75.0000 25.0000 22.4353 39.4315 12.1398
43 25.0000 75.0000 50.0000 25.3510 40.5978 27.4935
44 25.0000 75.0000 75.0000 30.8634 42.8027 56.5214
45 25.0000 75.0000 100.0000 39.3957 46.2156 101.4519
46 25.0000 100.0000 0.0000 38.4300 72.8756 12.9870
47 25.0000 100.0000 25.0000 39.3392 73.2393 17.7744
48 25.0000 100.0000 50.0000 42.2549 74.4055 33.1282
49 25.0000 100.0000 75.0000 47.7672 76.6105 62.1560
50 25.0000 100.0000 100.0000 56.2995 80.0234 107.0865
51 50.0000 0.0000 0.0000 9.6893 5.5050 1.4980
52 50.0000 0.0000 25.0000 10.5984 5.8687 6.2854
53 50.0000 0.0000 50.0000 13.5141 7.0349 21.6391
54 50.0000 0.0000 75.0000 19.0265 9.2399 50.6670
55 50.0000 0.0000 100.0000 27.5588 12.6528 95.5975
56 50.0000 25.0000 0.0000 11.4904 9.1073 2.0983
57 50.0000 25.0000 25.0000 12.3996 9.4709 6.8858
58 50.0000 25.0000 50.0000 15.3152 10.6372 22.2395
59 50.0000 25.0000 75.0000 20.8276 12.8422 51.2674
60 50.0000 25.0000 100.0000 29.3599 16.2551 96.1978
61 50.0000 50.0000 0.0000 17.2669 20.6601 4.0238
62 50.0000 50.0000 25.0000 18.1760 21.0238 8.8112
63 50.0000 50.0000 50.0000 21.0917 22.1901 24.1650
64 50.0000 50.0000 75.0000 26.6041 24.3950 53.1928
65 50.0000 50.0000 100.0000 35.1364 27.8079 98.1233
66 50.0000 75.0000 0.0000 28.1878 42.5020 7.6641
67 50.0000 75.0000 25.0000 29.0969 42.8657 12.4516
68 50.0000 75.0000 50.0000 32.0126 44.0320 27.8053
69 50.0000 75.0000 75.0000 37.5250 46.2369 56.8332
70 50.0000 75.0000 100.0000 46.0573 49.6498 101.7636
71 50.0000 100.0000 0.0000 45.0917 76.3098 13.2988
72 50.0000 100.0000 25.0000 46.0008 76.6735 18.0862
73 50.0000 100.0000 50.0000 48.9165 77.8397 33.4399
74 50.0000 100.0000 75.0000 54.4289 80.0447 62.4678
75 50.0000 100.0000 100.0000 62.9612 83.4576 107.3983
76 75.0000 0.0000 0.0000 22.2838 11.9977 2.0874
77 75.0000 0.0000 25.0000 23.1929 12.3614 6.8748
78 75.0000 0.0000 50.0000 26.1086 13.5276 22.2285
79 75.0000 0.0000 75.0000 31.6210 15.7326 51.2564
80 75.0000 0.0000 100.0000 40.1533 19.1455 96.1869
81 75.0000 25.0000 0.0000 24.0849 15.6000 2.6878
82 75.0000 25.0000 25.0000 24.9941 15.9636 7.4752
83 75.0000 25.0000 50.0000 27.9097 17.1299 22.8289
84 75.0000 25.0000 75.0000 33.4221 19.3349 51.8568
85 75.0000 25.0000 100.0000 41.9544 22.7478 96.7873
86 75.0000 50.0000 0.0000 29.8614 27.1529 4.6132
87 75.0000 50.0000 25.0000 30.7705 27.5165 9.4007
88 75.0000 50.0000 50.0000 33.6862 28.6828 24.7544
89 75.0000 50.0000 75.0000 39.1986 30.8877 53.7823
90 75.0000 50.0000 100.0000 47.7309 34.3007 98.7127
91 75.0000 75.0000 0.0000 40.7823 48.9948 8.2536
92 75.0000 75.0000 25.0000 41.6914 49.3584 13.0410
93 75.0000 75.0000 50.0000 44.6071 50.5247 28.3947
94 75.0000 75.0000 75.0000 50.1195 52.7296 57.4226
95 75.0000 75.0000 100.0000 58.6518 56.1426 102.3531
96 75.0000 100.0000 0.0000 57.6862 82.8025 13.8882
97 75.0000 100.0000 25.0000 58.5953 83.1662 18.6756
98 75.0000 100.0000 50.0000 61.5110 84.3324 34.0293
99 75.0000 100.0000 75.0000 67.0234 86.5374 63.0572
100 75.0000 100.0000 100.0000 75.5557 89.9503 107.9877
101 100.0000 0.0000 0.0000 41.7781 22.0474 2.9997
102 100.0000 0.0000 25.0000 42.6872 22.4111 7.7871
103 100.0000 0.0000 50.0000 45.6029 23.5773 23.1409
104 100.0000 0.0000 75.0000 51.1153 25.7823 52.1687
105 100.0000 0.0000 100.0000 59.6476 29.1952 97.0992
106 100.0000 25.0000 0.0000 43.5792 25.6497 3.6001
107 100.0000 25.0000 25.0000 44.4884 26.0133 8.3875
108 100.0000 25.0000 50.0000 47.4040 27.1796 23.7412
109 100.0000 25.0000 75.0000 52.9164 29.3846 52.7691
110 100.0000 25.0000 100.0000 61.4487 32.7975 97.6996
111 100.0000 50.0000 0.0000 49.3557 37.2025 5.5256
112 100.0000 50.0000 25.0000 50.2648 37.5662 10.3130
113 100.0000 50.0000 50.0000 53.1805 38.7325 25.6667
114 100.0000 50.0000 75.0000 58.6929 40.9374 54.6946
115 100.0000 50.0000 100.0000 67.2252 44.3503 99.6251
116 100.0000 75.0000 0.0000 60.2766 59.0444 9.1659
117 100.0000 75.0000 25.0000 61.1857 59.4081 13.9533
118 100.0000 75.0000 50.0000 64.1014 60.5744 29.3070
119 100.0000 75.0000 75.0000 69.6138 62.7793 58.3349
120 100.0000 75.0000 100.0000 78.1461 66.1922 103.2654
121 100.0000 100.0000 0.0000 77.1805 92.8522 14.8005
122 100.0000 100.0000 25.0000 78.0896 93.2159 19.5879
123 100.0000 100.0000 50.0000 81.0053 94.3821 34.9417
124 100.0000 100.0000 75.0000 86.5177 96.5871 63.9695
125 100.0000 100.0000 100.0000 95.0500 100.0000 108.9000
126 10.0000 0.0000 0.0000 1.3597 1.2110 1.1082
127 5.0000 0.0000 0.0000 1.1112 1.0828 1.0965
128 0.0000 10.0000 0.0000 1.3053 1.7097 1.2073
129 0.0000 5.0000 0.0000 1.0898 1.2787 1.1354
130 0.0000 0.0000 10.0000 1.1296 1.0716 2.0321
131 0.0000 0.0000 5.0000 1.0208 1.0281 1.4594
132 90.0000 0.0000 0.0000 33.0987 17.5730 2.5935
133 95.0000 0.0000 0.0000 37.2873 19.7323 2.7895
134 100.0000 10.0000 0.0000 42.1329 22.7571 3.1180
135 100.0000 5.0000 0.0000 41.9174 22.3261 3.0461
136 100.0000 0.0000 10.0000 41.9572 22.1190 3.9428
137 100.0000 0.0000 5.0000 41.8484 22.0755 3.3701
138 10.0000 100.0000 0.0000 36.7621 72.0158 12.9090
139 5.0000 100.0000 0.0000 36.5136 71.8876 12.8973
140 0.0000 90.0000 0.0000 28.8268 56.7526 10.3811
141 0.0000 95.0000 0.0000 32.4588 64.0167 11.5918
142 0.0000 100.0000 10.0000 36.5320 71.8764 13.8329
143 0.0000 100.0000 5.0000 36.4232 71.8329 13.2602
144 10.0000 0.0000 100.0000 19.2292 8.3588 95.2077
145 5.0000 0.0000 100.0000 18.9807 8.2306 95.1960
146 0.0000 10.0000 100.0000 19.1748 8.8575 95.3068
147 0.0000 5.0000 100.0000 18.9593 8.4265 95.2349
148 0.0000 0.0000 90.0000 15.0212 6.6283 75.1841
149 0.0000 0.0000 95.0000 16.8545 7.3616 84.8381
150 10.0000 100.0000 100.0000 54.6316 79.1636 107.0085
151 5.0000 100.0000 100.0000 54.3831 79.0354 106.9968
152 0.0000 90.0000 100.0000 46.6963 63.9004 104.4806
153 0.0000 95.0000 100.0000 50.3283 71.1645 105.6913
154 0.0000 100.0000 90.0000 50.4236 77.4331 86.9849
155 0.0000 100.0000 95.0000 52.2569 78.1664 96.6389
156 90.0000 0.0000 100.0000 50.9682 24.7208 96.6930
157 95.0000 0.0000 100.0000 55.1568 26.8801 96.8890
158 100.0000 10.0000 100.0000 60.0024 29.9049 97.2175
159 100.0000 5.0000 100.0000 59.7869 29.4739 97.1456
160 100.0000 0.0000 90.0000 55.8488 27.6757 77.0948
161 100.0000 0.0000 95.0000 57.6821 28.4090 86.7488
162 90.0000 100.0000 0.0000 68.5011 88.3778 14.3943
163 95.0000 100.0000 0.0000 72.6897 90.5371 14.5903
164 100.0000 90.0000 0.0000 69.6544 77.8000 12.2918
165 100.0000 95.0000 0.0000 73.2864 85.0641 13.5025
166 100.0000 100.0000 10.0000 77.3596 92.9238 15.7436
167 100.0000 100.0000 5.0000 77.2508 92.8803 15.1709
168 90.0000 100.0000 100.0000 86.3706 95.5256 108.4938
169 95.0000 100.0000 100.0000 90.5592 97.6849 108.6898
170 100.0000 90.0000 100.0000 87.5239 84.9478 106.3913
171 100.0000 95.0000 100.0000 91.1559 92.2119 107.6020
172 100.0000 100.0000 90.0000 91.2512 98.4805 88.8956
173 100.0000 100.0000 95.0000 93.0845 99.2138 98.5496
174 0.0000 0.0000 2.0000 0.9782 1.0111 1.2347
175 5.5556 5.5556 5.5556 1.3697 1.4410 1.5692
176 11.1111 11.1111 11.1111 2.0641 2.1716 2.3649
177 16.6667 16.6667 16.6667 3.1762 3.3416 3.6390
178 22.2222 22.2222 22.2222 4.7574 5.0051 5.4506
179 27.7778 27.7778 27.7778 6.8519 7.2087 7.8503
180 33.3333 33.3333 33.3333 9.4987 9.9933 10.8827
181 38.8889 38.8889 38.8889 12.7331 13.3962 14.5884
182 44.4444 44.4444 44.4444 16.5874 17.4512 19.0044
183 48.8453 48.8453 48.8453 20.1006 21.1474 23.0295
184 55.5556 55.5556 55.5556 26.2739 27.6422 30.1023
185 61.1111 61.1111 61.1111 32.1605 33.8353 36.8467
186 66.6667 66.6667 66.6667 38.7764 40.7958 44.4266
187 72.2222 72.2222 72.2222 46.1455 48.5486 52.8694
188 77.7778 77.7778 77.7778 54.2903 57.1176 62.2011
189 83.3333 83.3333 83.3333 63.2327 66.5257 72.4465
190 88.8889 88.8889 88.8889 72.9935 76.7948 83.6295
191 94.4444 94.4444 94.4444 83.5928 87.9461 95.7733
192 98.0000 100.0000 100.0000 93.2170 99.0551 108.8142
193 2.6667 0.0000 0.0000 1.0348 1.0434 1.0929
194 0.1786 2.4880 0.0000 1.0243 1.1393 1.1120
195 0.0000 2.6667 2.0000 1.0512 1.1572 1.2590
196 2.0000 1.3333 1.3333 1.0687 1.1130 1.2012
197 1.1547 1.1547 3.8214 1.0715 1.1032 1.3796
198 2.7475 0.0000 2.7475 1.0753 1.0600 1.2932
199 9.3333 5.3333 5.3333 1.5447 1.5205 1.5555
200 8.0000 8.0000 4.0000 1.5543 1.6830 1.4790
201 5.3333 9.3333 5.3333 1.5188 1.7582 1.6028
202 4.0000 8.0000 8.0000 1.4602 1.6260 1.8568
203 5.3333 5.3333 9.3333 1.4351 1.4542 1.9959
204 8.0000 4.0000 8.0000 1.4824 1.4221 1.8163
205 16.0000 12.0000 12.0000 2.5624 2.5081 2.5513
206 14.6667 14.6667 10.6667 2.5856 2.8107 2.3909
207 12.0000 16.0000 12.0000 2.5159 2.9345 2.6361
208 10.6667 14.6667 14.6667 2.4074 2.7028 3.1064
209 12.0000 12.0000 16.0000 2.3657 2.3890 3.3413
210 14.6667 10.6667 14.6667 2.4495 2.3166 3.0297
211 22.6667 18.6667 18.6667 4.2168 4.1532 4.2512
212 21.3333 21.3333 17.3333 4.2562 4.6179 3.9917
213 18.6667 22.6667 18.6667 4.1466 4.7964 4.3790
214 17.3333 21.3333 21.3333 3.9804 4.4509 5.0995
215 18.6667 18.6667 22.6667 3.9200 3.9735 5.4430
216 21.3333 17.3333 21.3333 4.0456 3.8530 4.9806
217 29.3333 25.3333 25.3333 6.5896 6.5437 6.7529
218 28.0000 28.0000 24.0000 6.6474 7.1889 6.3821
219 25.3333 29.3333 25.3333 6.4932 7.4274 6.9286
220 24.0000 28.0000 28.0000 6.2626 6.9559 7.9271
221 25.3333 25.3333 29.3333 6.1818 6.2968 8.3902
222 28.0000 24.0000 28.0000 6.3535 6.1220 7.7613
223 36.0000 32.0000 32.0000 9.7503 9.7542 10.1390
224 34.6667 34.6667 30.6667 9.8283 10.5956 9.6462
225 32.0000 36.0000 32.0000 9.6255 10.8988 10.3665
226 30.6667 34.6667 34.6667 9.3249 10.2908 11.6674
227 32.0000 32.0000 36.0000 9.2222 9.4344 12.2597
228 34.6667 30.6667 34.6667 9.4439 9.1999 11.4505
229 42.6667 38.6667 38.6667 13.7603 13.8500 14.4815
230 41.3333 41.3333 37.3333 13.8600 14.9018 13.8574
231 38.6667 42.6667 38.6667 13.6050 15.2739 14.7645
232 37.3333 41.3333 41.3333 13.2294 14.5201 16.3894
233 38.6667 38.6667 42.6667 13.1033 13.4523 17.1195
234 41.3333 37.3333 41.3333 13.3784 13.1534 16.1177
235 49.3333 45.3333 45.3333 18.6747 18.8901 19.8452
236 48.0000 48.0000 44.0000 18.7976 20.1651 19.0814
237 45.3333 49.3333 45.3333 18.4872 20.6098 20.1870
238 44.0000 48.0000 48.0000 18.0320 19.7016 22.1556
239 45.3333 45.3333 49.3333 17.8813 18.4098 23.0314
240 48.0000 44.0000 48.0000 18.2129 18.0423 21.8258
241 56.0000 52.0000 52.0000 24.5442 24.9283 26.2893
242 54.6667 54.6667 50.6667 24.6915 26.4381 25.3780
243 52.0000 56.0000 52.0000 24.3228 26.9592 26.6930
244 50.6667 54.6667 54.6667 23.7837 25.8885 29.0233
245 52.0000 52.0000 56.0000 23.6071 24.3609 30.0521
246 54.6667 50.6667 54.6667 23.9982 23.9210 28.6323
247 62.6667 58.6667 58.6667 31.4155 32.0141 33.8684
248 61.3333 61.3333 57.3333 31.5885 33.7698 32.8024
249 58.6667 62.6667 58.6667 31.1586 34.3705 34.3367
250 57.3333 61.3333 61.3333 30.5317 33.1301 37.0457
251 58.6667 58.6667 62.6667 30.3282 31.3558 38.2343
252 61.3333 57.3333 61.3333 30.7814 30.8398 36.5905
253 69.3333 65.3333 65.3333 39.3324 40.1941 42.6333
254 68.0000 68.0000 64.0000 39.5321 42.2060 41.4060
255 65.3333 69.3333 65.3333 39.0385 42.8894 43.1690
256 64.0000 68.0000 68.0000 38.3203 41.4723 46.2723
257 65.3333 65.3333 69.3333 38.0888 39.4411 47.6271
258 68.0000 64.0000 68.0000 38.6066 38.8457 45.7503
259 76.0000 72.0000 72.0000 48.3360 49.5118 52.6318
260 74.6667 74.6667 70.6667 48.5636 51.7896 51.2369
261 72.0000 76.0000 72.0000 48.0038 52.5588 53.2375
262 70.6667 74.6667 74.6667 47.1907 50.9583 56.7501
263 72.0000 72.0000 76.0000 46.9302 48.6607 58.2771
264 74.6667 70.6667 74.6667 47.5151 47.9827 56.1586
265 82.6667 78.6667 78.6667 58.4654 60.0086 63.9093
266 81.3333 81.3333 77.3333 58.7218 62.5614 62.3408
267 78.6667 82.6667 78.6667 58.0935 63.4191 64.5872
268 77.3333 81.3333 81.3333 57.1822 61.6292 68.5232
269 78.6667 78.6667 82.6667 56.8918 59.0559 70.2282
270 81.3333 77.3333 81.3333 57.5460 58.2924 67.8600
271 89.3333 85.3333 85.3333 69.7574 71.7235 76.5085
272 88.0000 88.0000 84.0000 70.0436 74.5601 74.7607
273 85.3333 89.3333 85.3333 69.3446 75.5091 77.2609
274 84.0000 88.0000 88.0000 68.3320 73.5238 81.6338
275 85.3333 85.3333 89.3333 68.0107 70.6661 83.5222
276 88.0000 84.0000 88.0000 68.7365 69.8142 80.8965
277 96.0000 92.0000 92.0000 82.2474 84.6941 90.4704
278 94.6667 94.6667 90.6667 82.5644 87.8227 88.5380
279 92.0000 96.0000 92.0000 81.7925 88.8656 91.2996
280 90.6667 94.6667 94.6667 80.6756 86.6793 96.1222
281 92.0000 92.0000 96.0000 80.3226 83.5288 98.1992
282 94.6667 90.6667 94.6667 81.1220 82.5858 95.3085
283 98.8453 97.5120 97.5120 91.0202 95.1119 102.9549
284 100.0000 100.0000 97.3333 93.9851 99.5740 103.2923
285 97.2525 98.5858 98.6667 90.8790 96.2369 105.5777
286 95.2120 97.8787 100.0000 89.0590 94.4110 108.1370
287 98.6667 96.6667 100.0000 91.1971 94.1164 107.9674
288 98.2679 95.6013 98.2679 89.3240 92.0223 104.0138
END_DATA
CTI1   

DESCRIPTOR "Argyll Calibration Target chart information 1"
ORIGINATOR "ChromIQ"
DENSITY_EXTREME_VALUES "8"
CREATED "Fri Sep 18 02:20:04 2026"

NUMBER_OF_FIELDS 7
BEGIN_DATA_FORMAT
INDEX RGB_R RGB_G RGB_B XYZ_X XYZ_Y XYZ_Z
END_DATA_FORMAT

NUMBER_OF_SETS 8
BEGIN_DATA
0 100.0000 100.0000 100.0000 95.0500 100.0000 108.9000
1 0.0000 100.0000 100.0000 54.2224 78.9526 106.9893
2 100.0000 0.0000 100.0000 59.6476 29.1952 97.0992
3 0.0000 0.0000 100.0000 18.8200 8.1478 95.1885
4 100.0000 100.0000 0.0000 77.1805 92.8522 14.8005
5 0.0000 100.0000 0.0000 36.3529 71.8048 12.8898
6 100.0000 0.0000 0.0000 41.7781 22.0474 2.9997
7 0.0000 0.0000 0.0000 0.9505 1.0000 1.0890
END_DATA
CTI1   

DESCRIPTOR "Argyll Calibration Target chart information 1"
ORIGINATOR "ChromIQ"
DEVICE_COMBINATION_VALUES "9"
CREATED "Fri Sep 18 02:20:04 2026"

NUMBER_OF_FIELDS 7
BEGIN_DATA_FORMAT
INDEX RGB_R RGB_G RGB_B XYZ_X XYZ_Y XYZ_Z
END_DATA_FORMAT

NUMBER_OF_SETS 9
BEGIN_DATA
0 100.0000 100.0000 100.0000 95.0500 100.0000 108.9000
1 0.0000 100.0000 100.0000 54.2224 78.9526 106.9893
2 100.0000 0.0000 100.0000 59.6476 29.1952 97.0992
3 0.0000 0.0000 100.0000 18.8200 8.1478 95.1885
4 100.0000 100.0000 0.0000 77.1805 92.8522 14.8005
5 0.0000 100.0000 0.0000 36.3529 71.8048 12.8898
6 100.0000 0.0000 0.0000 41.7781 22.0474 2.9997
7 0.0000 0.0000 0.0000 0.9505 1.0000 1.0890
8 50.0000 50.0000 50.0000 21.0917 22.1901 24.1650
END_DATA
