demo-projects/Demo-Report-Matrix/runs/run1/verifications/2026-08-09_100000/Demo-Report-Matrix-verify.ti3
CTI3   
KEYWORD "CHROMIQ_VERIFICATION"
CHROMIQ_VERIFICATION "true"

DESCRIPTOR "Argyll Calibration Target chart information 3"
ORIGINATOR "Argyll fakeread"
CREATED "Tue Aug 11 11:21:04 2026"
DEVICE_CLASS "DISPLAY"
COLOR_REP "iRGB_XYZ"

KEYWORD "CHROMIQ_MEASURED"
CHROMIQ_MEASURED "2026-08-09T10:00:00"
TARGET_INSTRUMENT "X-Rite ColorMunki"
NUMBER_OF_FIELDS 7
BEGIN_DATA_FORMAT
SAMPLE_ID RGB_R RGB_G RGB_B XYZ_X XYZ_Y XYZ_Z 
END_DATA_FORMAT

NUMBER_OF_SETS 108
BEGIN_DATA
1 107.7025 98.90070 86.08070 89.45181 96.84712 82.07227 
2 107.7025 98.90070 86.08070 89.20351 96.06850 82.85779 
3 107.7025 98.90070 86.08070 89.03991 96.35145 80.93087 
4 107.7025 98.90070 86.08070 89.14166 96.14855 82.21196 
5 0.00000 0.00000 0.00000 0.000328563 0.000655564 0.000111471 
6 0.00000 0.00000 0.00000 1.74217e-06 9.01226e-07 9.12926e-08 
7 0.00000 0.00000 0.00000 0.0000328558 0.0000655553 0.0000111470 
8 0.00000 0.00000 0.00000 0.00196681 0.00103529 0.000106531 
9 104.0819 95.57590 83.18690 85.57437 90.43087 76.70245 
10 100.4734 92.26230 80.30280 82.45369 85.76950 70.83698 
11 96.87610 88.95900 77.42770 76.59282 80.03976 65.12408 
12 93.29180 85.66760 74.56300 69.05927 71.51101 60.27634 
13 89.71970 82.38750 71.70810 64.52021 66.58155 55.25781 
14 86.16010 79.11880 68.86300 58.68075 60.93208 50.63452 
15 82.61510 75.86350 66.02970 54.40558 56.27518 46.38572 
16 79.08300 72.62010 63.20670 49.60653 51.76486 43.16723 
17 75.56540 69.38990 60.39520 44.08734 46.24250 37.71169 
18 72.06260 66.17340 57.59570 40.24525 42.09543 34.79460 
19 68.57680 62.97240 54.80970 35.79196 36.96315 30.82617 
20 65.10630 59.78560 52.03590 31.96541 32.64266 28.41954 
21 61.65210 56.61370 49.27520 28.32403 29.28923 23.92422 
22 58.21540 53.45780 46.52840 25.32036 26.50346 21.06567 
23 54.79940 50.32100 43.79810 22.33251 22.96650 18.69541 
24 51.40120 47.20050 41.08210 19.50243 19.77502 16.74917 
25 48.02280 44.09820 38.38200 16.27173 17.04211 14.00325 
26 44.66700 41.01660 35.69980 14.20567 14.76939 12.00996 
27 41.33530 37.95720 33.03700 11.90221 12.48035 10.21587 
28 38.02480 34.91730 30.39120 9.823987 10.13345 8.817136 
29 34.74300 31.90370 27.76820 8.089959 8.441447 6.828829 
30 31.49120 28.91760 25.16920 6.653252 7.041385 5.696118 
31 28.26810 25.95790 22.59310 5.285615 5.689057 4.674919 
32 25.07590 23.02660 20.04180 3.968280 4.242115 3.454679 
33 21.92370 20.13200 17.52240 3.115406 3.107141 2.719755 
34 18.81050 17.27320 15.03420 2.158897 2.254196 1.746634 
35 15.74930 14.46220 12.58760 1.568745 1.681063 1.331939 
36 12.74130 11.70010 10.18350 0.833518 0.885571 0.816801 
37 9.790900 8.990800 7.825400 0.501158 0.518849 0.398666 
38 6.896800 6.333200 5.512200 0.270104 0.306236 0.246963 
39 13.48170 7.414700 87.91940 14.49540 6.161759 71.61197 
40 14.10430 33.12870 58.65500 9.205656 8.750638 29.75456 
41 106.1945 86.38050 25.39570 68.33891 73.83380 16.21499 
42 35.48540 99.13060 70.69240 48.24728 75.50533 58.26540 
43 23.91460 63.37250 70.80770 23.36589 30.36641 48.90685 
44 96.80360 0.00000 55.70000 43.44554 21.91403 28.30041 
45 90.86230 51.57680 40.29980 44.06515 34.95269 17.54359 
46 77.75910 43.51630 86.01120 42.89161 28.86215 71.32804 
47 73.30080 87.16020 46.03350 50.67728 64.90814 27.21708 
48 15.60330 43.67870 30.25990 7.939811 12.74456 9.105797 
49 59.36060 31.83710 38.54260 18.56503 13.77760 13.78806 
50 75.58590 72.07020 87.02920 53.39145 51.94005 77.85062 
51 77.27500 52.84940 67.13990 40.34838 33.38826 44.20268 
52 62.16660 82.93650 71.94120 47.23011 58.29067 56.28141 
53 26.61100 1.116600 31.47640 3.822272 1.822505 7.784692 
54 72.69560 62.72160 37.91380 35.62390 37.07908 16.51160 
55 25.47290 35.53810 87.76750 19.67222 14.16583 73.16252 
56 8.827700 10.33200 54.42030 5.243587 2.531995 25.13908 
57 82.28590 0.00000 26.95480 27.34945 14.03343 6.744008 
58 23.69890 67.45360 33.54620 19.26302 32.97377 14.66415 
59 40.17270 99.17810 86.55220 54.35841 79.46989 81.11656 
60 74.38500 53.41520 49.20950 34.38413 30.77410 23.34558 
61 21.72070 0.00000 11.21290 1.676934 0.853409 0.761189 
62 64.28770 98.97820 35.49910 52.65669 78.58189 23.07640 
63 91.53530 86.94670 86.56670 73.88113 75.75908 79.45999 
64 22.16750 60.49770 55.19900 18.53311 26.76882 29.88725 
65 82.39100 0.00000 12.30210 27.25544 14.08222 2.319140 
66 101.0950 98.89150 72.27220 85.46378 95.16906 61.43593 
67 40.46560 58.74930 75.56350 27.19021 29.84450 56.19576 
68 47.50320 31.74940 18.86290 11.63853 10.33487 4.010306 
69 65.62040 0.00000 56.11120 21.66147 10.63289 27.69635 
70 56.73780 25.19950 87.73240 27.34884 15.12161 72.10903 
71 92.32250 98.97280 81.63830 81.97697 93.08035 73.55173 
72 58.51600 54.41650 58.03220 27.72951 27.58987 32.76626 
73 8.005700 20.34360 27.79110 2.421774 2.840198 6.045733 
74 40.39160 42.28760 25.31810 12.10086 14.07738 7.180395 
75 58.89040 0.00000 35.48820 14.63525 7.358134 10.63982 
76 67.19080 85.36400 86.79160 55.77758 64.20208 78.15886 
77 57.10130 77.49240 54.44300 37.32212 49.20873 32.35722 
78 34.84580 11.50920 26.20740 5.570587 3.257046 5.531044 
79 100.8336 98.82730 46.58900 79.02512 91.50937 31.03763 
80 104.2643 55.40680 22.59220 51.90196 41.42858 9.439231 
81 32.61960 79.32880 62.57750 31.37545 47.25872 41.04507 
82 62.80280 26.64120 23.24500 17.36709 11.83499 5.425041 
83 42.22800 31.50810 45.71610 12.99309 10.88660 18.92466 
84 63.56000 0.00000 27.45600 16.92538 8.630680 6.678003 
85 46.63030 63.37470 25.58430 22.36008 31.40990 9.721582 
86 59.40380 99.03560 57.22010 53.77949 80.06215 39.77744 
87 90.51130 41.70010 47.23190 41.13908 28.25993 21.59538 
88 55.41510 3.762000 0.00000 11.28230 5.880258 0.599734 
89 51.51180 60.43340 57.35810 27.55930 31.83950 33.61883 
90 15.51090 40.33120 49.78250 9.609471 11.78143 22.51543 
91 15.36210 16.48990 0.00000 1.551982 1.907292 0.295700 
92 56.81410 26.81510 47.08780 17.73059 11.64753 18.62814 
93 103.5642 0.00000 87.44410 54.48545 26.70872 71.35172 
94 50.71300 53.94420 87.48000 32.46219 29.33405 73.74105 
95 39.36070 6.973500 14.40850 6.077217 3.232887 1.852461 
96 27.40990 20.02810 24.64910 4.436231 3.703276 4.841700 
97 85.14110 39.01400 57.74110 39.34514 26.53366 31.85846 
98 16.45780 43.61340 44.15710 9.653091 13.14558 17.96507 
99 71.53740 58.39510 13.01160 31.33219 32.41667 5.995556 
100 31.58720 85.13340 85.46760 40.42228 55.32291 76.18021 
101 100.0000 100.0000 100.0000 94.82070 99.86952 108.7270 
102 0.00000 0.00000 0.00000 0.000352107 0.000142917 0.00183810 
103 100.0000 0.00000 0.00000 40.72886 21.06910 2.134263 
104 0.00000 100.0000 0.00000 35.74932 71.32752 12.13196 
105 0.00000 0.00000 100.0000 18.09361 7.344061 94.45125 
106 0.00000 100.0000 100.0000 53.84179 78.67107 106.5797 
107 100.0000 0.00000 100.0000 58.98674 28.53575 94.84968 
108 100.0000 100.0000 0.00000 76.84838 92.58820 14.28212 
END_DATA
