demo-projects/old/Demo-Report-Matrix-2026-08-10_231948/runs/run1/verifications/2026-08-01_100000/chart/Demo-Report-Matrix-verify.ti2
CTI2   

DESCRIPTOR "Argyll Calibration Target chart information 2"
ORIGINATOR "Argyll printtarg"
CREATED "Mon Aug 10 23:17:25 2026"
TARGET_INSTRUMENT "X-Rite ColorMunki"
APPROX_WHITE_POINT "95.050000 100.000000 108.900000"
COLOR_REP "iRGB"
PAPER_SIZE "210.0x297.0"
RANDOM_START "73"
STEPS_IN_PASS "15"
PASSES_IN_STRIPS2 "6,2"
STRIP_INDEX_PATTERN "A-Z, A-Z"
PATCH_INDEX_PATTERN "0-9,@-9,@-9;1-999"
INDEX_ORDER "STRIP_THEN_PATCH"

NUMBER_OF_FIELDS 8
BEGIN_DATA_FORMAT
SAMPLE_ID SAMPLE_LOC RGB_R RGB_G RGB_B XYZ_X XYZ_Y XYZ_Z 
END_DATA_FORMAT

NUMBER_OF_SETS 120
BEGIN_DATA
1 "B10" 107.8431 98.82353 86.27451 96.59800 100.0676 81.90700 
2 "D9" 107.8431 98.82353 86.27451 96.59800 100.0676 81.90700 
3 "D12" 107.8431 98.82353 86.27451 96.59800 100.0676 81.90700 
4 "G6" 107.8431 98.82353 86.27451 96.59800 100.0676 81.90700 
5 "E6" 0.00000 0.00000 0.00000 0.950500 1.000000 1.089000 
6 "D1" 0.00000 0.00000 0.00000 0.950500 1.000000 1.089000 
7 "E11" 0.00000 0.00000 0.00000 0.950500 1.000000 1.089000 
8 "B2" 0.00000 0.00000 0.00000 0.950500 1.000000 1.089000 
9 "H6" 104.3137 95.68627 83.13725 89.46630 92.68440 75.92500 
10 "H13" 100.3922 92.15686 80.39216 82.67630 85.65460 70.22770 
11 "F5" 96.86275 89.01961 77.64706 76.21910 78.96940 64.80760 
12 "A10" 93.33333 85.88235 74.50980 70.09060 72.62410 59.66130 
13 "C3" 89.80392 82.35294 71.76471 64.28230 66.61030 54.78170 
14 "A4" 86.27451 79.21569 69.01961 58.78690 60.92030 50.16300 
15 "E7" 82.74510 76.07843 66.27451 53.60020 55.54970 45.80150 
16 "F9" 79.21569 72.54902 63.13725 48.71220 50.48830 41.68900 
17 "G14" 75.68627 69.41176 60.39216 44.11720 45.73020 37.82080 
18 "C4" 72.15686 66.27451 57.64706 39.80820 41.26790 34.19100 
19 "F8" 68.62745 63.13725 54.90196 35.77930 37.09550 30.79490 
20 "A14" 65.09804 60.00000 52.15686 32.02070 33.20290 27.62430 
21 "B7" 61.96078 56.86275 49.41176 28.52520 29.58260 24.67330 
22 "C11" 58.43137 53.72549 46.66667 25.28590 26.22730 21.93600 
23 "C14" 54.90196 50.58824 43.92157 22.29690 23.13130 19.40800 
24 "C10" 51.37255 47.45098 41.17647 19.54710 20.28270 17.07960 
25 "H5" 48.23529 44.31373 38.43137 17.02940 17.67440 14.94510 
26 "D10" 44.70588 41.17647 35.68627 14.73690 15.29920 12.99890 
27 "G10" 41.56863 38.03922 33.33333 12.66110 13.14820 11.23400 
28 "G13" 38.03922 34.90196 30.58824 10.79100 11.21030 9.641200 
29 "E8" 34.90196 32.15686 27.84314 9.121000 9.479400 8.216000 
30 "A13" 31.76471 29.01961 25.09804 7.641600 7.945900 6.950600 
31 "F11" 28.23529 25.88235 22.74510 6.342000 6.598500 5.835900 
32 "B4" 25.09804 23.13725 20.00000 5.212800 5.427500 4.864200 
33 "H8" 21.96078 20.39216 17.64706 4.246000 4.424800 4.029100 
34 "C8" 18.82353 17.25490 15.29412 3.430000 3.578100 3.320900 
35 "B13" 15.68627 14.50980 12.54902 2.755900 2.878500 2.732600 
36 "E15" 12.94118 11.76471 10.19608 2.211300 2.312900 2.253600 
37 "H10" 9.803922 9.019608 7.843137 1.784000 1.868900 1.874100 
38 "C12" 7.058824 6.274510 5.490196 1.461000 1.533000 1.583300 
39 "F14" 12.94118 7.450980 87.84314 15.17640 7.141700 71.54760 
40 "B9" 14.11765 33.33333 58.82353 10.29950 9.947800 30.82320 
41 "F12" 106.2745 86.27451 25.49020 74.23420 76.39820 16.72150 
42 "H11" 35.29412 99.21569 70.58824 48.07520 75.89590 56.01900 
43 "D8" 23.92157 63.52941 70.98039 23.84470 30.81540 48.78060 
44 "G1" 96.86275 0.00000 55.68627 43.85760 22.55800 28.46490 
45 "D5" 90.98039 51.76471 40.39216 44.47620 35.22210 18.12810 
46 "H1" 78.03922 43.52941 85.88235 42.52310 29.34890 71.01990 
47 "C7" 73.33333 87.05882 46.27451 50.46720 64.68490 27.62040 
48 "A11" 15.68627 43.92157 30.19608 8.859500 13.39440 10.09820 
49 "F10" 59.60784 31.76471 38.82353 18.89340 14.36460 14.31460 
50 "B5" 75.68627 72.15686 87.05882 52.73520 51.37040 76.50160 
51 "H4" 77.25490 52.94118 67.05882 39.74550 32.88640 43.55860 
52 "H2" 62.35294 83.13725 72.15686 46.80240 58.12180 54.37950 
53 "E4" 26.66667 0.784314 31.76471 4.800800 2.845900 8.871300 
54 "G11" 72.94118 62.74510 38.03922 35.55140 37.10570 17.42280 
55 "G4" 25.49020 35.68627 87.84314 20.09810 14.83270 72.49590 
56 "G15" 8.627451 10.58824 54.50980 6.274700 3.774800 25.55260 
57 "A6" 82.35294 0.00000 27.05882 28.41020 15.03280 7.941700 
58 "C6" 23.52941 67.45098 33.72549 19.13660 31.94400 14.77350 
59 "G8" 40.00000 99.21569 86.66667 54.05230 78.49200 80.79550 
60 "G12" 74.50980 53.33333 49.41176 34.48540 30.88930 24.55940 
61 "A15" 21.96078 0.00000 11.37255 2.769700 1.912700 2.308900 
62 "A8" 64.31373 98.82353 35.68627 52.60180 78.76640 23.10120 
63 "A5" 91.76471 87.05882 86.66667 73.11940 75.02210 79.16830 
64 "G7" 21.96078 60.78431 55.29412 18.88400 26.81920 30.07960 
65 "B15" 82.74510 0.00000 12.54902 27.67650 14.74840 3.668500 
66 "D6" 101.1765 98.82353 72.15686 85.99090 95.07000 59.89720 
67 "D7" 40.39216 58.82353 75.68627 26.85240 29.31070 55.05030 
68 "B6" 47.84314 31.76471 18.82353 12.30760 11.14300 5.256700 
69 "E9" 65.88235 0.00000 56.07843 21.82500 11.19080 27.83620 
70 "E12" 56.86275 25.49020 87.84314 27.63950 15.95980 72.25930 
71 "H12" 92.54902 98.82353 81.56863 80.94900 92.26520 73.73500 
72 "C9" 58.82353 54.50980 58.03922 27.78260 27.79630 32.68470 
73 "G2" 7.843137 20.39216 27.84314 3.599100 4.051700 7.470500 
74 "D14" 40.39216 42.35294 25.49020 12.80020 14.90490 8.075300 
75 "F1" 59.21569 0.00000 35.68627 15.38450 8.225800 11.48730 
76 "F6" 67.45098 85.49020 86.66667 55.43220 64.36300 78.43470 
77 "B8" 57.25490 77.64706 54.50980 37.23390 48.78060 32.60540 
78 "B11" 34.90196 11.37255 26.27451 6.510900 4.412700 6.735700 
79 "F7" 100.7843 98.82353 46.66667 80.39790 92.72280 31.88830 
80 "D3" 104.3137 55.29412 22.74510 56.22050 43.48980 10.32960 
81 "A3" 32.54902 79.21569 62.74510 31.78220 47.38210 41.23890 
82 "C15" 63.13725 26.66667 23.52941 18.27830 12.88760 6.647400 
83 "H14" 42.35294 31.76471 45.88235 13.14100 11.20390 19.04510 
84 "E1" 63.92157 0.00000 27.45098 16.92300 9.106400 7.608100 
85 "H7" 46.66667 63.52941 25.49020 22.24800 30.82400 10.74280 
86 "C2" 59.60784 99.21569 57.25490 53.49830 78.92070 40.31820 
87 "A9" 90.58824 41.56863 47.45098 42.18830 29.51230 22.25470 
88 "H15" 55.68627 3.137255 0.00000 12.05280 6.854700 1.633900 
89 "F4" 51.76471 60.39216 57.64706 26.99980 30.90660 32.62050 
90 "D11" 15.29412 40.39216 49.80392 10.42400 12.60240 22.78850 
91 "E14" 15.29412 16.47059 0.00000 2.627600 3.097900 1.405500 
92 "D4" 56.86275 27.05882 47.05882 18.02820 12.50430 20.12680 
93 "C1" 103.5294 0.00000 87.45098 58.46320 29.12400 72.67480 
94 "C5" 50.58824 54.11765 87.45098 32.17310 28.90000 74.05600 
95 "E3" 39.60784 7.058824 14.50980 6.786500 4.280000 3.148500 
96 "A12" 27.45098 20.00000 24.70588 5.550300 5.030000 6.303900 
97 "C13" 85.09804 39.21569 58.03922 39.15650 26.73610 31.58820 
98 "F3" 16.47059 43.92157 44.31373 10.52670 14.04250 18.53950 
99 "G9" 71.76471 58.43137 12.94118 31.18830 32.38260 6.998500 
100 "D13" 31.37255 85.09804 85.49020 41.40630 56.97590 75.43360 
101 "F2" 100.0000 100.0000 100.0000 95.05000 100.0000 108.9000 
102 "B1" 0.00000 0.00000 0.00000 0.950500 1.000000 1.089000 
103 "A1" 100.0000 0.00000 0.00000 41.77810 22.04740 2.999700 
104 "F15" 0.00000 100.0000 0.00000 36.35290 71.80480 12.88980 
105 "G5" 0.00000 0.00000 100.0000 18.82000 8.147800 95.18850 
106 "H3" 0.00000 100.0000 100.0000 54.22240 78.95260 106.9893 
107 "D15" 100.0000 0.00000 100.0000 59.64760 29.19520 97.09920 
108 "A2" 100.0000 100.0000 0.00000 77.18050 92.85220 14.80050 
0 "G3" 100.0000 100.0000 100.0000 95.05000 100.0000 108.9000 
0 "B14" 100.0000 100.0000 100.0000 95.05000 100.0000 108.9000 
0 "E5" 100.0000 100.0000 100.0000 95.05000 100.0000 108.9000 
0 "B3" 100.0000 100.0000 100.0000 95.05000 100.0000 108.9000 
0 "F13" 100.0000 100.0000 100.0000 95.05000 100.0000 108.9000 
0 "E2" 100.0000 100.0000 100.0000 95.05000 100.0000 108.9000 
0 "B12" 100.0000 100.0000 100.0000 95.05000 100.0000 108.9000 
0 "E10" 100.0000 100.0000 100.0000 95.05000 100.0000 108.9000 
0 "D2" 100.0000 100.0000 100.0000 95.05000 100.0000 108.9000 
0 "H9" 100.0000 100.0000 100.0000 95.05000 100.0000 108.9000 
0 "A7" 100.0000 100.0000 100.0000 95.05000 100.0000 108.9000 
0 "E13" 100.0000 100.0000 100.0000 95.05000 100.0000 108.9000 
END_DATA
