demo-projects/old/Demo-Report-Matrix-2026-08-10_232125/runs/run2/verifications/2026-08-10_120000/Demo-Report-Matrix-verify.ti3
CTI3   
KEYWORD "CHROMIQ_VERIFICATION"
CHROMIQ_VERIFICATION "true"

DESCRIPTOR "Argyll Calibration Target chart information 3"
ORIGINATOR "Argyll fakeread"
CREATED "Mon Aug 10 23:19:50 2026"
DEVICE_CLASS "DISPLAY"
COLOR_REP "iRGB_XYZ"

KEYWORD "CHROMIQ_MEASURED"
CHROMIQ_MEASURED "2026-08-10T12:00:00"
TARGET_INSTRUMENT "X-Rite ColorMunki"
NUMBER_OF_FIELDS 7
BEGIN_DATA_FORMAT
SAMPLE_ID RGB_R RGB_G RGB_B XYZ_X XYZ_Y XYZ_Z 
END_DATA_FORMAT

NUMBER_OF_SETS 105
BEGIN_DATA
1 100.0000 100.0000 100.0000 94.11001 99.48413 107.7091 
2 100.0000 100.0000 100.0000 93.36366 99.19206 106.1513 
3 100.0000 100.0000 100.0000 95.02474 99.98931 108.9041 
4 100.0000 100.0000 100.0000 94.47155 99.38812 107.0613 
5 0.00000 0.00000 0.00000 0.0154973 0.00799105 0.000726201 
6 0.00000 0.00000 0.00000 0.0341805 0.0157941 0.0842230 
7 0.00000 0.00000 0.00000 0.00000 0.00000 0.00000 
8 0.00000 0.00000 0.00000 0.000530014 0.00106002 0.000176658 
9 100.0000 100.0000 0.00000 75.82993 90.42749 13.52290 
10 0.00000 0.00000 100.0000 17.80782 7.143850 93.72036 
11 100.0000 0.00000 0.00000 40.49362 20.91005 1.903281 
12 0.00000 100.0000 100.0000 53.82098 78.74288 106.9733 
13 0.00000 100.0000 0.00000 35.02575 70.01781 11.68092 
14 100.0000 0.00000 100.0000 59.19294 28.47332 96.98949 
15 0.00000 38.69451 100.0000 22.52744 16.17219 96.54600 
16 0.00000 61.01825 0.00000 11.82750 23.57285 3.984989 
17 0.00000 0.00000 49.66734 3.848449 1.540992 20.19121 
18 100.0000 0.00000 49.59690 44.76862 22.66038 21.24279 
19 100.0000 51.96322 100.0000 67.28218 44.75222 98.88456 
20 100.0000 51.02120 0.00000 49.15403 37.09565 4.570800 
21 49.79587 0.00000 0.00000 9.058497 4.674798 0.484430 
22 100.0000 100.0000 50.20307 79.69057 92.44531 34.15273 
23 0.00000 100.0000 50.70625 39.62459 72.69286 33.42081 
24 49.48561 100.0000 100.0000 62.47261 83.20990 107.1139 
25 51.72588 100.0000 0.00000 45.23148 76.24584 12.33246 
26 50.05958 0.00000 100.0000 26.76749 11.75648 93.58396 
27 0.00000 47.79621 60.34591 13.11017 16.58326 33.98865 
28 100.0000 59.17416 43.63085 55.35141 44.87244 20.87459 
29 47.31399 48.98978 0.00000 14.68436 18.01361 2.772262 
30 52.09288 0.00000 45.52943 12.75287 6.208482 17.17941 
31 55.39583 47.66229 100.0000 35.05235 25.65420 97.18182 
32 49.20125 100.0000 50.84061 47.78511 77.26307 32.12347 
33 48.29114 47.33520 50.18713 18.92952 19.46232 23.64283 
34 0.00000 30.94905 0.00000 2.842450 5.683491 0.951677 
35 100.0000 21.19106 79.12555 52.56168 28.05976 57.35816 
36 33.94804 70.69041 100.0000 37.81249 41.60229 99.59712 
37 74.96124 25.82053 0.00000 23.40114 14.89198 1.738923 
38 0.00000 77.61705 71.72771 29.38916 44.75439 52.92502 
39 24.97790 0.00000 23.41364 2.924804 1.431593 4.272101 
40 76.31808 100.0000 28.35106 59.10505 83.41776 19.21466 
41 0.00000 77.00365 31.43299 21.21338 39.97866 14.52887 
42 75.41143 77.79628 100.0000 59.68103 59.36215 101.6188 
43 100.0000 23.29829 20.42453 43.28927 24.67572 5.493714 
44 100.0000 80.02238 22.27702 63.50236 65.18499 13.01379 
45 75.35445 100.0000 76.01304 68.19760 87.09186 65.41773 
46 75.31505 74.81469 0.00000 40.77419 49.02211 7.313530 
47 100.0000 79.49395 78.19811 72.83084 68.72484 64.56057 
48 26.41218 100.0000 75.99234 48.16556 76.76704 64.27325 
49 28.19308 28.22301 100.0000 22.93905 13.21452 95.95356 
50 76.81359 0.00000 23.55016 24.21317 12.39829 5.063515 
51 75.25932 0.00000 74.69026 30.79262 14.81540 49.39493 
52 29.89921 74.23536 0.00000 21.15282 38.05770 6.230662 
53 25.50439 100.0000 24.78846 38.49268 72.33830 16.62691 
54 77.21225 23.71451 100.0000 42.45816 22.16376 96.14328 
55 0.00000 21.07405 72.23364 9.991074 6.162698 45.90692 
56 26.28049 0.00000 71.93547 10.79499 4.583589 44.85557 
57 0.00000 19.89483 30.07019 2.590428 3.094187 7.272847 
58 26.28079 33.45692 23.52814 6.542115 8.337900 5.794747 
59 66.56754 70.38587 52.30860 36.46115 41.77402 28.16130 
60 75.09479 52.62129 65.01886 37.57417 31.12294 41.19119 
61 26.64973 49.33561 81.42125 21.33381 20.78158 63.16207 
62 45.91179 68.61670 63.70484 29.11126 36.94451 40.16270 
63 71.11740 50.49568 34.71935 29.15758 26.63999 12.74132 
64 54.43736 27.35888 62.61652 19.20089 12.45144 34.64733 
65 34.69612 74.79966 32.60823 24.37409 39.87353 14.11939 
66 74.85889 20.44437 50.18860 26.09239 14.72969 22.45138 
67 47.85106 20.11464 33.14580 11.07087 7.307708 9.114201 
68 27.20651 32.63652 48.27367 9.226050 8.969550 19.74696 
69 27.58870 24.69734 0.00000 4.313549 4.780540 0.695441 
70 0.00000 69.14068 100.0000 33.81003 38.91005 99.61076 
71 20.53684 59.80271 49.57175 16.86902 25.39453 24.47436 
72 0.00000 46.98630 28.11508 7.796445 13.77529 7.948062 
73 73.54294 75.32966 75.96305 48.64342 50.84940 60.61652 
74 63.36650 75.70063 29.24590 35.49796 46.63382 14.11811 
75 100.0000 50.88622 71.33775 57.57056 40.49014 50.23984 
76 23.55356 85.77019 53.26247 31.52711 53.05426 31.40612 
77 100.0000 29.41094 48.41781 46.94252 27.38276 21.74278 
78 72.19800 51.56213 8.666635 28.28460 26.51359 4.256016 
79 21.36322 53.66478 11.70929 10.90947 18.94194 4.428023 
80 12.24937 81.96187 10.32227 23.50034 45.81187 8.574976 
81 50.32410 91.80251 71.76533 47.35178 67.44271 56.28834 
82 48.45094 95.04594 23.03440 41.76119 69.51115 15.44293 
83 47.91670 54.94911 27.45694 19.12817 23.80646 9.372141 
84 3.781525 53.33689 81.63552 20.64310 23.03896 62.57871 
85 76.14076 97.71765 95.89858 72.26346 85.88608 97.11528 
86 74.72769 92.97172 51.48222 55.46043 72.89312 33.56913 
87 91.51768 77.11623 49.84954 56.49165 57.83249 27.92452 
88 55.99479 23.67844 88.16304 26.69533 14.70207 73.21413 
89 76.02370 54.61404 92.04182 46.84621 35.87379 82.85225 
90 52.92777 23.07148 11.01567 11.82488 8.114868 2.058997 
91 2.113597 97.73685 76.72762 45.20602 73.87071 65.62729 
92 77.95688 25.26049 74.12841 33.82210 19.03569 48.99032 
93 5.158119 95.50651 28.71841 33.15188 64.22764 16.50284 
94 4.213096 24.16053 51.05457 5.967772 5.131570 22.35007 
95 51.24030 47.80404 76.36550 25.87287 22.49913 53.41562 
96 97.40498 100.0000 75.01152 83.49356 93.89725 63.56800 
97 49.19419 5.350316 74.01136 17.59091 8.271707 46.62715 
98 91.32533 51.59153 22.20459 42.74030 34.08219 7.967959 
99 74.48121 24.34677 26.05584 24.25107 15.02754 6.671827 
100 94.19953 74.22767 93.65841 70.08134 61.35202 89.94361 
101 23.32810 75.54038 80.93191 31.90175 43.15904 65.30364 
102 56.07175 76.90790 5.268606 31.68443 46.24417 7.580176 
103 27.55381 8.135545 46.48987 6.061911 3.280328 17.01794 
104 27.88054 25.86915 72.11177 13.26994 8.578125 46.78708 
105 51.80627 80.99682 89.24284 47.09049 56.70310 83.54027 
END_DATA
