assets/charts/knut/rgb/i1pro75/i1_w75_letter_648p_1page_portrait_w7_5mm/chart.ti1
CTI1   

DESCRIPTOR "Argyll Calibration Target chart information 1"
ORIGINATOR "ChromIQ"
APPROX_WHITE_POINT "95.050000 100.000000 108.900000"
COLOR_REP "iRGB"
WHITE_COLOR_PATCHES "1"
BLACK_COLOR_PATCHES "1"
CREATED "Tue Aug 25 10:30:00 2026"

NUMBER_OF_FIELDS 7
BEGIN_DATA_FORMAT
SAMPLE_ID RGB_R RGB_G RGB_B XYZ_X XYZ_Y XYZ_Z
END_DATA_FORMAT

NUMBER_OF_SETS 648
BEGIN_DATA
1 0.0000 0.0000 0.0000 0.9505 1.0000 1.0890
2 0.0000 0.0000 20.0000 1.5421 1.2366 4.2041
3 0.0000 0.0000 40.0000 3.3248 1.9497 13.5918
4 0.0000 0.0000 60.0000 6.6428 3.2769 31.0641
5 0.0000 0.0000 80.0000 11.7406 5.3160 57.9089
6 0.0000 0.0000 100.0000 18.8200 8.1478 95.1885
7 0.0000 20.0000 0.0000 2.1225 3.3440 1.4797
8 0.0000 20.0000 20.0000 2.7141 3.5806 4.5948
9 0.0000 20.0000 40.0000 4.4968 4.2937 13.9825
10 0.0000 20.0000 60.0000 7.8148 5.6209 31.4548
11 0.0000 20.0000 80.0000 12.9126 7.6600 58.2995
12 0.0000 20.0000 100.0000 19.9920 10.4918 95.5792
13 0.0000 40.0000 0.0000 5.6544 10.4077 2.6570
14 0.0000 40.0000 20.0000 6.2459 10.6443 5.7721
15 0.0000 40.0000 40.0000 8.0286 11.3574 15.1598
16 0.0000 40.0000 60.0000 11.3466 12.6846 32.6320
17 0.0000 40.0000 80.0000 16.4445 14.7238 59.4768
18 0.0000 40.0000 100.0000 23.5239 17.5555 96.7565
19 0.0000 60.0000 0.0000 12.2278 23.5546 4.8481
20 0.0000 60.0000 20.0000 12.8194 23.7913 7.9632
21 0.0000 60.0000 40.0000 14.6021 24.5044 17.3509
22 0.0000 60.0000 60.0000 17.9201 25.8315 34.8232
23 0.0000 60.0000 80.0000 23.0179 27.8707 61.6680
24 0.0000 60.0000 100.0000 30.0973 30.7024 98.9476
25 0.0000 80.0000 0.0000 22.3274 43.7539 8.2146
26 0.0000 80.0000 20.0000 22.9190 43.9905 11.3298
27 0.0000 80.0000 40.0000 24.7017 44.7036 20.7175
28 0.0000 80.0000 60.0000 28.0197 46.0308 38.1897
29 0.0000 80.0000 80.0000 33.1175 48.0699 65.0345
30 0.0000 80.0000 100.0000 40.1969 50.9017 102.3141
31 0.0000 100.0000 0.0000 36.3529 71.8048 12.8898
32 0.0000 100.0000 20.0000 36.9445 72.0414 16.0049
33 0.0000 100.0000 40.0000 38.7272 72.7545 25.3926
34 0.0000 100.0000 60.0000 42.0452 74.0817 42.8649
35 0.0000 100.0000 80.0000 47.1430 76.1208 69.7097
36 0.0000 100.0000 100.0000 54.2224 78.9526 106.9893
37 20.0000 0.0000 0.0000 2.3021 1.6968 1.1523
38 20.0000 0.0000 20.0000 2.8937 1.9334 4.2674
39 20.0000 0.0000 40.0000 4.6764 2.6465 13.6551
40 20.0000 0.0000 60.0000 7.9944 3.9737 31.1273
41 20.0000 0.0000 80.0000 13.0922 6.0128 57.9721
42 20.0000 0.0000 100.0000 20.1716 8.8446 95.2518
43 20.0000 20.0000 0.0000 3.4741 4.0407 1.5429
44 20.0000 20.0000 20.0000 4.0656 4.2774 4.6581
45 20.0000 20.0000 40.0000 5.8484 4.9905 14.0458
46 20.0000 20.0000 60.0000 9.1663 6.3177 31.5180
47 20.0000 20.0000 80.0000 14.2642 8.3568 58.3628
48 20.0000 20.0000 100.0000 21.3436 11.1885 95.6424
49 20.0000 40.0000 0.0000 7.0059 11.1045 2.7202
50 20.0000 40.0000 20.0000 7.5975 11.3411 5.8353
51 20.0000 40.0000 40.0000 9.3802 12.0542 15.2230
52 20.0000 40.0000 60.0000 12.6982 13.3814 32.6953
53 20.0000 40.0000 80.0000 17.7960 15.4205 59.5401
54 20.0000 40.0000 100.0000 24.8754 18.2523 96.8197
55 20.0000 60.0000 0.0000 13.5794 24.2514 4.9114
56 20.0000 60.0000 20.0000 14.1710 24.4880 8.0265
57 20.0000 60.0000 40.0000 15.9537 25.2011 17.4142
58 20.0000 60.0000 60.0000 19.2717 26.5283 34.8865
59 20.0000 60.0000 80.0000 24.3695 28.5674 61.7312
60 20.0000 60.0000 100.0000 31.4489 31.3992 99.0109
61 20.0000 80.0000 0.0000 23.6790 44.4506 8.2779
62 20.0000 80.0000 20.0000 24.2706 44.6873 11.3930
63 20.0000 80.0000 40.0000 26.0533 45.4004 20.7807
64 20.0000 80.0000 60.0000 29.3713 46.7276 38.2530
65 20.0000 80.0000 80.0000 34.4691 48.7667 65.0977
66 20.0000 80.0000 100.0000 41.5485 51.5984 102.3774
67 20.0000 100.0000 0.0000 37.7045 72.5016 12.9531
68 20.0000 100.0000 20.0000 38.2961 72.7382 16.0682
69 20.0000 100.0000 40.0000 40.0788 73.4513 25.4559
70 20.0000 100.0000 60.0000 43.3968 74.7785 42.9281
71 20.0000 100.0000 80.0000 48.4946 76.8176 69.7729
72 20.0000 100.0000 100.0000 55.5740 79.6494 107.0526
73 40.0000 0.0000 0.0000 6.3752 3.7965 1.3429
74 40.0000 0.0000 20.0000 6.9668 4.0332 4.4580
75 40.0000 0.0000 40.0000 8.7495 4.7462 13.8457
76 40.0000 0.0000 60.0000 12.0675 6.0734 31.3180
77 40.0000 0.0000 80.0000 17.1653 8.1126 58.1627
78 40.0000 0.0000 100.0000 24.2447 10.9443 95.4424
79 40.0000 20.0000 0.0000 7.5472 6.1405 1.7335
80 40.0000 20.0000 20.0000 8.1387 6.3771 4.8487
81 40.0000 20.0000 40.0000 9.9215 7.0902 14.2364
82 40.0000 20.0000 60.0000 13.2395 8.4174 31.7086
83 40.0000 20.0000 80.0000 18.3373 10.4565 58.5534
84 40.0000 20.0000 100.0000 25.4167 13.2883 95.8330
85 40.0000 40.0000 0.0000 11.0791 13.2042 2.9108
86 40.0000 40.0000 20.0000 11.6706 13.4409 6.0260
87 40.0000 40.0000 40.0000 13.4533 14.1540 15.4137
88 40.0000 40.0000 60.0000 16.7713 15.4812 32.8859
89 40.0000 40.0000 80.0000 21.8691 17.5203 59.7307
90 40.0000 40.0000 100.0000 28.9486 20.3520 97.0103
91 40.0000 60.0000 0.0000 17.6525 26.3512 5.1020
92 40.0000 60.0000 20.0000 18.2441 26.5878 8.2171
93 40.0000 60.0000 40.0000 20.0268 27.3009 17.6048
94 40.0000 60.0000 60.0000 23.3448 28.6281 35.0771
95 40.0000 60.0000 80.0000 28.4426 30.6672 61.9218
96 40.0000 60.0000 100.0000 35.5220 33.4990 99.2015
97 40.0000 80.0000 0.0000 27.7521 46.5504 8.4685
98 40.0000 80.0000 20.0000 28.3437 46.7870 11.5837
99 40.0000 80.0000 40.0000 30.1264 47.5001 20.9714
100 40.0000 80.0000 60.0000 33.4444 48.8273 38.4436
101 40.0000 80.0000 80.0000 38.5422 50.8664 65.2884
102 40.0000 80.0000 100.0000 45.6216 53.6982 102.5680
103 40.0000 100.0000 0.0000 41.7776 74.6013 13.1437
104 40.0000 100.0000 20.0000 42.3692 74.8380 16.2588
105 40.0000 100.0000 40.0000 44.1519 75.5510 25.6465
106 40.0000 100.0000 60.0000 47.4699 76.8782 43.1188
107 40.0000 100.0000 80.0000 52.5677 78.9174 69.9635
108 40.0000 100.0000 100.0000 59.6471 81.7491 107.2432
109 60.0000 0.0000 0.0000 13.9560 7.7046 1.6976
110 60.0000 0.0000 20.0000 14.5476 7.9412 4.8128
111 60.0000 0.0000 40.0000 16.3303 8.6543 14.2005
112 60.0000 0.0000 60.0000 19.6483 9.9815 31.6727
113 60.0000 0.0000 80.0000 24.7461 12.0206 58.5175
114 60.0000 0.0000 100.0000 31.8255 14.8524 95.7971
115 60.0000 20.0000 0.0000 15.1280 10.0486 2.0883
116 60.0000 20.0000 20.0000 15.7196 10.2852 5.2035
117 60.0000 20.0000 40.0000 17.5023 10.9983 14.5912
118 60.0000 20.0000 60.0000 20.8203 12.3255 32.0634
119 60.0000 20.0000 80.0000 25.9181 14.3646 58.9082
120 60.0000 20.0000 100.0000 32.9975 17.1964 96.1878
121 60.0000 40.0000 0.0000 18.6599 17.1123 3.2656
122 60.0000 40.0000 20.0000 19.2514 17.3489 6.3807
123 60.0000 40.0000 40.0000 21.0341 18.0620 15.7684
124 60.0000 40.0000 60.0000 24.3521 19.3892 33.2407
125 60.0000 40.0000 80.0000 29.4500 21.4283 60.0855
126 60.0000 40.0000 100.0000 36.5294 24.2601 97.3651
127 60.0000 60.0000 0.0000 25.2333 30.2592 5.4568
128 60.0000 60.0000 20.0000 25.8249 30.4958 8.5719
129 60.0000 60.0000 40.0000 27.6076 31.2089 17.9596
130 60.0000 60.0000 60.0000 30.9256 32.5361 35.4318
131 60.0000 60.0000 80.0000 36.0234 34.5753 62.2766
132 60.0000 60.0000 100.0000 43.1028 37.4070 99.5563
133 60.0000 80.0000 0.0000 35.3329 50.4585 8.8233
134 60.0000 80.0000 20.0000 35.9245 50.6951 11.9384
135 60.0000 80.0000 40.0000 37.7072 51.4082 21.3261
136 60.0000 80.0000 60.0000 41.0252 52.7354 38.7984
137 60.0000 80.0000 80.0000 46.1230 54.7745 65.6431
138 60.0000 80.0000 100.0000 53.2024 57.6063 102.9228
139 60.0000 100.0000 0.0000 49.3584 78.5094 13.4984
140 60.0000 100.0000 20.0000 49.9500 78.7460 16.6136
141 60.0000 100.0000 40.0000 51.7327 79.4591 26.0013
142 60.0000 100.0000 60.0000 55.0507 80.7863 43.4735
143 60.0000 100.0000 80.0000 60.1485 82.8254 70.3183
144 60.0000 100.0000 100.0000 67.2279 85.6572 107.5979
145 80.0000 0.0000 0.0000 25.6033 13.7090 2.2427
146 80.0000 0.0000 20.0000 26.1949 13.9456 5.3579
147 80.0000 0.0000 40.0000 27.9776 14.6587 14.7456
148 80.0000 0.0000 60.0000 31.2956 15.9859 32.2178
149 80.0000 0.0000 80.0000 36.3934 18.0250 59.0626
150 80.0000 0.0000 100.0000 43.4728 20.8568 96.3422
151 80.0000 20.0000 0.0000 26.7753 16.0530 2.6334
152 80.0000 20.0000 20.0000 27.3669 16.2896 5.7485
153 80.0000 20.0000 40.0000 29.1496 17.0027 15.1362
154 80.0000 20.0000 60.0000 32.4676 18.3299 32.6085
155 80.0000 20.0000 80.0000 37.5654 20.3690 59.4532
156 80.0000 20.0000 100.0000 44.6448 23.2008 96.7329
157 80.0000 40.0000 0.0000 30.3072 23.1167 3.8107
158 80.0000 40.0000 20.0000 30.8987 23.3533 6.9258
159 80.0000 40.0000 40.0000 32.6815 24.0664 16.3135
160 80.0000 40.0000 60.0000 35.9995 25.3936 33.7858
161 80.0000 40.0000 80.0000 41.0973 27.4327 60.6305
162 80.0000 40.0000 100.0000 48.1767 30.2645 97.9102
163 80.0000 60.0000 0.0000 36.8806 36.2636 6.0018
164 80.0000 60.0000 20.0000 37.4722 36.5003 9.1170
165 80.0000 60.0000 40.0000 39.2549 37.2134 18.5047
166 80.0000 60.0000 60.0000 42.5729 38.5405 35.9769
167 80.0000 60.0000 80.0000 47.6707 40.5797 62.8217
168 80.0000 60.0000 100.0000 54.7501 43.4114 100.1013
169 80.0000 80.0000 0.0000 46.9803 56.4629 9.3684
170 80.0000 80.0000 20.0000 47.5718 56.6995 12.4835
171 80.0000 80.0000 40.0000 49.3545 57.4126 21.8712
172 80.0000 80.0000 60.0000 52.6725 58.7398 39.3435
173 80.0000 80.0000 80.0000 57.7704 60.7789 66.1882
174 80.0000 80.0000 100.0000 64.8498 63.6107 103.4679
175 80.0000 100.0000 0.0000 61.0057 84.5138 14.0435
176 80.0000 100.0000 20.0000 61.5973 84.7504 17.1587
177 80.0000 100.0000 40.0000 63.3800 85.4635 26.5464
178 80.0000 100.0000 60.0000 66.6980 86.7907 44.0186
179 80.0000 100.0000 80.0000 71.7958 88.8298 70.8634
180 80.0000 100.0000 100.0000 78.8752 91.6616 108.1430
181 100.0000 0.0000 0.0000 41.7781 22.0474 2.9997
182 100.0000 0.0000 20.0000 42.3697 22.2840 6.1148
183 100.0000 0.0000 40.0000 44.1524 22.9971 15.5025
184 100.0000 0.0000 60.0000 47.4704 24.3243 32.9748
185 100.0000 0.0000 80.0000 52.5682 26.3634 59.8196
186 100.0000 0.0000 100.0000 59.6476 29.1952 97.0992
187 100.0000 20.0000 0.0000 42.9501 24.3914 3.3904
188 100.0000 20.0000 20.0000 43.5417 24.6280 6.5055
189 100.0000 20.0000 40.0000 45.3244 25.3411 15.8932
190 100.0000 20.0000 60.0000 48.6424 26.6683 33.3655
191 100.0000 20.0000 80.0000 53.7402 28.7074 60.2102
192 100.0000 20.0000 100.0000 60.8196 31.5392 97.4899
193 100.0000 40.0000 0.0000 46.4820 31.4551 4.5677
194 100.0000 40.0000 20.0000 47.0735 31.6917 7.6828
195 100.0000 40.0000 40.0000 48.8562 32.4048 17.0705
196 100.0000 40.0000 60.0000 52.1742 33.7320 34.5427
197 100.0000 40.0000 80.0000 57.2721 35.7712 61.3875
198 100.0000 40.0000 100.0000 64.3515 38.6029 98.6672
199 100.0000 60.0000 0.0000 53.0554 44.6020 6.7588
200 100.0000 60.0000 20.0000 53.6470 44.8387 9.8739
201 100.0000 60.0000 40.0000 55.4297 45.5518 19.2616
202 100.0000 60.0000 60.0000 58.7477 46.8789 36.7339
203 100.0000 60.0000 80.0000 63.8455 48.9181 63.5787
204 100.0000 60.0000 100.0000 70.9249 51.7498 100.8583
205 100.0000 80.0000 0.0000 63.1550 64.8013 10.1253
206 100.0000 80.0000 20.0000 63.7466 65.0379 13.2405
207 100.0000 80.0000 40.0000 65.5293 65.7510 22.6282
208 100.0000 80.0000 60.0000 68.8473 67.0782 40.1004
209 100.0000 80.0000 80.0000 73.9451 69.1173 66.9452
210 100.0000 80.0000 100.0000 81.0245 71.9491 104.2248
211 100.0000 100.0000 0.0000 77.1805 92.8522 14.8005
212 100.0000 100.0000 20.0000 77.7721 93.0888 17.9156
213 100.0000 100.0000 40.0000 79.5548 93.8019 27.3033
214 100.0000 100.0000 60.0000 82.8728 95.1291 44.7756
215 100.0000 100.0000 80.0000 87.9706 97.1682 71.6204
216 100.0000 100.0000 100.0000 95.0500 100.0000 108.9000
217 10.0000 0.0000 0.0000 1.3597 1.2110 1.1082
218 30.0000 0.0000 0.0000 3.9407 2.5415 1.2289
219 50.0000 0.0000 0.0000 9.6893 5.5050 1.4980
220 70.0000 0.0000 0.0000 19.2408 10.4290 1.9450
221 90.0000 0.0000 0.0000 33.0987 17.5730 2.5935
222 0.0000 10.0000 0.0000 1.3053 1.7097 1.2073
223 0.0000 30.0000 0.0000 3.5433 6.1857 1.9533
224 0.0000 50.0000 0.0000 8.5281 16.1551 3.6149
225 0.0000 70.0000 0.0000 16.8104 32.7197 6.3756
226 0.0000 90.0000 0.0000 28.8268 56.7526 10.3811
227 0.0000 0.0000 10.0000 1.1296 1.0716 2.0321
228 0.0000 0.0000 30.0000 2.2592 1.5235 7.9807
229 0.0000 0.0000 50.0000 4.7753 2.5299 21.2302
230 0.0000 0.0000 70.0000 8.9558 4.2021 43.2445
231 0.0000 0.0000 90.0000 15.0212 6.6283 75.1841
232 100.0000 10.0000 0.0000 42.1329 22.7571 3.1180
233 100.0000 30.0000 0.0000 44.3709 27.2331 3.8640
234 100.0000 50.0000 0.0000 49.3557 37.2025 5.5256
235 100.0000 70.0000 0.0000 57.6380 53.7671 8.2863
236 100.0000 90.0000 0.0000 69.6544 77.8000 12.2918
237 100.0000 0.0000 10.0000 41.9572 22.1190 3.9428
238 100.0000 0.0000 30.0000 43.0868 22.5709 9.8914
239 100.0000 0.0000 50.0000 45.6029 23.5773 23.1409
240 100.0000 0.0000 70.0000 49.7834 25.2495 45.1552
241 100.0000 0.0000 90.0000 55.8488 27.6757 77.0948
242 10.0000 100.0000 0.0000 36.7621 72.0158 12.9090
243 30.0000 100.0000 0.0000 39.3431 73.3463 13.0297
244 50.0000 100.0000 0.0000 45.0917 76.3098 13.2988
245 70.0000 100.0000 0.0000 54.6432 81.2338 13.7458
246 90.0000 100.0000 0.0000 68.5011 88.3778 14.3943
247 0.0000 100.0000 10.0000 36.5320 71.8764 13.8329
248 0.0000 100.0000 30.0000 37.6616 72.3283 19.7815
249 0.0000 100.0000 50.0000 40.1777 73.3347 33.0310
250 0.0000 100.0000 70.0000 44.3582 75.0069 55.0453
251 0.0000 100.0000 90.0000 50.4236 77.4331 86.9849
252 0.0000 10.0000 100.0000 19.1748 8.8575 95.3068
253 0.0000 30.0000 100.0000 21.4128 13.3335 96.0528
254 0.0000 50.0000 100.0000 26.3976 23.3029 97.7144
255 0.0000 70.0000 100.0000 34.6799 39.8675 100.4751
256 0.0000 90.0000 100.0000 46.6963 63.9004 104.4806
257 10.0000 0.0000 100.0000 19.2292 8.3588 95.2077
258 30.0000 0.0000 100.0000 21.8102 9.6893 95.3284
259 50.0000 0.0000 100.0000 27.5588 12.6528 95.5975
260 70.0000 0.0000 100.0000 37.1103 17.5768 96.0445
261 90.0000 0.0000 100.0000 50.9682 24.7208 96.6930
262 100.0000 100.0000 10.0000 77.3596 92.9238 15.7436
263 100.0000 100.0000 30.0000 78.4892 93.3757 21.6922
264 100.0000 100.0000 50.0000 81.0053 94.3821 34.9417
265 100.0000 100.0000 70.0000 85.1858 96.0543 56.9560
266 100.0000 100.0000 90.0000 91.2512 98.4805 88.8956
267 10.0000 100.0000 100.0000 54.6316 79.1636 107.0085
268 30.0000 100.0000 100.0000 57.2126 80.4941 107.1292
269 50.0000 100.0000 100.0000 62.9612 83.4576 107.3983
270 70.0000 100.0000 100.0000 72.5127 88.3816 107.8453
271 90.0000 100.0000 100.0000 86.3706 95.5256 108.4938
272 100.0000 10.0000 100.0000 60.0024 29.9049 97.2175
273 100.0000 30.0000 100.0000 62.2404 34.3809 97.9635
274 100.0000 50.0000 100.0000 67.2252 44.3503 99.6251
275 100.0000 70.0000 100.0000 75.5075 60.9149 102.3858
276 100.0000 90.0000 100.0000 87.5239 84.9478 106.3913
277 5.0000 0.0000 0.0000 1.1112 1.0828 1.0965
278 0.0000 5.0000 0.0000 1.0898 1.2787 1.1354
279 0.0000 0.0000 5.0000 1.0208 1.0281 1.4594
280 95.0000 0.0000 0.0000 37.2873 19.7323 2.7895
281 100.0000 5.0000 0.0000 41.9174 22.3261 3.0461
282 100.0000 0.0000 5.0000 41.8484 22.0755 3.3701
283 5.0000 100.0000 0.0000 36.5136 71.8876 12.8973
284 0.0000 95.0000 0.0000 32.4588 64.0167 11.5918
285 0.0000 100.0000 5.0000 36.4232 71.8329 13.2602
286 5.0000 0.0000 100.0000 18.9807 8.2306 95.1960
287 0.0000 5.0000 100.0000 18.9593 8.4265 95.2349
288 0.0000 0.0000 95.0000 16.8545 7.3616 84.8381
289 5.0000 100.0000 100.0000 54.3831 79.0354 106.9968
290 0.0000 95.0000 100.0000 50.3283 71.1645 105.6913
291 0.0000 100.0000 95.0000 52.2569 78.1664 96.6389
292 95.0000 0.0000 100.0000 55.1568 26.8801 96.8890
293 100.0000 5.0000 100.0000 59.7869 29.4739 97.1456
294 100.0000 0.0000 95.0000 57.6821 28.4090 86.7488
295 95.0000 100.0000 0.0000 72.6897 90.5371 14.5903
296 100.0000 95.0000 0.0000 73.2864 85.0641 13.5025
297 100.0000 100.0000 5.0000 77.2508 92.8803 15.1709
298 95.0000 100.0000 100.0000 90.5592 97.6849 108.6898
299 100.0000 95.0000 100.0000 91.1559 92.2119 107.6020
300 100.0000 100.0000 95.0000 93.0845 99.2138 98.5496
301 0.0000 0.0000 2.0000 0.9782 1.0111 1.2347
302 2.4390 2.4390 2.4390 1.1281 1.1869 1.2925
303 4.8780 4.8780 4.8780 1.3106 1.3789 1.5016
304 7.3171 7.3171 7.3171 1.5482 1.6288 1.7738
305 9.7561 9.7561 9.7561 1.8584 1.9552 2.1292
306 12.1951 12.1951 12.1951 2.2466 2.3636 2.5739
307 14.6341 14.6341 14.6341 2.7174 2.8590 3.1134
308 17.0732 17.0732 17.0732 3.2754 3.4460 3.7527
309 18.3575 18.3575 18.3575 3.6056 3.7934 4.1310
310 21.9512 21.9512 21.9512 4.6687 4.9118 5.3490
311 24.3902 24.3902 24.3902 5.5114 5.7984 6.3145
312 26.8293 26.8293 26.8293 6.4562 6.7924 7.3969
313 29.2683 29.2683 29.2683 7.5062 7.8971 8.6000
314 31.7073 31.7073 31.7073 8.6647 9.1159 9.9272
315 34.1463 34.1463 34.1463 9.9345 10.4518 11.3821
316 36.5854 36.5854 36.5854 11.3185 11.9080 12.9678
317 37.8697 37.8697 37.8697 12.0942 12.7240 13.8565
318 41.4634 41.4634 41.4634 14.4403 15.1923 16.5444
319 43.9024 43.9024 43.9024 16.1832 17.0260 18.5413
320 46.3415 46.3415 46.3415 18.0509 18.9910 20.6812
321 48.7805 48.7805 48.7805 20.0458 21.0897 22.9667
322 51.2195 51.2195 51.2195 22.1702 23.3248 25.4007
323 53.6585 53.6585 53.6585 24.4265 25.6985 27.9857
324 56.0976 56.0976 56.0976 26.8168 28.2133 30.7243
325 58.5366 58.5366 58.5366 29.3434 30.8715 33.6191
326 59.8209 59.8209 62.1303 31.2210 32.5263 37.7965
327 63.4146 63.4146 63.4146 34.8138 36.6268 39.8866
328 65.8537 65.8537 65.8537 37.7617 39.7283 43.2641
329 68.2927 68.2927 68.2927 40.8542 42.9818 46.8072
330 70.7317 70.7317 70.7317 44.0932 46.3894 50.5181
331 73.1707 73.1707 73.1707 47.4805 49.9532 54.3990
332 75.6098 75.6098 75.6098 51.0181 53.6750 58.4521
333 78.0488 78.0488 78.0488 54.7078 57.5569 62.6795
334 79.0736 80.4878 81.9020 58.0131 61.2727 69.3374
335 82.9268 82.9268 82.9268 62.5508 65.8084 71.6653
336 85.3659 85.3659 85.3659 66.7077 70.1817 76.4278
337 87.8049 87.8049 87.8049 71.0237 74.7224 81.3727
338 90.2439 90.2439 90.2439 75.5006 79.4325 86.5020
339 92.6829 92.6829 92.6829 80.1400 84.3135 91.8175
340 95.1220 95.1220 95.1220 84.9437 89.3674 97.3210
341 97.5610 97.5610 97.5610 89.9131 94.5956 103.0146
342 98.0000 100.0000 100.0000 93.2170 99.0551 108.8142
343 2.3094 0.0000 0.0000 1.0235 1.0376 1.0924
344 2.3094 0.0000 2.0000 1.0511 1.0487 1.2381
345 0.0000 2.3094 0.0000 1.0138 1.1266 1.1101
346 0.0000 2.3094 2.0000 1.0414 1.1376 1.2558
347 1.1547 1.1547 3.4641 1.0665 1.1013 1.3536
348 0.0000 2.8284 5.1378 1.1006 1.1840 1.4970
349 5.1516 0.0000 2.0000 1.1445 1.0968 1.2424
350 5.1516 2.0000 0.0000 1.1716 1.1953 1.1151
351 2.6165 2.5351 0.0000 1.1026 1.1816 1.1160
352 2.5351 4.9259 0.0000 1.1676 1.3153 1.1384
353 0.0000 5.1516 2.0000 1.1224 1.2995 1.2827
354 0.0000 7.1516 0.0000 1.1685 1.4359 1.1617
355 1.7321 5.5033 3.1124 1.2042 1.3573 1.3702
356 0.0000 1.3804 6.7712 1.0906 1.1165 1.6400
357 2.0000 0.0000 5.1516 1.0865 1.0617 1.4753
358 2.1213 0.0000 7.2729 1.1301 1.0796 1.6849
359 3.5017 0.0000 3.7712 1.1133 1.0779 1.3688
360 5.5033 1.7321 3.1124 1.2208 1.2048 1.3399
361 8.5594 3.9406 6.2500 1.4744 1.4197 1.6253
362 8.5594 6.2500 3.9406 1.5113 1.5538 1.4520
363 6.2500 8.5594 3.9406 1.4963 1.6918 1.4794
364 3.9406 8.5594 6.2500 1.4479 1.6626 1.6736
365 3.9406 6.2500 8.5594 1.3993 1.4859 1.9019
366 6.2500 3.9406 8.5594 1.4107 1.3812 1.8811
367 11.4016 2.4788 4.8696 1.5904 1.4228 1.4946
368 11.4016 4.8696 2.4788 1.6237 1.5438 1.3382
369 10.0212 7.6304 1.0984 1.6145 1.6943 1.2676
370 7.6304 10.0212 1.0984 1.5965 1.8597 1.3005
371 4.8696 11.4016 2.4788 1.5775 1.9676 1.4224
372 2.4788 11.4016 4.8696 1.5339 1.9412 1.5977
373 1.0984 10.0212 7.6304 1.4615 1.7780 1.8426
374 1.0984 7.6304 10.0212 1.4032 1.5663 2.1163
375 2.4788 4.8696 11.4016 1.3845 1.3990 2.2987
376 4.8696 2.4788 11.4016 1.3948 1.3044 2.2799
377 7.6304 1.0984 10.0212 1.4351 1.2737 2.0581
378 10.0212 1.0984 7.6304 1.5114 1.3200 1.7516
379 14.8094 10.1906 12.5000 2.3551 2.2369 2.5977
380 14.8094 12.5000 10.1906 2.4257 2.4933 2.2662
381 12.5000 14.8094 10.1906 2.3995 2.7333 2.3139
382 10.1906 14.8094 12.5000 2.3070 2.6773 2.6853
383 10.1906 12.5000 14.8094 2.2225 2.3703 3.0821
384 12.5000 10.1906 14.8094 2.2444 2.1699 3.0423
385 17.6516 8.7288 11.1196 2.5231 2.2152 2.3505
386 17.6516 11.1196 8.7288 2.5877 2.4499 2.0470
387 16.2712 13.8804 7.3484 2.5961 2.7356 1.9357
388 13.8804 16.2712 7.3484 2.5662 3.0102 1.9903
389 11.1196 17.6516 8.7288 2.5096 3.1666 2.1895
390 8.7288 17.6516 11.1196 2.4249 3.1154 2.5294
391 7.3484 16.2712 13.8804 2.3195 2.8608 2.9808
392 7.3484 13.8804 16.2712 2.2227 2.5096 3.4350
393 8.7288 11.1196 17.6516 2.1724 2.1984 3.7149
394 11.1196 8.7288 17.6516 2.1924 2.0150 3.6784
395 13.8804 7.3484 16.2712 2.2810 1.9749 3.3287
396 16.2712 7.3484 13.8804 2.4077 2.0516 2.8200
397 21.0594 16.4406 18.7500 3.7821 3.6120 4.1922
398 21.0594 18.7500 16.4406 3.8920 4.0108 3.6766
399 18.7500 21.0594 16.4406 3.8531 4.3671 3.7474
400 16.4406 21.0594 18.7500 3.7093 4.2800 4.3250
401 16.4406 18.7500 21.0594 3.5838 3.8242 4.9142
402 18.7500 16.4406 21.0594 3.6178 3.5125 4.8522
403 23.9016 14.9788 17.3696 4.0006 3.5476 3.8077
404 23.9016 17.3696 14.9788 4.1046 3.9254 3.3192
405 22.5212 20.1304 13.5984 4.1273 4.3648 3.1204
406 20.1304 22.5212 13.5984 4.0839 4.7628 3.1995
407 17.3696 23.9016 14.9788 3.9902 4.9751 3.5279
408 14.9788 23.9016 17.3696 3.8539 4.8926 4.0750
409 13.5984 22.5212 20.1304 3.6943 4.5269 4.7640
410 13.5984 20.1304 22.5212 3.5541 4.0177 5.4222
411 14.9788 17.3696 23.9016 3.4840 3.5497 5.8112
412 17.3696 14.9788 23.9016 3.5162 3.2544 5.7525
413 20.1304 13.5984 22.5212 3.6461 3.1733 5.2544
414 22.5212 13.5984 20.1304 3.8298 3.2845 4.5170
415 27.3094 22.6906 25.0000 5.8254 5.6215 6.4892
416 27.3094 25.0000 22.6906 5.9790 6.1791 5.7683
417 25.0000 27.3094 22.6906 5.9262 6.6638 5.8646
418 22.6906 27.3094 25.0000 5.7251 6.5420 6.6722
419 22.6906 25.0000 27.3094 5.5543 5.9220 7.4738
420 25.0000 22.6906 27.3094 5.6018 5.4861 7.3872
421 30.1516 21.2288 23.6196 6.0970 5.5070 5.9515
422 30.1516 23.6196 21.2288 6.2454 6.0456 5.2552
423 28.7712 26.3804 19.8484 6.2844 6.6558 4.9561
424 26.3804 28.7712 19.8484 6.2263 7.1894 5.0622
425 23.6196 30.1516 21.2288 6.0909 7.4621 5.5368
426 21.2288 30.1516 23.6196 5.8967 7.3445 6.3168
427 19.8484 28.7712 26.3804 5.6765 6.8566 7.2696
428 19.8484 26.3804 28.7712 5.4885 6.1739 8.1521
429 21.2288 23.6196 30.1516 5.3976 5.5323 8.6596
430 23.6196 21.2288 30.1516 5.4435 5.1113 8.5760
431 26.3804 19.8484 28.7712 5.6184 4.9826 7.9153
432 28.7712 19.8484 26.3804 5.8646 5.1316 6.9267
433 33.5594 28.9406 31.2500 8.5445 8.3296 9.5572
434 33.5594 31.2500 28.9406 8.7457 9.0603 8.6126
435 31.2500 33.5594 28.9406 8.6777 9.6840 8.7365
436 28.9406 33.5594 31.2500 8.4142 9.5245 9.7947
437 28.9406 31.2500 33.5594 8.1944 8.7266 10.8263
438 31.2500 28.9406 33.5594 8.2567 8.1554 10.7128
439 36.4016 27.4788 29.8696 8.8718 8.1590 8.8527
440 36.4016 29.8696 27.4788 9.0686 8.8736 7.9289
441 35.0212 32.6304 26.0984 9.1258 9.6695 7.5189
442 32.6304 35.0212 26.0984 9.0517 10.3494 7.6541
443 29.8696 36.4016 27.4788 8.8710 10.6865 8.2892
444 27.4788 36.4016 29.8696 8.6133 10.5305 9.3241
445 26.0984 35.0212 32.6304 8.3272 9.9107 10.5636
446 26.0984 32.6304 35.0212 8.0876 9.0410 11.6880
447 27.4788 29.8696 36.4016 7.9745 8.2111 12.3226
448 29.8696 27.4788 36.4016 8.0354 7.6526 12.2116
449 32.6304 26.0984 35.0212 8.2588 7.4706 11.3759
450 35.0212 26.0984 32.6304 8.5725 7.6605 10.1163
451 39.8094 35.1906 37.5000 11.9916 11.7930 13.4566
452 39.8094 37.5000 35.1906 12.2440 12.7094 12.2718
453 37.5000 39.8094 35.1906 12.1598 13.4816 12.4253
454 35.1906 39.8094 37.5000 11.8293 13.2815 13.7525
455 35.1906 37.5000 39.8094 11.5571 12.2935 15.0298
456 37.5000 35.1906 39.8094 11.6352 11.5772 14.8874
457 42.6516 33.7288 36.1196 12.3773 11.5609 12.5730
458 42.6516 36.1196 33.7288 12.6263 12.4648 11.4044
459 41.2712 38.8804 32.3484 12.7031 13.4599 10.8742
460 38.8804 41.2712 32.3484 12.6120 14.2956 11.0403
461 36.1196 42.6516 33.7288 12.3825 14.7008 11.8488
462 33.7288 42.6516 36.1196 12.0564 14.5035 13.1579
463 32.3484 41.2712 38.8804 11.6995 13.7432 14.7045
464 32.3484 38.8804 41.2712 11.4050 12.6740 16.0868
465 33.7288 36.1196 42.6516 11.2685 11.6428 16.8562
466 36.1196 33.7288 42.6516 11.3456 10.9363 16.7158
467 38.8804 32.3484 41.2712 11.6207 10.6963 15.6937
468 41.2712 32.3484 38.8804 12.0063 10.9298 14.1453
