demo-projects/old/Demo-Report-Matrix-2026-08-10_231948/runs/run1/verifications/2026-08-09_100000/Demo-Report-Matrix-verify.ti3
CTI3   
KEYWORD "CHROMIQ_VERIFICATION"
CHROMIQ_VERIFICATION "true"

DESCRIPTOR "Argyll Calibration Target chart information 3"
ORIGINATOR "Argyll fakeread"
CREATED "Mon Aug 10 23:17:26 2026"
DEVICE_CLASS "DISPLAY"
COLOR_REP "iRGB_XYZ"

KEYWORD "CHROMIQ_MEASURED"
CHROMIQ_MEASURED "2026-08-09T10:00:00"
TARGET_INSTRUMENT "X-Rite ColorMunki"
NUMBER_OF_FIELDS 7
BEGIN_DATA_FORMAT
SAMPLE_ID RGB_R RGB_G RGB_B XYZ_X XYZ_Y XYZ_Z 
END_DATA_FORMAT

NUMBER_OF_SETS 108
BEGIN_DATA
1 107.7547 98.88450 86.10550 89.15871 96.12623 82.65523 
2 107.7547 98.88450 86.10550 89.42678 96.50657 83.21820 
3 107.7547 98.88450 86.10550 89.56057 97.04085 82.44360 
4 107.7547 98.88450 86.10550 88.61752 95.25576 81.83303 
5 0.00000 0.00000 0.00000 0.000875209 0.000727697 0.00115478 
6 0.00000 0.00000 0.00000 0.000272332 0.000235908 0.00103314 
7 0.00000 0.00000 0.00000 0.0000233728 0.0000465849 7.95342e-06 
8 0.00000 0.00000 0.00000 0.000667742 0.000557179 0.000312684 
9 104.1450 95.57200 83.22100 85.70833 90.61052 77.30922 
10 100.5470 92.27010 80.34590 82.19384 85.32527 70.84362 
11 96.95970 88.97810 77.47930 77.18558 80.72069 65.35946 
12 93.38480 85.69750 74.62270 70.93242 73.58038 61.24875 
13 89.82180 82.42780 71.77550 64.49038 66.88506 55.82080 
14 86.27060 79.16890 68.93780 59.20360 60.58914 50.59082 
15 82.73340 75.92290 66.11130 53.53369 55.98727 45.72881 
16 79.20870 72.68830 63.29470 48.92859 50.45666 42.30566 
17 75.69770 69.46640 60.48910 44.29107 45.59402 38.15309 
18 72.20110 66.25760 57.69500 40.42650 41.55108 34.60954 
19 68.72070 63.06370 54.91390 35.91346 37.11318 30.05863 
20 65.25510 59.88340 52.14450 32.27435 33.11482 27.91991 
21 61.80500 56.71730 49.38760 29.10602 29.99216 24.55805 
22 58.37170 53.56660 46.64410 25.14287 25.67915 21.28379 
23 54.95840 50.43430 43.91660 22.48054 23.31848 20.18911 
24 51.56210 47.31760 41.20270 19.07650 19.30482 16.15723 
25 48.18480 44.21830 38.50390 16.73554 17.54680 13.64694 
26 44.82930 41.13900 35.82250 13.96582 14.35962 11.77671 
27 41.49700 38.08100 33.15970 11.83789 12.08890 10.53675 
28 38.18500 35.04170 30.51320 9.968609 10.47206 8.409680 
29 34.90060 32.02760 27.88860 8.111199 8.202624 6.853418 
30 31.64510 29.04010 25.28720 6.677087 6.733148 5.732500 
31 28.41720 26.07790 22.70780 5.323865 5.696409 4.354190 
32 25.21900 23.14300 20.15220 4.252876 4.391994 3.467346 
33 22.05940 20.24350 17.62740 3.019859 3.243222 2.478494 
34 18.93730 17.37840 15.13250 2.128343 2.246766 1.784273 
35 15.86550 14.55950 12.67790 1.467057 1.572244 1.170218 
36 12.84510 11.78770 10.26430 0.943908 0.956186 0.847311 
37 9.879900 9.066600 7.894900 0.626922 0.679271 0.483749 
38 6.968200 6.394600 5.568200 0.254268 0.268950 0.192539 
39 13.05040 7.592500 87.95840 14.40350 6.140841 71.54162 
40 13.97150 33.27320 58.76180 9.755795 9.238212 32.13890 
41 106.3005 86.39160 25.46570 68.14297 73.87608 15.32562 
42 35.41340 99.15450 70.74310 47.71439 75.27548 56.29280 
43 23.81210 63.49250 70.88050 23.59630 30.78668 49.42261 
44 96.94400 0.00000 55.82790 43.96247 22.20500 29.13053 
45 91.01040 51.64230 40.42830 44.07808 34.41184 17.79648 
46 77.87420 43.60830 86.05570 42.69716 29.43291 70.92270 
47 73.42840 87.20000 46.12250 50.73842 64.84528 27.63977 
48 15.61980 43.81720 30.37250 7.758916 12.47142 8.595163 
49 59.54010 31.92900 38.67350 19.00260 14.11672 14.39992 
50 75.67850 72.14660 87.06070 53.48216 52.20910 77.92923 
51 77.41170 52.94010 67.23040 39.98761 33.08721 42.68030 
52 62.25810 82.99690 72.00360 47.81832 59.34656 55.07610 
53 26.75260 0.715500 31.60750 3.827266 1.812013 8.139857 
54 72.85430 62.80720 38.02660 35.60531 37.25719 17.08127 
55 25.36050 35.68920 87.80430 19.40125 14.11341 72.72986 
56 8.595800 10.44360 54.53750 5.231844 2.473971 25.25440 
57 82.46470 0.00000 27.10130 27.89101 14.34261 6.817845 
58 23.71810 67.56160 33.63940 19.11223 32.95273 14.22060 
59 40.09180 99.20250 86.56750 54.18248 78.52678 80.74745 
60 74.54130 53.50650 49.32670 34.71183 31.02565 23.73305 
61 21.86960 0.00000 11.30390 1.705738 0.864300 1.002772 
62 64.40150 98.98890 35.55550 53.33621 79.27567 22.37516 
63 91.61370 86.97700 86.59450 73.87798 75.08726 79.48456 
64 22.12270 60.62050 55.29910 18.60836 26.79323 29.84867 
65 82.57360 0.00000 12.44610 27.07110 14.01222 2.409928 
66 101.1700 98.87970 72.32890 85.08295 94.77785 60.50551 
67 40.51250 58.87090 75.62830 26.48055 28.56986 55.22136 
68 47.68940 31.85720 18.96990 11.67893 10.17057 3.761165 
69 65.78910 0.00000 56.23140 21.75673 10.69194 27.98775 
70 56.83820 25.29870 87.77270 27.28297 15.18109 72.60538 
71 92.39490 98.96920 81.67210 81.57907 92.45749 74.04900 
72 58.65710 54.52610 58.13540 27.51607 27.56499 33.16131 
73 7.981400 20.46600 27.91460 2.400334 2.861949 5.834880 
74 40.55470 42.41290 25.42740 12.39772 14.44407 7.000372 
75 59.07940 0.00000 35.62630 14.86971 7.491741 10.70604 
76 67.26030 85.41730 86.81640 56.04060 64.36499 80.18756 
77 57.21880 77.56680 54.53500 36.95868 48.64644 32.53923 
78 35.01690 11.55470 26.33470 5.538746 3.246985 5.521471 
79 100.9289 98.81370 46.67190 78.65951 90.67660 31.65354 
80 104.3940 55.44960 22.71350 51.77041 41.43343 9.172425 
81 32.60750 79.41060 62.65620 31.45610 47.08947 41.30323 
82 62.99430 26.70620 23.37140 17.85814 12.14340 5.371133 
83 42.37970 31.62680 45.84080 12.48569 10.71429 18.22474 
84 63.75380 0.00000 27.59390 16.37163 8.361973 6.623975 
85 46.77940 63.47970 25.66860 21.66832 30.39023 9.812420 
86 59.48700 99.04990 57.29020 53.54164 78.37665 40.10716 
87 90.66010 41.75440 47.36150 41.26143 28.36644 21.08094 
88 55.61710 3.228000 0.00000 11.58305 6.037443 0.612115 
89 51.63680 60.54240 57.45810 27.70378 31.75124 33.02293 
90 15.44940 40.47360 49.89820 9.351342 11.39461 22.02324 
91 15.48110 16.59440 0.00000 1.455453 1.859553 0.291910 
92 56.98610 26.89940 47.21500 17.71388 11.81250 20.24221 
93 103.6626 0.00000 87.49280 54.90072 26.91025 73.86495 
94 50.77730 54.06770 87.51450 31.71035 28.26857 73.30325 
95 39.54910 6.922400 14.51590 5.570266 2.998953 1.618007 
96 27.55830 20.13440 24.77040 4.465196 3.867271 5.021572 
97 85.28930 39.07600 57.85610 38.42712 26.03404 31.22790 
98 16.43190 43.75360 44.27510 9.368303 12.81587 17.54555 
99 71.71070 58.48450 13.05530 31.49021 32.76234 5.942230 
100 31.45630 85.20320 85.49370 41.15689 56.71729 75.47656 
101 100.0000 100.0000 100.0000 94.38830 99.67893 107.7067 
102 0.00000 0.00000 0.00000 0.000575353 0.000300328 0.0000304903 
103 100.0000 0.00000 0.00000 40.70337 21.10107 2.128989 
104 0.00000 100.0000 0.00000 35.35284 70.46180 12.03153 
105 0.00000 0.00000 100.0000 18.14784 7.364032 94.45588 
106 0.00000 100.0000 100.0000 53.81189 78.44686 106.5918 
107 100.0000 0.00000 100.0000 58.73442 28.45047 94.48300 
108 100.0000 100.0000 0.00000 76.90383 92.63632 14.32664 
END_DATA
