assets/charts/knut/rgb/i1prophoto/i1_photo_130x180mm_1296p_6pages_portrait_w8_0mm/chart.ti1
CTI1   

DESCRIPTOR "Argyll Calibration Target chart information 1"
ORIGINATOR "ChromIQ"
APPROX_WHITE_POINT "95.050000 100.000000 108.900000"
COLOR_REP "iRGB"
WHITE_COLOR_PATCHES "1"
BLACK_COLOR_PATCHES "1"
CREATED "Fri Sep 18 00:25:43 2026"

NUMBER_OF_FIELDS 7
BEGIN_DATA_FORMAT
SAMPLE_ID RGB_R RGB_G RGB_B XYZ_X XYZ_Y XYZ_Z
END_DATA_FORMAT

NUMBER_OF_SETS 1296
BEGIN_DATA
1 0.0000 0.0000 0.0000 0.9505 1.0000 1.0890
2 0.0000 0.0000 12.5000 1.2069 1.1026 2.4393
3 0.0000 0.0000 25.0000 1.8596 1.3637 5.8764
4 0.0000 0.0000 37.5000 3.0237 1.8293 12.0061
5 0.0000 0.0000 50.0000 4.7753 2.5299 21.2302
6 0.0000 0.0000 62.5000 7.1782 3.4911 33.8836
7 0.0000 0.0000 75.0000 10.2877 4.7349 50.2580
8 0.0000 0.0000 87.5000 14.1533 6.2811 70.6139
9 0.0000 0.0000 100.0000 18.8200 8.1478 95.1885
10 0.0000 12.5000 0.0000 1.4585 2.0160 1.2583
11 0.0000 12.5000 12.5000 1.7149 2.1186 2.6087
12 0.0000 12.5000 25.0000 2.3677 2.3797 6.0458
13 0.0000 12.5000 37.5000 3.5317 2.8453 12.1754
14 0.0000 12.5000 50.0000 5.2833 3.5460 21.3995
15 0.0000 12.5000 62.5000 7.6862 4.5071 34.0530
16 0.0000 12.5000 75.0000 10.7957 5.7509 50.4274
17 0.0000 12.5000 87.5000 14.6613 7.2972 70.7833
18 0.0000 12.5000 100.0000 19.3280 9.1638 95.3578
19 0.0000 25.0000 0.0000 2.7516 4.6023 1.6894
20 0.0000 25.0000 12.5000 3.0081 4.7048 3.0397
21 0.0000 25.0000 25.0000 3.6608 4.9659 6.4768
22 0.0000 25.0000 37.5000 4.8248 5.4315 12.6064
23 0.0000 25.0000 50.0000 6.5764 6.1322 21.8305
24 0.0000 25.0000 62.5000 8.9793 7.0934 34.4840
25 0.0000 25.0000 75.0000 12.0888 8.3372 50.8584
26 0.0000 25.0000 87.5000 15.9544 9.8834 71.2143
27 0.0000 25.0000 100.0000 20.6211 11.7501 95.7889
28 0.0000 37.5000 0.0000 5.0577 9.2145 2.4581
29 0.0000 37.5000 12.5000 5.3142 9.3171 3.8084
30 0.0000 37.5000 25.0000 5.9669 9.5782 7.2455
31 0.0000 37.5000 37.5000 7.1309 10.0438 13.3751
32 0.0000 37.5000 50.0000 8.8826 10.7444 22.5992
33 0.0000 37.5000 62.5000 11.2855 11.7056 35.2527
34 0.0000 37.5000 75.0000 14.3949 12.9494 51.6271
35 0.0000 37.5000 87.5000 18.2605 14.4956 71.9830
36 0.0000 37.5000 100.0000 22.9272 16.3623 96.5576
37 0.0000 50.0000 0.0000 8.5281 16.1551 3.6149
38 0.0000 50.0000 12.5000 8.7845 16.2577 4.9652
39 0.0000 50.0000 25.0000 9.4372 16.5188 8.4023
40 0.0000 50.0000 37.5000 10.6012 16.9844 14.5319
41 0.0000 50.0000 50.0000 12.3529 17.6851 23.7560
42 0.0000 50.0000 62.5000 14.7558 18.6462 36.4095
43 0.0000 50.0000 75.0000 17.8653 19.8900 52.7839
44 0.0000 50.0000 87.5000 21.7309 21.4363 73.1398
45 0.0000 50.0000 100.0000 26.3976 23.3029 97.7144
46 0.0000 62.5000 0.0000 13.2886 25.6762 5.2017
47 0.0000 62.5000 12.5000 13.5450 25.7788 6.5520
48 0.0000 62.5000 25.0000 14.1977 26.0398 9.9891
49 0.0000 62.5000 37.5000 15.3617 26.5055 16.1188
50 0.0000 62.5000 50.0000 17.1134 27.2061 25.3429
51 0.0000 62.5000 62.5000 19.5163 28.1673 37.9963
52 0.0000 62.5000 75.0000 22.6258 29.4111 54.3707
53 0.0000 62.5000 87.5000 26.4914 30.9573 74.7266
54 0.0000 62.5000 100.0000 31.1581 32.8240 99.3012
55 0.0000 75.0000 0.0000 19.4490 37.9970 7.2552
56 0.0000 75.0000 12.5000 19.7054 38.0996 8.6055
57 0.0000 75.0000 25.0000 20.3581 38.3607 12.0426
58 0.0000 75.0000 37.5000 21.5222 38.8263 18.1722
59 0.0000 75.0000 50.0000 23.2738 39.5270 27.3963
60 0.0000 75.0000 62.5000 25.6767 40.4881 40.0498
61 0.0000 75.0000 75.0000 28.7862 41.7319 56.4242
62 0.0000 75.0000 87.5000 32.6518 43.2781 76.7801
63 0.0000 75.0000 100.0000 37.3185 45.1448 101.3547
64 0.0000 87.5000 0.0000 27.1074 53.3138 9.8080
65 0.0000 87.5000 12.5000 27.3638 53.4163 11.1583
66 0.0000 87.5000 25.0000 28.0165 53.6774 14.5954
67 0.0000 87.5000 37.5000 29.1805 54.1430 20.7250
68 0.0000 87.5000 50.0000 30.9322 54.8437 29.9491
69 0.0000 87.5000 62.5000 33.3351 55.8048 42.6026
70 0.0000 87.5000 75.0000 36.4446 57.0486 58.9770
71 0.0000 87.5000 87.5000 40.3102 58.5949 79.3329
72 0.0000 87.5000 100.0000 44.9769 60.4616 103.9075
73 0.0000 100.0000 0.0000 36.3529 71.8048 12.8898
74 0.0000 100.0000 12.5000 36.6093 71.9074 14.2401
75 0.0000 100.0000 25.0000 37.2620 72.1685 17.6772
76 0.0000 100.0000 37.5000 38.4261 72.6341 23.8069
77 0.0000 100.0000 50.0000 40.1777 73.3347 33.0310
78 0.0000 100.0000 62.5000 42.5806 74.2959 45.6844
79 0.0000 100.0000 75.0000 45.6901 75.5397 62.0588
80 0.0000 100.0000 87.5000 49.5557 77.0859 82.4147
81 0.0000 100.0000 100.0000 54.2224 78.9526 106.9893
82 12.5000 0.0000 0.0000 1.5364 1.3020 1.1164
83 12.5000 0.0000 12.5000 1.7928 1.4046 2.4667
84 12.5000 0.0000 25.0000 2.4455 1.6657 5.9038
85 12.5000 0.0000 37.5000 3.6095 2.1313 12.0335
86 12.5000 0.0000 50.0000 5.3612 2.8320 21.2576
87 12.5000 0.0000 62.5000 7.7641 3.7931 33.9111
88 12.5000 0.0000 75.0000 10.8736 5.0369 50.2854
89 12.5000 0.0000 87.5000 14.7392 6.5831 70.6413
90 12.5000 0.0000 100.0000 19.4059 8.4498 95.2159
91 12.5000 12.5000 0.0000 2.0444 2.3181 1.2858
92 12.5000 12.5000 12.5000 2.3008 2.4206 2.6361
93 12.5000 12.5000 25.0000 2.9535 2.6817 6.0732
94 12.5000 12.5000 37.5000 4.1175 3.1473 12.2028
95 12.5000 12.5000 50.0000 5.8692 3.8480 21.4269
96 12.5000 12.5000 62.5000 8.2721 4.8091 34.0804
97 12.5000 12.5000 75.0000 11.3816 6.0529 50.4548
98 12.5000 12.5000 87.5000 15.2472 7.5992 70.8107
99 12.5000 12.5000 100.0000 19.9139 9.4659 95.3853
100 12.5000 25.0000 0.0000 3.3375 4.9043 1.7168
101 12.5000 25.0000 12.5000 3.5939 5.0069 3.0671
102 12.5000 25.0000 25.0000 4.2466 5.2680 6.5042
103 12.5000 25.0000 37.5000 5.4107 5.7336 12.6339
104 12.5000 25.0000 50.0000 7.1623 6.4342 21.8580
105 12.5000 25.0000 62.5000 9.5652 7.3954 34.5114
106 12.5000 25.0000 75.0000 12.6747 8.6392 50.8858
107 12.5000 25.0000 87.5000 16.5403 10.1854 71.2417
108 12.5000 25.0000 100.0000 21.2070 12.0521 95.8163
109 12.5000 37.5000 0.0000 5.6436 9.5165 2.4855
110 12.5000 37.5000 12.5000 5.9000 9.6191 3.8358
111 12.5000 37.5000 25.0000 6.5528 9.8802 7.2729
112 12.5000 37.5000 37.5000 7.7168 10.3458 13.4026
113 12.5000 37.5000 50.0000 9.4684 11.0464 22.6267
114 12.5000 37.5000 62.5000 11.8713 12.0076 35.2801
115 12.5000 37.5000 75.0000 14.9808 13.2514 51.6545
116 12.5000 37.5000 87.5000 18.8464 14.7976 72.0104
117 12.5000 37.5000 100.0000 23.5131 16.6643 96.5850
118 12.5000 50.0000 0.0000 9.1139 16.4572 3.6423
119 12.5000 50.0000 12.5000 9.3704 16.5597 4.9926
120 12.5000 50.0000 25.0000 10.0231 16.8208 8.4297
121 12.5000 50.0000 37.5000 11.1871 17.2864 14.5593
122 12.5000 50.0000 50.0000 12.9387 17.9871 23.7834
123 12.5000 50.0000 62.5000 15.3416 18.9482 36.4369
124 12.5000 50.0000 75.0000 18.4511 20.1920 52.8113
125 12.5000 50.0000 87.5000 22.3167 21.7383 73.1672
126 12.5000 50.0000 100.0000 26.9834 23.6050 97.7418
127 12.5000 62.5000 0.0000 13.8745 25.9782 5.2291
128 12.5000 62.5000 12.5000 14.1309 26.0808 6.5794
129 12.5000 62.5000 25.0000 14.7836 26.3419 10.0165
130 12.5000 62.5000 37.5000 15.9476 26.8075 16.1462
131 12.5000 62.5000 50.0000 17.6993 27.5081 25.3703
132 12.5000 62.5000 62.5000 20.1022 28.4693 38.0238
133 12.5000 62.5000 75.0000 23.2117 29.7131 54.3981
134 12.5000 62.5000 87.5000 27.0773 31.2593 74.7540
135 12.5000 62.5000 100.0000 31.7440 33.1260 99.3286
136 12.5000 75.0000 0.0000 20.0349 38.2991 7.2826
137 12.5000 75.0000 12.5000 20.2913 38.4016 8.6329
138 12.5000 75.0000 25.0000 20.9440 38.6627 12.0700
139 12.5000 75.0000 37.5000 22.1080 39.1283 18.1997
140 12.5000 75.0000 50.0000 23.8597 39.8290 27.4238
141 12.5000 75.0000 62.5000 26.2626 40.7901 40.0772
142 12.5000 75.0000 75.0000 29.3721 42.0339 56.4516
143 12.5000 75.0000 87.5000 33.2377 43.5802 76.8075
144 12.5000 75.0000 100.0000 37.9044 45.4469 101.3821
145 12.5000 87.5000 0.0000 27.6932 53.6158 9.8354
146 12.5000 87.5000 12.5000 27.9497 53.7184 11.1857
147 12.5000 87.5000 25.0000 28.6024 53.9794 14.6228
148 12.5000 87.5000 37.5000 29.7664 54.4450 20.7524
149 12.5000 87.5000 50.0000 31.5181 55.1457 29.9765
150 12.5000 87.5000 62.5000 33.9210 56.1069 42.6300
151 12.5000 87.5000 75.0000 37.0304 57.3507 59.0044
152 12.5000 87.5000 87.5000 40.8960 58.8969 79.3603
153 12.5000 87.5000 100.0000 45.5627 60.7636 103.9349
154 12.5000 100.0000 0.0000 36.9388 72.1068 12.9172
155 12.5000 100.0000 12.5000 37.1952 72.2094 14.2675
156 12.5000 100.0000 25.0000 37.8479 72.4705 17.7046
157 12.5000 100.0000 37.5000 39.0119 72.9361 23.8343
158 12.5000 100.0000 50.0000 40.7636 73.6368 33.0584
159 12.5000 100.0000 62.5000 43.1665 74.5979 45.7119
160 12.5000 100.0000 75.0000 46.2760 75.8417 62.0862
161 12.5000 100.0000 87.5000 50.1416 77.3879 82.4421
162 12.5000 100.0000 100.0000 54.8083 79.2546 107.0167
163 25.0000 0.0000 0.0000 3.0276 2.0708 1.1862
164 25.0000 0.0000 12.5000 3.2841 2.1734 2.5365
165 25.0000 0.0000 25.0000 3.9368 2.4345 5.9736
166 25.0000 0.0000 37.5000 5.1008 2.9001 12.1033
167 25.0000 0.0000 50.0000 6.8525 3.6007 21.3274
168 25.0000 0.0000 62.5000 9.2554 4.5619 33.9808
169 25.0000 0.0000 75.0000 12.3648 5.8057 50.3552
170 25.0000 0.0000 87.5000 16.2304 7.3519 70.7111
171 25.0000 0.0000 100.0000 20.8971 9.2186 95.2857
172 25.0000 12.5000 0.0000 3.5357 3.0868 1.3555
173 25.0000 12.5000 12.5000 3.7921 3.1894 2.7059
174 25.0000 12.5000 25.0000 4.4448 3.4505 6.1430
175 25.0000 12.5000 37.5000 5.6088 3.9161 12.2726
176 25.0000 12.5000 50.0000 7.3605 4.6168 21.4967
177 25.0000 12.5000 62.5000 9.7634 5.5779 34.1502
178 25.0000 12.5000 75.0000 12.8729 6.8217 50.5246
179 25.0000 12.5000 87.5000 16.7385 8.3680 70.8805
180 25.0000 12.5000 100.0000 21.4052 10.2346 95.4550
181 25.0000 25.0000 0.0000 4.8288 5.6731 1.7866
182 25.0000 25.0000 12.5000 5.0852 5.7757 3.1369
183 25.0000 25.0000 25.0000 5.7379 6.0367 6.5740
184 25.0000 25.0000 37.5000 6.9019 6.5023 12.7036
185 25.0000 25.0000 50.0000 8.6536 7.2030 21.9278
186 25.0000 25.0000 62.5000 11.0565 8.1642 34.5812
187 25.0000 25.0000 75.0000 14.1660 9.4080 50.9556
188 25.0000 25.0000 87.5000 18.0316 10.9542 71.3115
189 25.0000 25.0000 100.0000 22.6983 12.8209 95.8861
190 25.0000 37.5000 0.0000 7.1349 10.2853 2.5553
191 25.0000 37.5000 12.5000 7.3913 10.3879 3.9056
192 25.0000 37.5000 25.0000 8.0440 10.6490 7.3427
193 25.0000 37.5000 37.5000 9.2080 11.1146 13.4724
194 25.0000 37.5000 50.0000 10.9597 11.8152 22.6965
195 25.0000 37.5000 62.5000 13.3626 12.7764 35.3499
196 25.0000 37.5000 75.0000 16.4721 14.0202 51.7243
197 25.0000 37.5000 87.5000 20.3377 15.5664 72.0802
198 25.0000 37.5000 100.0000 25.0044 17.4331 96.6548
199 25.0000 50.0000 0.0000 10.6052 17.2259 3.7121
200 25.0000 50.0000 12.5000 10.8616 17.3285 5.0624
201 25.0000 50.0000 25.0000 11.5143 17.5896 8.4995
202 25.0000 50.0000 37.5000 12.6784 18.0552 14.6291
203 25.0000 50.0000 50.0000 14.4300 18.7559 23.8532
204 25.0000 50.0000 62.5000 16.8329 19.7170 36.5067
205 25.0000 50.0000 75.0000 19.9424 20.9608 52.8811
206 25.0000 50.0000 87.5000 23.8080 22.5071 73.2370
207 25.0000 50.0000 100.0000 28.4747 24.3737 97.8116
208 25.0000 62.5000 0.0000 15.3657 26.7470 5.2989
209 25.0000 62.5000 12.5000 15.6222 26.8496 6.6492
210 25.0000 62.5000 25.0000 16.2749 27.1107 10.0863
211 25.0000 62.5000 37.5000 17.4389 27.5763 16.2160
212 25.0000 62.5000 50.0000 19.1906 28.2769 25.4401
213 25.0000 62.5000 62.5000 21.5934 29.2381 38.0935
214 25.0000 62.5000 75.0000 24.7029 30.4819 54.4679
215 25.0000 62.5000 87.5000 28.5685 32.0281 74.8238
216 25.0000 62.5000 100.0000 33.2352 33.8948 99.3984
217 25.0000 75.0000 0.0000 21.5262 39.0678 7.3524
218 25.0000 75.0000 12.5000 21.7826 39.1704 8.7027
219 25.0000 75.0000 25.0000 22.4353 39.4315 12.1398
220 25.0000 75.0000 37.5000 23.5993 39.8971 18.2694
221 25.0000 75.0000 50.0000 25.3510 40.5978 27.4935
222 25.0000 75.0000 62.5000 27.7539 41.5589 40.1470
223 25.0000 75.0000 75.0000 30.8634 42.8027 56.5214
224 25.0000 75.0000 87.5000 34.7290 44.3490 76.8773
225 25.0000 75.0000 100.0000 39.3957 46.2156 101.4519
226 25.0000 87.5000 0.0000 29.1845 54.3846 9.9052
227 25.0000 87.5000 12.5000 29.4409 54.4871 11.2555
228 25.0000 87.5000 25.0000 30.0937 54.7482 14.6926
229 25.0000 87.5000 37.5000 31.2577 55.2138 20.8222
230 25.0000 87.5000 50.0000 33.0093 55.9145 30.0463
231 25.0000 87.5000 62.5000 35.4122 56.8756 42.6998
232 25.0000 87.5000 75.0000 38.5217 58.1194 59.0742
233 25.0000 87.5000 87.5000 42.3873 59.6657 79.4301
234 25.0000 87.5000 100.0000 47.0540 61.5324 104.0047
235 25.0000 100.0000 0.0000 38.4300 72.8756 12.9870
236 25.0000 100.0000 12.5000 38.6865 72.9782 14.3373
237 25.0000 100.0000 25.0000 39.3392 73.2393 17.7744
238 25.0000 100.0000 37.5000 40.5032 73.7049 23.9041
239 25.0000 100.0000 50.0000 42.2549 74.4055 33.1282
240 25.0000 100.0000 62.5000 44.6578 75.3667 45.7816
241 25.0000 100.0000 75.0000 47.7672 76.6105 62.1560
242 25.0000 100.0000 87.5000 51.6328 78.1567 82.5119
243 25.0000 100.0000 100.0000 56.2995 80.0234 107.0865
244 37.5000 0.0000 0.0000 5.6872 3.4418 1.3107
245 37.5000 0.0000 12.5000 5.9436 3.5444 2.6610
246 37.5000 0.0000 25.0000 6.5963 3.8055 6.0981
247 37.5000 0.0000 37.5000 7.7603 4.2711 12.2277
248 37.5000 0.0000 50.0000 9.5120 4.9718 21.4518
249 37.5000 0.0000 62.5000 11.9149 5.9329 34.1053
250 37.5000 0.0000 75.0000 15.0244 7.1767 50.4797
251 37.5000 0.0000 87.5000 18.8899 8.7230 70.8356
252 37.5000 0.0000 100.0000 23.5567 10.5896 95.4102
253 37.5000 12.5000 0.0000 6.1952 4.4579 1.4800
254 37.5000 12.5000 12.5000 6.4516 4.5604 2.8303
255 37.5000 12.5000 25.0000 7.1043 4.8215 6.2674
256 37.5000 12.5000 37.5000 8.2683 5.2871 12.3971
257 37.5000 12.5000 50.0000 10.0200 5.9878 21.6212
258 37.5000 12.5000 62.5000 12.4229 6.9490 34.2746
259 37.5000 12.5000 75.0000 15.5324 8.1928 50.6490
260 37.5000 12.5000 87.5000 19.3980 9.7390 71.0049
261 37.5000 12.5000 100.0000 24.0647 11.6057 95.5795
262 37.5000 25.0000 0.0000 7.4883 7.0441 1.9111
263 37.5000 25.0000 12.5000 7.7447 7.1467 3.2614
264 37.5000 25.0000 25.0000 8.3974 7.4078 6.6985
265 37.5000 25.0000 37.5000 9.5614 7.8734 12.8281
266 37.5000 25.0000 50.0000 11.3131 8.5740 22.0522
267 37.5000 25.0000 62.5000 13.7160 9.5352 34.7057
268 37.5000 25.0000 75.0000 16.8255 10.7790 51.0801
269 37.5000 25.0000 87.5000 20.6911 12.3252 71.4360
270 37.5000 25.0000 100.0000 25.3578 14.1919 96.0106
271 37.5000 37.5000 0.0000 9.7944 11.6563 2.6798
272 37.5000 37.5000 12.5000 10.0508 11.7589 4.0301
273 37.5000 37.5000 25.0000 10.7035 12.0200 7.4672
274 37.5000 37.5000 37.5000 11.8676 12.4856 13.5968
275 37.5000 37.5000 50.0000 13.6192 13.1863 22.8209
276 37.5000 37.5000 62.5000 16.0221 14.1474 35.4744
277 37.5000 37.5000 75.0000 19.1316 15.3912 51.8488
278 37.5000 37.5000 87.5000 22.9972 16.9375 72.2047
279 37.5000 37.5000 100.0000 27.6639 18.8041 96.7793
280 37.5000 50.0000 0.0000 13.2647 18.5970 3.8365
281 37.5000 50.0000 12.5000 13.5212 18.6995 5.1868
282 37.5000 50.0000 25.0000 14.1739 18.9606 8.6239
283 37.5000 50.0000 37.5000 15.3379 19.4262 14.7536
284 37.5000 50.0000 50.0000 17.0895 20.1269 23.9777
285 37.5000 50.0000 62.5000 19.4924 21.0881 36.6312
286 37.5000 50.0000 75.0000 22.6019 22.3319 53.0055
287 37.5000 50.0000 87.5000 26.4675 23.8781 73.3614
288 37.5000 50.0000 100.0000 31.1342 25.7448 97.9360
289 37.5000 62.5000 0.0000 18.0253 28.1180 5.4234
290 37.5000 62.5000 12.5000 18.2817 28.2206 6.7737
291 37.5000 62.5000 25.0000 18.9344 28.4817 10.2108
292 37.5000 62.5000 37.5000 20.0984 28.9473 16.3404
293 37.5000 62.5000 50.0000 21.8501 29.6480 25.5645
294 37.5000 62.5000 62.5000 24.2530 30.6091 38.2180
295 37.5000 62.5000 75.0000 27.3625 31.8529 54.5924
296 37.5000 62.5000 87.5000 31.2280 33.3991 74.9483
297 37.5000 62.5000 100.0000 35.8948 35.2658 99.5229
298 37.5000 75.0000 0.0000 24.1857 40.4389 7.4768
299 37.5000 75.0000 12.5000 24.4421 40.5414 8.8272
300 37.5000 75.0000 25.0000 25.0948 40.8025 12.2643
301 37.5000 75.0000 37.5000 26.2588 41.2681 18.3939
302 37.5000 75.0000 50.0000 28.0105 41.9688 27.6180
303 37.5000 75.0000 62.5000 30.4134 42.9300 40.2715
304 37.5000 75.0000 75.0000 33.5229 44.1738 56.6459
305 37.5000 75.0000 87.5000 37.3885 45.7200 77.0018
306 37.5000 75.0000 100.0000 42.0552 47.5867 101.5763
307 37.5000 87.5000 0.0000 31.8440 55.7556 10.0296
308 37.5000 87.5000 12.5000 32.1005 55.8582 11.3799
309 37.5000 87.5000 25.0000 32.7532 56.1192 14.8170
310 37.5000 87.5000 37.5000 33.9172 56.5849 20.9467
311 37.5000 87.5000 50.0000 35.6688 57.2855 30.1708
312 37.5000 87.5000 62.5000 38.0717 58.2467 42.8243
313 37.5000 87.5000 75.0000 41.1812 59.4905 59.1986
314 37.5000 87.5000 87.5000 45.0468 61.0367 79.5545
315 37.5000 87.5000 100.0000 49.7135 62.9034 104.1291
316 37.5000 100.0000 0.0000 41.0896 74.2466 13.1115
317 37.5000 100.0000 12.5000 41.3460 74.3492 14.4618
318 37.5000 100.0000 25.0000 41.9987 74.6103 17.8989
319 37.5000 100.0000 37.5000 43.1627 75.0759 24.0285
320 37.5000 100.0000 50.0000 44.9144 75.7766 33.2526
321 37.5000 100.0000 62.5000 47.3173 76.7377 45.9061
322 37.5000 100.0000 75.0000 50.4268 77.9815 62.2805
323 37.5000 100.0000 87.5000 54.2923 79.5278 82.6364
324 37.5000 100.0000 100.0000 58.9591 81.3944 107.2110
325 50.0000 0.0000 0.0000 9.6893 5.5050 1.4980
326 50.0000 0.0000 12.5000 9.9457 5.6076 2.8483
327 50.0000 0.0000 25.0000 10.5984 5.8687 6.2854
328 50.0000 0.0000 37.5000 11.7624 6.3343 12.4150
329 50.0000 0.0000 50.0000 13.5141 7.0349 21.6391
330 50.0000 0.0000 62.5000 15.9170 7.9961 34.2926
331 50.0000 0.0000 75.0000 19.0265 9.2399 50.6670
332 50.0000 0.0000 87.5000 22.8921 10.7861 71.0229
333 50.0000 0.0000 100.0000 27.5588 12.6528 95.5975
334 50.0000 12.5000 0.0000 10.1973 6.5210 1.6673
335 50.0000 12.5000 12.5000 10.4537 6.6236 3.0176
336 50.0000 12.5000 25.0000 11.1064 6.8847 6.4547
337 50.0000 12.5000 37.5000 12.2705 7.3503 12.5844
338 50.0000 12.5000 50.0000 14.0221 8.0510 21.8085
339 50.0000 12.5000 62.5000 16.4250 9.0121 34.4619
340 50.0000 12.5000 75.0000 19.5345 10.2559 50.8363
341 50.0000 12.5000 87.5000 23.4001 11.8022 71.1922
342 50.0000 12.5000 100.0000 28.0668 13.6688 95.7668
343 50.0000 25.0000 0.0000 11.4904 9.1073 2.0983
344 50.0000 25.0000 12.5000 11.7468 9.2099 3.4487
345 50.0000 25.0000 25.0000 12.3996 9.4709 6.8858
346 50.0000 25.0000 37.5000 13.5636 9.9365 13.0154
347 50.0000 25.0000 50.0000 15.3152 10.6372 22.2395
348 50.0000 25.0000 62.5000 17.7181 11.5984 34.8930
349 50.0000 25.0000 75.0000 20.8276 12.8422 51.2674
350 50.0000 25.0000 87.5000 24.6932 14.3884 71.6233
351 50.0000 25.0000 100.0000 29.3599 16.2551 96.1978
352 50.0000 37.5000 0.0000 13.7965 13.7195 2.8671
353 50.0000 37.5000 12.5000 14.0530 13.8221 4.2174
354 50.0000 37.5000 25.0000 14.7057 14.0832 7.6545
355 50.0000 37.5000 37.5000 15.8697 14.5488 13.7841
356 50.0000 37.5000 50.0000 17.6213 15.2494 23.0082
357 50.0000 37.5000 62.5000 20.0242 16.2106 35.6617
358 50.0000 37.5000 75.0000 23.1337 17.4544 52.0361
359 50.0000 37.5000 87.5000 26.9993 19.0006 72.3920
360 50.0000 37.5000 100.0000 31.6660 20.8673 96.9666
361 50.0000 50.0000 0.0000 17.2669 20.6601 4.0238
362 50.0000 50.0000 12.5000 17.5233 20.7627 5.3741
363 50.0000 50.0000 25.0000 18.1760 21.0238 8.8112
364 50.0000 50.0000 37.5000 19.3400 21.4894 14.9409
365 50.0000 50.0000 50.0000 21.0917 22.1901 24.1650
366 50.0000 50.0000 62.5000 23.4946 23.1512 36.8185
367 50.0000 50.0000 75.0000 26.6041 24.3950 53.1928
368 50.0000 50.0000 87.5000 30.4696 25.9413 73.5487
369 50.0000 50.0000 100.0000 35.1364 27.8079 98.1233
370 50.0000 62.5000 0.0000 22.0274 30.1812 5.6107
371 50.0000 62.5000 12.5000 22.2838 30.2838 6.9610
372 50.0000 62.5000 25.0000 22.9365 30.5449 10.3981
373 50.0000 62.5000 37.5000 24.1005 31.0105 16.5277
374 50.0000 62.5000 50.0000 25.8522 31.7111 25.7518
375 50.0000 62.5000 62.5000 28.2551 32.6723 38.4053
376 50.0000 62.5000 75.0000 31.3646 33.9161 54.7797
377 50.0000 62.5000 87.5000 35.2302 35.4623 75.1356
378 50.0000 62.5000 100.0000 39.8969 37.3290 99.7102
379 50.0000 75.0000 0.0000 28.1878 42.5020 7.6641
380 50.0000 75.0000 12.5000 28.4442 42.6046 9.0145
381 50.0000 75.0000 25.0000 29.0969 42.8657 12.4516
382 50.0000 75.0000 37.5000 30.2610 43.3313 18.5812
383 50.0000 75.0000 50.0000 32.0126 44.0320 27.8053
384 50.0000 75.0000 62.5000 34.4155 44.9931 40.4588
385 50.0000 75.0000 75.0000 37.5250 46.2369 56.8332
386 50.0000 75.0000 87.5000 41.3906 47.7832 77.1891
387 50.0000 75.0000 100.0000 46.0573 49.6498 101.7636
388 50.0000 87.5000 0.0000 35.8462 57.8188 10.2169
389 50.0000 87.5000 12.5000 36.1026 57.9213 11.5672
390 50.0000 87.5000 25.0000 36.7553 58.1824 15.0043
391 50.0000 87.5000 37.5000 37.9193 58.6480 21.1340
392 50.0000 87.5000 50.0000 39.6710 59.3487 30.3581
393 50.0000 87.5000 62.5000 42.0739 60.3098 43.0116
394 50.0000 87.5000 75.0000 45.1834 61.5536 59.3859
395 50.0000 87.5000 87.5000 49.0489 63.0999 79.7418
396 50.0000 87.5000 100.0000 53.7157 64.9666 104.3164
397 50.0000 100.0000 0.0000 45.0917 76.3098 13.2988
398 50.0000 100.0000 12.5000 45.3481 76.4124 14.6491
399 50.0000 100.0000 25.0000 46.0008 76.6735 18.0862
400 50.0000 100.0000 37.5000 47.1648 77.1391 24.2158
401 50.0000 100.0000 50.0000 48.9165 77.8397 33.4399
402 50.0000 100.0000 62.5000 51.3194 78.8009 46.0934
403 50.0000 100.0000 75.0000 54.4289 80.0447 62.4678
404 50.0000 100.0000 87.5000 58.2945 81.5909 82.8237
405 50.0000 100.0000 100.0000 62.9612 83.4576 107.3983
406 62.5000 0.0000 0.0000 15.1793 8.3352 1.7549
407 62.5000 0.0000 12.5000 15.4358 8.4378 3.1052
408 62.5000 0.0000 25.0000 16.0885 8.6989 6.5423
409 62.5000 0.0000 37.5000 17.2525 9.1645 12.6720
410 62.5000 0.0000 50.0000 19.0041 9.8652 21.8961
411 62.5000 0.0000 62.5000 21.4070 10.8263 34.5495
412 62.5000 0.0000 75.0000 24.5165 12.0701 50.9239
413 62.5000 0.0000 87.5000 28.3821 13.6163 71.2798
414 62.5000 0.0000 100.0000 33.0488 15.4830 95.8544
415 62.5000 12.5000 0.0000 15.6874 9.3513 1.9242
416 62.5000 12.5000 12.5000 15.9438 9.4538 3.2746
417 62.5000 12.5000 25.0000 16.5965 9.7149 6.7117
418 62.5000 12.5000 37.5000 17.7605 10.1805 12.8413
419 62.5000 12.5000 50.0000 19.5122 10.8812 22.0654
420 62.5000 12.5000 62.5000 21.9151 11.8424 34.7189
421 62.5000 12.5000 75.0000 25.0246 13.0862 51.0933
422 62.5000 12.5000 87.5000 28.8901 14.6324 71.4492
423 62.5000 12.5000 100.0000 33.5569 16.4991 96.0237
424 62.5000 25.0000 0.0000 16.9805 11.9375 2.3553
425 62.5000 25.0000 12.5000 17.2369 12.0401 3.7056
426 62.5000 25.0000 25.0000 17.8896 12.3012 7.1427
427 62.5000 25.0000 37.5000 19.0536 12.7668 13.2723
428 62.5000 25.0000 50.0000 20.8053 13.4674 22.4964
429 62.5000 25.0000 62.5000 23.2082 14.4286 35.1499
430 62.5000 25.0000 75.0000 26.3177 15.6724 51.5243
431 62.5000 25.0000 87.5000 30.1833 17.2186 71.8802
432 62.5000 25.0000 100.0000 34.8500 19.0853 96.4548
433 62.5000 37.5000 0.0000 19.2866 16.5497 3.1240
434 62.5000 37.5000 12.5000 19.5430 16.6523 4.4743
435 62.5000 37.5000 25.0000 20.1957 16.9134 7.9114
436 62.5000 37.5000 37.5000 21.3597 17.3790 14.0410
437 62.5000 37.5000 50.0000 23.1114 18.0797 23.2651
438 62.5000 37.5000 62.5000 25.5143 19.0408 35.9186
439 62.5000 37.5000 75.0000 28.6238 20.2846 52.2930
440 62.5000 37.5000 87.5000 32.4894 21.8308 72.6489
441 62.5000 37.5000 100.0000 37.1561 23.6975 97.2235
442 62.5000 50.0000 0.0000 22.7569 23.4904 4.2808
443 62.5000 50.0000 12.5000 23.0133 23.5929 5.6311
444 62.5000 50.0000 25.0000 23.6660 23.8540 9.0682
445 62.5000 50.0000 37.5000 24.8301 24.3196 15.1978
446 62.5000 50.0000 50.0000 26.5817 25.0203 24.4219
447 62.5000 50.0000 62.5000 28.9846 25.9815 37.0754
448 62.5000 50.0000 75.0000 32.0941 27.2253 53.4498
449 62.5000 50.0000 87.5000 35.9597 28.7715 73.8057
450 62.5000 50.0000 100.0000 40.6264 30.6382 98.3803
451 62.5000 62.5000 0.0000 27.5174 33.0114 5.8676
452 62.5000 62.5000 12.5000 27.7739 33.1140 7.2179
453 62.5000 62.5000 25.0000 28.4266 33.3751 10.6550
454 62.5000 62.5000 37.5000 29.5906 33.8407 16.7847
455 62.5000 62.5000 50.0000 31.3422 34.5414 26.0088
456 62.5000 62.5000 62.5000 33.7451 35.5025 38.6622
457 62.5000 62.5000 75.0000 36.8546 36.7463 55.0366
458 62.5000 62.5000 87.5000 40.7202 38.2925 75.3925
459 62.5000 62.5000 100.0000 45.3869 40.1592 99.9671
460 62.5000 75.0000 0.0000 33.6779 45.3323 7.9211
461 62.5000 75.0000 12.5000 33.9343 45.4348 9.2714
462 62.5000 75.0000 25.0000 34.5870 45.6959 12.7085
463 62.5000 75.0000 37.5000 35.7510 46.1615 18.8381
464 62.5000 75.0000 50.0000 37.5027 46.8622 28.0622
