assets/charts/knut/rgb/i1pro3/p3_letter_286p_2pages_portrait_w16_0mm/chart.ti1
CTI1   

DESCRIPTOR "Argyll Calibration Target chart information 1"
ORIGINATOR "ChromIQ"
APPROX_WHITE_POINT "95.050000 100.000000 108.900000"
COLOR_REP "iRGB"
WHITE_COLOR_PATCHES "1"
BLACK_COLOR_PATCHES "1"
CREATED "Tue Aug 18 17:10:44 2026"

NUMBER_OF_FIELDS 7
BEGIN_DATA_FORMAT
SAMPLE_ID RGB_R RGB_G RGB_B XYZ_X XYZ_Y XYZ_Z
END_DATA_FORMAT

NUMBER_OF_SETS 286
BEGIN_DATA
1 0.0000 0.0000 0.0000 0.9505 1.0000 1.0890
2 0.0000 0.0000 25.0000 1.8596 1.3637 5.8764
3 0.0000 0.0000 50.0000 4.7753 2.5299 21.2302
4 0.0000 0.0000 75.0000 10.2877 4.7349 50.2580
5 0.0000 0.0000 100.0000 18.8200 8.1478 95.1885
6 0.0000 25.0000 0.0000 2.7516 4.6023 1.6894
7 0.0000 25.0000 25.0000 3.6608 4.9659 6.4768
8 0.0000 25.0000 50.0000 6.5764 6.1322 21.8305
9 0.0000 25.0000 75.0000 12.0888 8.3372 50.8584
10 0.0000 25.0000 100.0000 20.6211 11.7501 95.7889
11 0.0000 50.0000 0.0000 8.5281 16.1551 3.6149
12 0.0000 50.0000 25.0000 9.4372 16.5188 8.4023
13 0.0000 50.0000 50.0000 12.3529 17.6851 23.7560
14 0.0000 50.0000 75.0000 17.8653 19.8900 52.7839
15 0.0000 50.0000 100.0000 26.3976 23.3029 97.7144
16 0.0000 75.0000 0.0000 19.4490 37.9970 7.2552
17 0.0000 75.0000 25.0000 20.3581 38.3607 12.0426
18 0.0000 75.0000 50.0000 23.2738 39.5270 27.3963
19 0.0000 75.0000 75.0000 28.7862 41.7319 56.4242
20 0.0000 75.0000 100.0000 37.3185 45.1448 101.3547
21 0.0000 100.0000 0.0000 36.3529 71.8048 12.8898
22 0.0000 100.0000 25.0000 37.2620 72.1685 17.6772
23 0.0000 100.0000 50.0000 40.1777 73.3347 33.0310
24 0.0000 100.0000 75.0000 45.6901 75.5397 62.0588
25 0.0000 100.0000 100.0000 54.2224 78.9526 106.9893
26 25.0000 0.0000 0.0000 3.0276 2.0708 1.1862
27 25.0000 0.0000 25.0000 3.9368 2.4345 5.9736
28 25.0000 0.0000 50.0000 6.8525 3.6007 21.3274
29 25.0000 0.0000 75.0000 12.3648 5.8057 50.3552
30 25.0000 0.0000 100.0000 20.8971 9.2186 95.2857
31 25.0000 25.0000 0.0000 4.8288 5.6731 1.7866
32 25.0000 25.0000 25.0000 5.7379 6.0367 6.5740
33 25.0000 25.0000 50.0000 8.6536 7.2030 21.9278
34 25.0000 25.0000 75.0000 14.1660 9.4080 50.9556
35 25.0000 25.0000 100.0000 22.6983 12.8209 95.8861
36 25.0000 50.0000 0.0000 10.6052 17.2259 3.7121
37 25.0000 50.0000 25.0000 11.5143 17.5896 8.4995
38 25.0000 50.0000 50.0000 14.4300 18.7559 23.8532
39 25.0000 50.0000 75.0000 19.9424 20.9608 52.8811
40 25.0000 50.0000 100.0000 28.4747 24.3737 97.8116
41 25.0000 75.0000 0.0000 21.5262 39.0678 7.3524
42 25.0000 75.0000 25.0000 22.4353 39.4315 12.1398
43 25.0000 75.0000 50.0000 25.3510 40.5978 27.4935
44 25.0000 75.0000 75.0000 30.8634 42.8027 56.5214
45 25.0000 75.0000 100.0000 39.3957 46.2156 101.4519
46 25.0000 100.0000 0.0000 38.4300 72.8756 12.9870
47 25.0000 100.0000 25.0000 39.3392 73.2393 17.7744
48 25.0000 100.0000 50.0000 42.2549 74.4055 33.1282
49 25.0000 100.0000 75.0000 47.7672 76.6105 62.1560
50 25.0000 100.0000 100.0000 56.2995 80.0234 107.0865
51 50.0000 0.0000 0.0000 9.6893 5.5050 1.4980
52 50.0000 0.0000 25.0000 10.5984 5.8687 6.2854
53 50.0000 0.0000 50.0000 13.5141 7.0349 21.6391
54 50.0000 0.0000 75.0000 19.0265 9.2399 50.6670
55 50.0000 0.0000 100.0000 27.5588 12.6528 95.5975
56 50.0000 25.0000 0.0000 11.4904 9.1073 2.0983
57 50.0000 25.0000 25.0000 12.3996 9.4709 6.8858
58 50.0000 25.0000 50.0000 15.3152 10.6372 22.2395
59 50.0000 25.0000 75.0000 20.8276 12.8422 51.2674
60 50.0000 25.0000 100.0000 29.3599 16.2551 96.1978
61 50.0000 50.0000 0.0000 17.2669 20.6601 4.0238
62 50.0000 50.0000 25.0000 18.1760 21.0238 8.8112
63 50.0000 50.0000 50.0000 21.0917 22.1901 24.1650
64 50.0000 50.0000 75.0000 26.6041 24.3950 53.1928
65 50.0000 50.0000 100.0000 35.1364 27.8079 98.1233
66 50.0000 75.0000 0.0000 28.1878 42.5020 7.6641
67 50.0000 75.0000 25.0000 29.0969 42.8657 12.4516
68 50.0000 75.0000 50.0000 32.0126 44.0320 27.8053
69 50.0000 75.0000 75.0000 37.5250 46.2369 56.8332
70 50.0000 75.0000 100.0000 46.0573 49.6498 101.7636
71 50.0000 100.0000 0.0000 45.0917 76.3098 13.2988
72 50.0000 100.0000 25.0000 46.0008 76.6735 18.0862
73 50.0000 100.0000 50.0000 48.9165 77.8397 33.4399
74 50.0000 100.0000 75.0000 54.4289 80.0447 62.4678
75 50.0000 100.0000 100.0000 62.9612 83.4576 107.3983
76 75.0000 0.0000 0.0000 22.2838 11.9977 2.0874
77 75.0000 0.0000 25.0000 23.1929 12.3614 6.8748
78 75.0000 0.0000 50.0000 26.1086 13.5276 22.2285
79 75.0000 0.0000 75.0000 31.6210 15.7326 51.2564
80 75.0000 0.0000 100.0000 40.1533 19.1455 96.1869
81 75.0000 25.0000 0.0000 24.0849 15.6000 2.6878
82 75.0000 25.0000 25.0000 24.9941 15.9636 7.4752
83 75.0000 25.0000 50.0000 27.9097 17.1299 22.8289
84 75.0000 25.0000 75.0000 33.4221 19.3349 51.8568
85 75.0000 25.0000 100.0000 41.9544 22.7478 96.7873
86 75.0000 50.0000 0.0000 29.8614 27.1529 4.6132
87 75.0000 50.0000 25.0000 30.7705 27.5165 9.4007
88 75.0000 50.0000 50.0000 33.6862 28.6828 24.7544
89 75.0000 50.0000 75.0000 39.1986 30.8877 53.7823
90 75.0000 50.0000 100.0000 47.7309 34.3007 98.7127
91 75.0000 75.0000 0.0000 40.7823 48.9948 8.2536
92 75.0000 75.0000 25.0000 41.6914 49.3584 13.0410
93 75.0000 75.0000 50.0000 44.6071 50.5247 28.3947
94 75.0000 75.0000 75.0000 50.1195 52.7296 57.4226
95 75.0000 75.0000 100.0000 58.6518 56.1426 102.3531
96 75.0000 100.0000 0.0000 57.6862 82.8025 13.8882
97 75.0000 100.0000 25.0000 58.5953 83.1662 18.6756
98 75.0000 100.0000 50.0000 61.5110 84.3324 34.0293
99 75.0000 100.0000 75.0000 67.0234 86.5374 63.0572
100 75.0000 100.0000 100.0000 75.5557 89.9503 107.9877
101 100.0000 0.0000 0.0000 41.7781 22.0474 2.9997
102 100.0000 0.0000 25.0000 42.6872 22.4111 7.7871
103 100.0000 0.0000 50.0000 45.6029 23.5773 23.1409
104 100.0000 0.0000 75.0000 51.1153 25.7823 52.1687
105 100.0000 0.0000 100.0000 59.6476 29.1952 97.0992
106 100.0000 25.0000 0.0000 43.5792 25.6497 3.6001
107 100.0000 25.0000 25.0000 44.4884 26.0133 8.3875
108 100.0000 25.0000 50.0000 47.4040 27.1796 23.7412
109 100.0000 25.0000 75.0000 52.9164 29.3846 52.7691
110 100.0000 25.0000 100.0000 61.4487 32.7975 97.6996
111 100.0000 50.0000 0.0000 49.3557 37.2025 5.5256
112 100.0000 50.0000 25.0000 50.2648 37.5662 10.3130
113 100.0000 50.0000 50.0000 53.1805 38.7325 25.6667
114 100.0000 50.0000 75.0000 58.6929 40.9374 54.6946
115 100.0000 50.0000 100.0000 67.2252 44.3503 99.6251
116 100.0000 75.0000 0.0000 60.2766 59.0444 9.1659
117 100.0000 75.0000 25.0000 61.1857 59.4081 13.9533
118 100.0000 75.0000 50.0000 64.1014 60.5744 29.3070
119 100.0000 75.0000 75.0000 69.6138 62.7793 58.3349
120 100.0000 75.0000 100.0000 78.1461 66.1922 103.2654
121 100.0000 100.0000 0.0000 77.1805 92.8522 14.8005
122 100.0000 100.0000 25.0000 78.0896 93.2159 19.5879
123 100.0000 100.0000 50.0000 81.0053 94.3821 34.9417
124 100.0000 100.0000 75.0000 86.5177 96.5871 63.9695
125 100.0000 100.0000 100.0000 95.0500 100.0000 108.9000
126 12.5000 0.0000 0.0000 1.5364 1.3020 1.1164
127 37.5000 0.0000 0.0000 5.6872 3.4418 1.3107
128 62.5000 0.0000 0.0000 15.1793 8.3352 1.7549
129 87.5000 0.0000 0.0000 31.1158 16.5508 2.5007
130 0.0000 12.5000 0.0000 1.4585 2.0160 1.2583
131 0.0000 37.5000 0.0000 5.0577 9.2145 2.4581
132 0.0000 62.5000 0.0000 13.2886 25.6762 5.2017
133 0.0000 87.5000 0.0000 27.1074 53.3138 9.8080
134 0.0000 0.0000 12.5000 1.2069 1.1026 2.4393
135 0.0000 0.0000 37.5000 3.0237 1.8293 12.0061
136 0.0000 0.0000 62.5000 7.1782 3.4911 33.8836
137 0.0000 0.0000 87.5000 14.1533 6.2811 70.6139
138 100.0000 12.5000 0.0000 42.2861 23.0634 3.1690
139 100.0000 37.5000 0.0000 45.8853 30.2619 4.3688
140 100.0000 62.5000 0.0000 54.1162 46.7236 7.1124
141 100.0000 87.5000 0.0000 67.9350 74.3612 11.7187
142 100.0000 0.0000 12.5000 42.0345 22.1500 4.3500
143 100.0000 0.0000 37.5000 43.8513 22.8767 13.9168
144 100.0000 0.0000 62.5000 48.0058 24.5385 35.7943
145 100.0000 0.0000 87.5000 54.9809 27.3285 72.5246
146 12.5000 100.0000 0.0000 36.9388 72.1068 12.9172
147 37.5000 100.0000 0.0000 41.0896 74.2466 13.1115
148 62.5000 100.0000 0.0000 50.5817 79.1400 13.5557
149 87.5000 100.0000 0.0000 66.5182 87.3556 14.3015
150 0.0000 100.0000 12.5000 36.6093 71.9074 14.2401
151 0.0000 100.0000 37.5000 38.4261 72.6341 23.8069
152 0.0000 100.0000 62.5000 42.5806 74.2959 45.6844
153 0.0000 100.0000 87.5000 49.5557 77.0859 82.4147
154 0.0000 12.5000 100.0000 19.3280 9.1638 95.3578
155 0.0000 37.5000 100.0000 22.9272 16.3623 96.5576
156 0.0000 62.5000 100.0000 31.1581 32.8240 99.3012
157 0.0000 87.5000 100.0000 44.9769 60.4616 103.9075
158 12.5000 0.0000 100.0000 19.4059 8.4498 95.2159
159 37.5000 0.0000 100.0000 23.5567 10.5896 95.4102
160 62.5000 0.0000 100.0000 33.0488 15.4830 95.8544
161 87.5000 0.0000 100.0000 48.9853 23.6986 96.6002
162 100.0000 100.0000 12.5000 77.4369 92.9548 16.1508
163 100.0000 100.0000 37.5000 79.2537 93.6815 25.7176
164 100.0000 100.0000 62.5000 83.4082 95.3433 47.5951
165 100.0000 100.0000 87.5000 90.3833 98.1333 84.3254
166 12.5000 100.0000 100.0000 54.8083 79.2546 107.0167
167 37.5000 100.0000 100.0000 58.9591 81.3944 107.2110
168 62.5000 100.0000 100.0000 68.4512 86.2878 107.6552
169 87.5000 100.0000 100.0000 84.3877 94.5034 108.4010
170 100.0000 12.5000 100.0000 60.1556 30.2112 97.2685
171 100.0000 37.5000 100.0000 63.7548 37.4097 98.4683
172 100.0000 62.5000 100.0000 71.9857 53.8714 101.2119
173 100.0000 87.5000 100.0000 85.8045 81.5090 105.8182
174 0.0000 0.0000 2.0000 0.9782 1.0111 1.2347
175 6.2500 6.2500 6.2500 1.4356 1.5104 1.6448
176 12.5000 12.5000 12.5000 2.3008 2.4206 2.6361
177 18.7500 18.7500 18.7500 3.7116 3.9049 4.2525
178 23.8453 23.8453 23.8453 5.3144 5.5912 6.0888
179 31.2500 31.2500 31.2500 8.4391 8.8786 9.6688
180 37.5000 37.5000 37.5000 11.8676 12.4856 13.5968
181 43.7500 43.7500 43.7500 16.0707 16.9076 18.4124
182 48.8453 48.8453 48.8453 20.1006 21.1474 23.0295
183 56.2500 56.2500 56.2500 26.9707 28.3752 30.9006
184 62.5000 62.5000 62.5000 33.7451 35.5025 38.6622
185 68.7500 68.7500 68.7500 41.4503 43.6089 47.4901
186 73.0000 75.0000 75.0000 48.8695 52.0852 57.3641
187 81.2500 81.2500 81.2500 59.7845 62.8979 68.4958
188 87.5000 87.5000 87.5000 70.4754 74.1456 80.7446
189 93.7500 93.7500 93.7500 82.2213 86.5032 94.2020
190 98.0000 100.0000 100.0000 93.2170 99.0551 108.8142
191 2.6667 0.0000 0.0000 1.0348 1.0434 1.0929
192 0.1786 2.4880 0.0000 1.0243 1.1393 1.1120
193 0.0000 2.6667 2.0000 1.0512 1.1572 1.2590
194 2.0000 1.3333 1.3333 1.0687 1.1130 1.2012
195 0.0000 0.0000 4.0809 1.0070 1.0226 1.3863
196 2.7475 0.0000 2.7475 1.0753 1.0600 1.2932
197 9.3333 5.3333 5.3333 1.5447 1.5205 1.5555
198 8.0000 8.0000 4.0000 1.5543 1.6830 1.4790
199 5.3333 9.3333 5.3333 1.5188 1.7582 1.6028
200 4.0000 8.0000 8.0000 1.4602 1.6260 1.8568
201 5.3333 5.3333 9.3333 1.4351 1.4542 1.9959
202 8.0000 4.0000 8.0000 1.4824 1.4221 1.8163
203 16.0000 12.0000 12.0000 2.5624 2.5081 2.5513
204 14.6667 14.6667 10.6667 2.5856 2.8107 2.3909
205 12.0000 16.0000 12.0000 2.5159 2.9345 2.6361
206 10.6667 14.6667 14.6667 2.4074 2.7028 3.1064
207 12.0000 12.0000 16.0000 2.3657 2.3890 3.3413
208 14.6667 10.6667 14.6667 2.4495 2.3166 3.0297
209 22.6667 18.6667 18.6667 4.2168 4.1532 4.2512
210 21.3333 21.3333 17.3333 4.2562 4.6179 3.9917
211 18.6667 22.6667 18.6667 4.1466 4.7964 4.3790
212 17.3333 21.3333 21.3333 3.9804 4.4509 5.0995
213 18.6667 18.6667 22.6667 3.9200 3.9735 5.4430
214 21.3333 17.3333 21.3333 4.0456 3.8530 4.9806
215 29.3333 25.3333 25.3333 6.5896 6.5437 6.7529
216 28.0000 28.0000 24.0000 6.6474 7.1889 6.3821
217 25.3333 29.3333 25.3333 6.4932 7.4274 6.9286
218 24.0000 28.0000 28.0000 6.2626 6.9559 7.9271
219 25.3333 25.3333 29.3333 6.1818 6.2968 8.3902
220 28.0000 24.0000 28.0000 6.3535 6.1220 7.7613
221 36.0000 32.0000 32.0000 9.7503 9.7542 10.1390
222 34.6667 34.6667 30.6667 9.8283 10.5956 9.6462
223 32.0000 36.0000 32.0000 9.6255 10.8988 10.3665
224 30.6667 34.6667 34.6667 9.3249 10.2908 11.6674
225 32.0000 32.0000 36.0000 9.2222 9.4344 12.2597
226 34.6667 30.6667 34.6667 9.4439 9.1999 11.4505
227 42.6667 38.6667 38.6667 13.7603 13.8500 14.4815
228 41.3333 41.3333 37.3333 13.8600 14.9018 13.8574
229 38.6667 42.6667 38.6667 13.6050 15.2739 14.7645
230 37.3333 41.3333 41.3333 13.2294 14.5201 16.3894
231 38.6667 38.6667 42.6667 13.1033 13.4523 17.1195
232 41.3333 37.3333 41.3333 13.3784 13.1534 16.1177
233 49.3333 45.3333 45.3333 18.6747 18.8901 19.8452
234 48.0000 48.0000 44.0000 18.7976 20.1651 19.0814
235 45.3333 49.3333 45.3333 18.4872 20.6098 20.1870
236 44.0000 48.0000 48.0000 18.0320 19.7016 22.1556
237 45.3333 45.3333 49.3333 17.8813 18.4098 23.0314
238 48.0000 44.0000 48.0000 18.2129 18.0423 21.8258
239 56.0000 52.0000 52.0000 24.5442 24.9283 26.2893
240 54.6667 54.6667 50.6667 24.6915 26.4381 25.3780
241 52.0000 56.0000 52.0000 24.3228 26.9592 26.6930
242 50.6667 54.6667 54.6667 23.7837 25.8885 29.0233
243 52.0000 52.0000 56.0000 23.6071 24.3609 30.0521
244 54.6667 50.6667 54.6667 23.9982 23.9210 28.6323
245 62.6667 58.6667 58.6667 31.4155 32.0141 33.8684
246 61.3333 61.3333 57.3333 31.5885 33.7698 32.8024
247 58.6667 62.6667 58.6667 31.1586 34.3705 34.3367
248 57.3333 61.3333 61.3333 30.5317 33.1301 37.0457
249 58.6667 58.6667 62.6667 30.3282 31.3558 38.2343
250 61.3333 57.3333 61.3333 30.7814 30.8398 36.5905
251 69.3333 65.3333 65.3333 39.3324 40.1941 42.6333
252 68.0000 68.0000 64.0000 39.5321 42.2060 41.4060
253 65.3333 69.3333 65.3333 39.0385 42.8894 43.1690
254 64.0000 68.0000 68.0000 38.3203 41.4723 46.2723
255 65.3333 65.3333 69.3333 38.0888 39.4411 47.6271
256 68.0000 64.0000 68.0000 38.6066 38.8457 45.7503
257 76.0000 72.0000 72.0000 48.3360 49.5118 52.6318
258 74.6667 74.6667 70.6667 48.5636 51.7896 51.2369
259 72.0000 76.0000 72.0000 48.0038 52.5588 53.2375
260 70.6667 74.6667 74.6667 47.1907 50.9583 56.7501
261 72.0000 72.0000 76.0000 46.9302 48.6607 58.2771
262 74.6667 70.6667 74.6667 47.5151 47.9827 56.1586
263 82.6667 78.6667 78.6667 58.4654 60.0086 63.9093
264 81.3333 81.3333 77.3333 58.7218 62.5614 62.3408
265 78.6667 82.6667 78.6667 58.0935 63.4191 64.5872
266 77.3333 81.3333 81.3333 57.1822 61.6292 68.5232
267 78.6667 78.6667 82.6667 56.8918 59.0559 70.2282
268 81.3333 77.3333 81.3333 57.5460 58.2924 67.8600
269 89.3333 85.3333 85.3333 69.7574 71.7235 76.5085
270 88.0000 88.0000 84.0000 70.0436 74.5601 74.7607
271 85.3333 89.3333 85.3333 69.3446 75.5091 77.2609
272 84.0000 88.0000 88.0000 68.3320 73.5238 81.6338
273 85.3333 85.3333 89.3333 68.0107 70.6661 83.5222
274 88.0000 84.0000 88.0000 68.7365 69.8142 80.8965
275 96.0000 92.0000 92.0000 82.2474 84.6941 90.4704
276 94.6667 94.6667 90.6667 82.5644 87.8227 88.5380
277 92.0000 96.0000 92.0000 81.7925 88.8656 91.2996
278 90.6667 94.6667 94.6667 80.6756 86.6793 96.1222
279 92.0000 92.0000 96.0000 80.3226 83.5288 98.1992
280 94.6667 90.6667 94.6667 81.1220 82.5858 95.3085
281 98.8453 97.5120 97.5120 91.0202 95.1119 102.9549
282 100.0000 100.0000 97.3333 93.9851 99.5740 103.2923
283 97.2525 98.5858 98.6667 90.8790 96.2369 105.5777
284 95.3333 100.0000 100.0000 90.8491 97.8344 108.7034
285 98.6667 96.6667 100.0000 91.1971 94.1164 107.9674
286 100.0000 95.9191 98.5858 91.2824 93.3761 104.8350
END_DATA
CTI1   

DESCRIPTOR "Argyll Calibration Target chart information 1"
ORIGINATOR "ChromIQ"
DENSITY_EXTREME_VALUES "8"
CREATED "Tue Aug 18 17:10:44 2026"

NUMBER_OF_FIELDS 7
BEGIN_DATA_FORMAT
INDEX RGB_R RGB_G RGB_B XYZ_X XYZ_Y XYZ_Z
END_DATA_FORMAT

NUMBER_OF_SETS 8
BEGIN_DATA
0 100.0000 100.0000 100.0000 95.0500 100.0000 108.9000
1 0.0000 100.0000 100.0000 54.2224 78.9526 106.9893
2 100.0000 0.0000 100.0000 59.6476 29.1952 97.0992
3 0.0000 0.0000 100.0000 18.8200 8.1478 95.1885
4 100.0000 100.0000 0.0000 77.1805 92.8522 14.8005
5 0.0000 100.0000 0.0000 36.3529 71.8048 12.8898
6 100.0000 0.0000 0.0000 41.7781 22.0474 2.9997
7 0.0000 0.0000 0.0000 0.9505 1.0000 1.0890
END_DATA
CTI1   

DESCRIPTOR "Argyll Calibration Target chart information 1"
ORIGINATOR "ChromIQ"
DEVICE_COMBINATION_VALUES "9"
CREATED "Tue Aug 18 17:10:44 2026"

NUMBER_OF_FIELDS 7
BEGIN_DATA_FORMAT
INDEX RGB_R RGB_G RGB_B XYZ_X XYZ_Y XYZ_Z
END_DATA_FORMAT

NUMBER_OF_SETS 9
BEGIN_DATA
0 100.0000 100.0000 100.0000 95.0500 100.0000 108.9000
1 0.0000 100.0000 100.0000 54.2224 78.9526 106.9893
2 100.0000 0.0000 100.0000 59.6476 29.1952 97.0992
3 0.0000 0.0000 100.0000 18.8200 8.1478 95.1885
4 100.0000 100.0000 0.0000 77.1805 92.8522 14.8005
5 0.0000 100.0000 0.0000 36.3529 71.8048 12.8898
6 100.0000 0.0000 0.0000 41.7781 22.0474 2.9997
7 0.0000 0.0000 0.0000 0.9505 1.0000 1.0890
8 50.0000 50.0000 50.0000 21.0917 22.1901 24.1650
END_DATA
