demo-projects/old/Demo-Report-Matrix-2026-08-10_232125/runs/run1/verifications/2026-08-10_090000/Demo-Report-Matrix-verify.ti3
CTI3   
KEYWORD "CHROMIQ_VERIFICATION"
CHROMIQ_VERIFICATION "true"

DESCRIPTOR "Argyll Calibration Target chart information 3"
ORIGINATOR "Argyll fakeread"
CREATED "Mon Aug 10 23:19:49 2026"
DEVICE_CLASS "DISPLAY"
COLOR_REP "iRGB_XYZ"

KEYWORD "CHROMIQ_MEASURED"
CHROMIQ_MEASURED "2026-08-10T09:00:00"
TARGET_INSTRUMENT "X-Rite ColorMunki"
NUMBER_OF_FIELDS 7
BEGIN_DATA_FORMAT
SAMPLE_ID RGB_R RGB_G RGB_B XYZ_X XYZ_Y XYZ_Z 
END_DATA_FORMAT

NUMBER_OF_SETS 105
BEGIN_DATA
1 100.0000 100.0000 100.0000 94.95912 99.93860 108.9034 
2 100.0000 100.0000 100.0000 94.64386 99.13584 108.7627 
3 100.0000 100.0000 100.0000 94.79856 99.85534 108.8951 
4 100.0000 100.0000 100.0000 95.07745 99.99996 108.9096 
5 0.00000 0.00000 0.00000 0.000374727 0.000746804 0.000126940 
6 0.00000 0.00000 0.00000 0.000198946 0.0000825890 0.000961717 
7 0.00000 0.00000 0.00000 0.0000742304 0.0000384938 3.87512e-06 
8 0.00000 0.00000 0.00000 0.00162533 0.000815256 0.00249275 
9 100.0000 100.0000 0.00000 76.92520 92.61355 14.26264 
10 0.00000 0.00000 100.0000 18.15237 7.386640 94.64702 
11 100.0000 0.00000 0.00000 41.16571 21.34740 2.149012 
12 0.00000 100.0000 100.0000 53.39867 77.63003 106.5868 
13 0.00000 100.0000 0.00000 35.76055 71.26671 12.11369 
14 100.0000 0.00000 100.0000 58.96534 28.55095 96.77759 
15 0.00000 38.69451 100.0000 22.49728 16.04411 96.11856 
16 0.00000 61.01825 0.00000 11.17804 22.27705 3.786593 
17 0.00000 0.00000 49.66734 4.040761 1.644249 21.06846 
18 100.0000 0.00000 49.59690 43.89558 22.33782 21.94868 
19 100.0000 51.96322 100.0000 67.61950 45.27819 99.60817 
20 100.0000 51.02120 0.00000 48.64428 37.54177 4.933148 
21 49.79587 0.00000 0.00000 8.408726 4.365148 0.439866 
22 100.0000 100.0000 50.20307 80.23381 93.13276 34.05642 
23 0.00000 100.0000 50.70625 38.94775 71.06558 33.34194 
24 49.48561 100.0000 100.0000 62.23492 81.58831 106.9268 
25 51.72588 100.0000 0.00000 45.88547 76.51721 12.64226 
26 50.05958 0.00000 100.0000 27.04703 11.99899 95.11133 
27 0.00000 47.79621 60.34591 13.51867 16.89115 35.47424 
28 100.0000 59.17416 43.63085 55.51420 44.79915 22.82131 
29 47.31399 48.98978 0.00000 16.56185 20.70222 3.219116 
30 52.09288 0.00000 45.52943 12.92153 6.336833 17.49798 
31 55.39583 47.66229 100.0000 36.32350 26.94883 97.07761 
32 49.20125 100.0000 50.84061 48.90860 77.60446 35.01150 
33 48.29114 47.33520 50.18713 19.84760 20.04664 23.52145 
34 0.00000 30.94905 0.00000 2.811057 5.602213 0.952332 
35 100.0000 21.19106 79.12555 54.00233 28.58483 62.88901 
36 33.94804 70.69041 100.0000 39.35756 43.72958 100.6802 
37 74.96124 25.82053 0.00000 23.96459 15.10465 1.771389 
38 0.00000 77.61705 71.72771 29.89574 46.07285 51.64770 
39 24.97790 0.00000 23.41364 2.724016 1.318859 4.475743 
40 76.31808 100.0000 28.35106 58.96818 81.62731 19.62706 
41 0.00000 77.00365 31.43299 20.59940 38.68261 14.26494 
42 75.41143 77.79628 100.0000 60.83221 59.29154 102.5578 
43 100.0000 23.29829 20.42453 42.82489 24.27421 5.617442 
44 100.0000 80.02238 22.27702 63.13901 65.68713 13.10729 
45 75.35445 100.0000 76.01304 68.10515 86.76652 64.14523 
46 75.31505 74.81469 0.00000 40.81814 49.05626 7.551258 
47 100.0000 79.49395 78.19811 73.47929 69.42911 66.15235 
48 26.41218 100.0000 75.99234 47.57481 76.28647 63.89576 
49 28.19308 28.22301 100.0000 22.39832 12.64712 95.46314 
50 76.81359 0.00000 23.55016 24.12452 12.42250 5.318545 
51 75.25932 0.00000 74.69026 32.03098 15.54219 51.20000 
52 29.89921 74.23536 0.00000 21.61620 38.84415 6.499374 
53 25.50439 100.0000 24.78846 38.04483 71.73909 15.98167 
54 77.21225 23.71451 100.0000 43.05761 22.54802 95.84464 
55 0.00000 21.07405 72.23364 10.45828 5.956424 49.30197 
56 26.28049 0.00000 71.93547 10.71559 4.576078 45.89773 
57 0.00000 19.89483 30.07019 2.163749 2.310415 6.886296 
58 26.28079 33.45692 23.52814 6.234753 8.029394 5.587109 
59 66.56754 70.38587 52.30860 37.50036 43.94944 29.04029 
60 75.09479 52.62129 65.01886 38.56848 32.72170 41.14301 
61 26.64973 49.33561 81.42125 21.75459 21.14134 62.91187 
62 45.91179 68.61670 63.70484 29.57626 37.16141 40.47114 
63 71.11740 50.49568 34.71935 29.19313 26.82934 13.25683 
64 54.43736 27.35888 62.61652 18.88289 12.26453 34.43964 
65 34.69612 74.79966 32.60823 25.56399 42.46908 14.75944 
66 74.85889 20.44437 50.18860 26.48954 14.79383 22.44760 
67 47.85106 20.11464 33.14580 10.53269 7.171587 8.870346 
68 27.20651 32.63652 48.27367 9.003656 8.731359 20.29232 
69 27.58870 24.69734 0.00000 4.516286 4.694805 0.696011 
70 0.00000 69.14068 100.0000 34.05325 39.24831 99.49675 
71 20.53684 59.80271 49.57175 16.25803 24.24436 23.49788 
72 0.00000 46.98630 28.11508 8.210661 14.41166 8.775701 
73 73.54294 75.32966 75.96305 49.89178 53.22874 59.73046 
74 63.36650 75.70063 29.24590 34.55678 45.40901 13.01469 
75 100.0000 50.88622 71.33775 56.71178 39.27677 50.13553 
76 23.55356 85.77019 53.26247 33.60094 56.41817 34.06500 
77 100.0000 29.41094 48.41781 47.14727 27.36990 22.30641 
78 72.19800 51.56213 8.666635 27.79394 25.80788 4.180486 
79 21.36322 53.66478 11.70929 10.97525 19.27976 4.148923 
80 12.24937 81.96187 10.32227 23.03493 45.16801 8.227402 
81 50.32410 91.80251 71.76533 47.53775 67.93862 57.38146 
82 48.45094 95.04594 23.03440 41.44871 69.60827 15.36639 
83 47.91670 54.94911 27.45694 19.39720 24.73490 9.428197 
84 3.781525 53.33689 81.63552 20.87710 22.31764 66.21545 
85 76.14076 97.71765 95.89858 72.51196 85.10690 99.38618 
86 74.72769 92.97172 51.48222 55.55515 73.02504 33.13947 
87 91.51768 77.11623 49.84954 57.91985 58.49434 28.51031 
88 55.99479 23.67844 88.16304 26.45231 14.18920 71.25242 
89 76.02370 54.61404 92.04182 47.56331 36.79426 83.64712 
90 52.92777 23.07148 11.01567 11.66142 8.307063 1.768406 
91 2.113597 97.73685 76.72762 43.58672 70.50608 64.93536 
92 77.95688 25.26049 74.12841 34.62285 19.62199 50.23097 
93 5.158119 95.50651 28.71841 34.41218 66.55091 17.38500 
94 4.213096 24.16053 51.05457 6.233791 5.276283 23.89242 
95 51.24030 47.80404 76.36550 26.33451 22.64363 53.68838 
96 97.40498 100.0000 75.01152 83.93928 94.27810 63.77104 
97 49.19419 5.350316 74.01136 18.44370 8.511524 51.19176 
98 91.32533 51.59153 22.20459 43.03394 34.10324 7.761550 
99 74.48121 24.34677 26.05584 24.36153 15.24287 6.293886 
100 94.19953 74.22767 93.65841 71.82490 64.43775 91.76928 
101 23.32810 75.54038 80.93191 32.22418 43.67807 66.52575 
102 56.07175 76.90790 5.268606 30.83294 45.47181 7.467861 
103 27.55381 8.135545 46.48987 5.726680 2.799736 17.20251 
104 27.88054 25.86915 72.11177 12.96223 8.142720 47.83430 
105 51.80627 80.99682 89.24284 47.34228 57.92732 83.27793 
END_DATA
