demo-projects/old/Demo-Report-Matrix-2026-08-10_231948/runs/run1/verifications/2026-08-10_110000/Demo-Report-Matrix-verify.ti3
CTI3   
KEYWORD "CHROMIQ_VERIFICATION"
CHROMIQ_VERIFICATION "true"

DESCRIPTOR "Argyll Calibration Target chart information 3"
ORIGINATOR "Argyll fakeread"
CREATED "Mon Aug 10 23:17:26 2026"
DEVICE_CLASS "DISPLAY"
COLOR_REP "iRGB_XYZ"

KEYWORD "CHROMIQ_MEASURED"
CHROMIQ_MEASURED "2026-08-10T11:00:00"
TARGET_INSTRUMENT "X-Rite ColorMunki"
NUMBER_OF_FIELDS 7
BEGIN_DATA_FORMAT
SAMPLE_ID RGB_R RGB_G RGB_B XYZ_X XYZ_Y XYZ_Z 
END_DATA_FORMAT

NUMBER_OF_SETS 105
BEGIN_DATA
1 100.0000 100.0000 100.0000 94.98390 99.86528 108.7595 
2 100.0000 100.0000 100.0000 94.84341 99.89210 108.7716 
3 100.0000 100.0000 100.0000 93.86863 99.38677 108.7206 
4 100.0000 100.0000 100.0000 94.53846 99.02490 108.4625 
5 0.00000 0.00000 0.00000 0.000875209 0.000727697 0.00115478 
6 0.00000 0.00000 0.00000 0.000272332 0.000235908 0.00103314 
7 0.00000 0.00000 0.00000 0.0000233728 0.0000465849 7.95342e-06 
8 0.00000 0.00000 0.00000 0.000667742 0.000557179 0.000312684 
9 100.0000 100.0000 0.00000 76.74394 92.31726 14.27339 
10 0.00000 0.00000 100.0000 18.14765 7.363647 94.45582 
11 100.0000 0.00000 0.00000 41.12302 21.32078 2.150952 
12 0.00000 100.0000 100.0000 53.92994 78.68211 106.6320 
13 0.00000 100.0000 0.00000 35.67585 71.10624 12.14029 
14 100.0000 0.00000 100.0000 59.26920 28.68152 96.60627 
15 0.00000 38.69451 100.0000 22.50289 16.32730 95.07017 
16 0.00000 61.01825 0.00000 11.91731 23.75259 4.055491 
17 0.00000 0.00000 49.66734 3.948888 1.602314 20.55335 
18 100.0000 0.00000 49.59690 45.08054 22.92428 22.75637 
19 100.0000 51.96322 100.0000 67.40554 45.36169 97.95464 
20 100.0000 51.02120 0.00000 49.16226 37.34376 4.887255 
21 49.79587 0.00000 0.00000 9.304494 4.823579 0.486595 
22 100.0000 100.0000 50.20307 80.24598 92.98730 34.80231 
23 0.00000 100.0000 50.70625 40.16785 73.09796 35.00245 
24 49.48561 100.0000 100.0000 61.97317 81.48369 106.2703 
25 51.72588 100.0000 0.00000 45.61181 76.41419 12.69022 
26 50.05958 0.00000 100.0000 27.03398 11.99148 93.95695 
27 0.00000 47.79621 60.34591 13.05437 16.25264 34.37176 
28 100.0000 59.17416 43.63085 55.36902 45.36410 21.22710 
29 47.31399 48.98978 0.00000 15.39136 18.63838 2.886509 
30 52.09288 0.00000 45.52943 13.43576 6.595057 17.63529 
31 55.39583 47.66229 100.0000 36.59666 27.83441 96.58296 
32 49.20125 100.0000 50.84061 48.98349 77.69707 34.13752 
33 48.29114 47.33520 50.18713 19.39075 20.20579 23.38121 
34 0.00000 30.94905 0.00000 2.787150 5.555132 0.948426 
35 100.0000 21.19106 79.12555 53.00015 28.12174 58.35966 
36 33.94804 70.69041 100.0000 38.78083 42.69465 100.3456 
37 74.96124 25.82053 0.00000 24.43792 15.68208 1.866508 
38 0.00000 77.61705 71.72771 29.40858 44.80032 52.34266 
39 24.97790 0.00000 23.41364 2.838763 1.386417 4.078320 
40 76.31808 100.0000 28.35106 59.48921 83.46506 19.97185 
41 0.00000 77.00365 31.43299 21.71834 41.18577 13.83076 
42 75.41143 77.79628 100.0000 60.95031 59.79923 102.4271 
43 100.0000 23.29829 20.42453 42.96944 24.38705 5.644571 
44 100.0000 80.02238 22.27702 64.23598 66.23523 13.54791 
45 75.35445 100.0000 76.01304 67.14512 85.15513 65.47799 
46 75.31505 74.81469 0.00000 41.27127 49.69643 7.685058 
47 100.0000 79.49395 78.19811 73.33131 68.59043 64.98001 
48 26.41218 100.0000 75.99234 47.51424 76.07080 62.87229 
49 28.19308 28.22301 100.0000 23.19983 13.46829 95.40070 
50 76.81359 0.00000 23.55016 23.79278 12.24342 5.411628 
51 75.25932 0.00000 74.69026 31.57278 15.31820 49.65564 
52 29.89921 74.23536 0.00000 21.96172 39.28270 6.596481 
53 25.50439 100.0000 24.78846 38.75896 72.75811 17.06544 
54 77.21225 23.71451 100.0000 42.91307 22.45959 96.19174 
55 0.00000 21.07405 72.23364 10.15825 6.039747 46.99466 
56 26.28049 0.00000 71.93547 11.04852 4.730212 46.20202 
57 0.00000 19.89483 30.07019 2.424476 2.759066 7.178507 
58 26.28079 33.45692 23.52814 6.393129 8.412826 5.330931 
59 66.56754 70.38587 52.30860 38.32350 43.89846 29.21535 
60 75.09479 52.62129 65.01886 37.90085 31.84100 40.09290 
61 26.64973 49.33561 81.42125 21.47672 20.60547 64.08576 
62 45.91179 68.61670 63.70484 30.38389 38.29682 40.46062 
63 71.11740 50.49568 34.71935 29.66006 26.69268 13.00886 
64 54.43736 27.35888 62.61652 19.90871 12.70718 35.03458 
65 34.69612 74.79966 32.60823 24.52028 40.47962 14.84252 
66 74.85889 20.44437 50.18860 27.18569 15.30911 22.39922 
67 47.85106 20.11464 33.14580 10.92747 6.896604 9.187447 
68 27.20651 32.63652 48.27367 9.114394 8.715177 19.95534 
69 27.58870 24.69734 0.00000 4.189516 4.676472 0.708481 
70 0.00000 69.14068 100.0000 34.04758 39.05415 99.86633 
71 20.53684 59.80271 49.57175 16.82736 25.36189 24.18408 
72 0.00000 46.98630 28.11508 7.986161 14.06311 8.400167 
73 73.54294 75.32966 75.96305 50.50611 53.91810 58.30421 
74 63.36650 75.70063 29.24590 36.35818 47.48642 13.97822 
75 100.0000 50.88622 71.33775 58.01476 41.29335 50.42057 
76 23.55356 85.77019 53.26247 31.73684 53.10050 33.29463 
77 100.0000 29.41094 48.41781 46.58745 27.28624 22.19506 
78 72.19800 51.56213 8.666635 28.89196 27.46319 4.418584 
79 21.36322 53.66478 11.70929 10.39669 18.35259 3.948732 
80 12.24937 81.96187 10.32227 23.90696 46.76513 8.594935 
81 50.32410 91.80251 71.76533 47.36882 66.91441 56.04961 
82 48.45094 95.04594 23.03440 41.36354 68.72181 15.14807 
83 47.91670 54.94911 27.45694 19.19364 24.74698 9.283780 
84 3.781525 53.33689 81.63552 21.07997 23.29792 64.39766 
85 76.14076 97.71765 95.89858 72.79150 85.58666 99.51897 
86 74.72769 92.97172 51.48222 56.55760 73.41350 33.24229 
87 91.51768 77.11623 49.84954 56.99688 58.06480 28.23300 
88 55.99479 23.67844 88.16304 27.00337 14.75141 72.51958 
89 76.02370 54.61404 92.04182 48.13417 37.64322 83.73346 
90 52.92777 23.07148 11.01567 11.73180 8.043426 1.706095 
91 2.113597 97.73685 76.72762 44.57741 72.70154 64.60348 
92 77.95688 25.26049 74.12841 35.28239 19.85731 51.98508 
93 5.158119 95.50651 28.71841 34.27206 66.17835 17.69576 
94 4.213096 24.16053 51.05457 5.619820 4.658128 21.78702 
95 51.24030 47.80404 76.36550 26.26264 22.85563 54.71103 
96 97.40498 100.0000 75.01152 84.43691 95.44764 64.75665 
97 49.19419 5.350316 74.01136 17.77442 8.250301 48.89700 
98 91.32533 51.59153 22.20459 42.13968 33.74649 7.888354 
99 74.48121 24.34677 26.05584 24.46253 15.02342 6.674557 
100 94.19953 74.22767 93.65841 70.47149 61.96643 89.75780 
101 23.32810 75.54038 80.93191 32.31876 44.13753 65.34101 
102 56.07175 76.90790 5.268606 32.07264 46.37080 7.624446 
103 27.55381 8.135545 46.48987 5.960529 2.914023 18.15107 
104 27.88054 25.86915 72.11177 13.41185 8.547170 47.87330 
105 51.80627 80.99682 89.24284 46.48526 56.13031 82.07481 
END_DATA
