docs/assessments/create-chart-2026-09-07/evidence/external_patchset.ti1
CTI1   

DESCRIPTOR "Argyll Calibration Target chart information 1"
ORIGINATOR "ChromIQ"
APPROX_WHITE_POINT "95.050000 100.000000 108.900000"
COLOR_REP "iRGB"
WHITE_COLOR_PATCHES "7"
BLACK_COLOR_PATCHES "3"
CREATED "Mo Sep 07 08:52:31 2026"

NUMBER_OF_FIELDS 7
BEGIN_DATA_FORMAT
SAMPLE_ID RGB_R RGB_G RGB_B XYZ_X XYZ_Y XYZ_Z
END_DATA_FORMAT

NUMBER_OF_SETS 304
BEGIN_DATA
1 100.0000 100.0000 100.0000 95.0500 100.0000 108.9000
2 100.0000 100.0000 100.0000 95.0500 100.0000 108.9000
3 100.0000 100.0000 100.0000 95.0500 100.0000 108.9000
4 0.0000 0.0000 0.0000 0.9505 1.0000 1.0890
5 0.0000 0.0000 0.0000 0.9505 1.0000 1.0890
6 0.0000 0.0000 0.0000 0.9505 1.0000 1.0890
7 93.7500 93.7500 93.7500 82.2213 86.5032 94.2020
8 87.5000 87.5000 87.5000 70.4754 74.1456 80.7446
9 81.2500 81.2500 81.2500 59.7845 62.8979 68.4958
10 75.0000 75.0000 75.0000 50.1195 52.7296 57.4226
11 68.7500 68.7500 68.7500 41.4503 43.6089 47.4901
12 62.5000 62.5000 62.5000 33.7451 35.5025 38.6622
13 56.2500 56.2500 56.2500 26.9707 28.3752 30.9006
14 50.0000 50.0000 50.0000 21.0917 22.1901 24.1650
15 43.7500 43.7500 43.7500 16.0707 16.9076 18.4124
16 37.5000 37.5000 37.5000 11.8676 12.4856 13.5968
17 31.2500 31.2500 31.2500 8.4391 8.8786 9.6688
18 25.0000 25.0000 25.0000 5.7379 6.0367 6.5740
19 18.7500 18.7500 18.7500 3.7116 3.9049 4.2525
20 12.5000 12.5000 12.5000 2.3008 2.4206 2.6361
21 6.2500 6.2500 6.2500 1.4356 1.5104 1.6448
22 0.0000 100.0000 0.0000 36.3529 71.8048 12.8898
23 0.0000 0.0000 100.0000 18.8200 8.1478 95.1885
24 100.0000 0.0000 100.0000 59.6476 29.1952 97.0992
25 100.0000 0.0000 0.0000 41.7781 22.0474 2.9997
26 100.0000 100.0000 0.0000 77.1805 92.8522 14.8005
27 0.0000 100.0000 100.0000 54.2224 78.9526 106.9893
28 0.0000 75.0990 100.0000 37.3732 45.2541 101.3729
29 100.0000 0.0000 53.5501 46.2166 23.8228 26.3725
30 100.0000 50.1681 0.0000 49.4109 37.3129 5.5440
31 0.0000 100.0000 53.6881 40.8163 73.5902 36.3939
32 47.4903 100.0000 0.0000 44.1731 75.8363 13.2558
33 54.6768 0.0000 100.0000 29.4315 13.6182 95.6851
34 0.0000 59.7412 0.0000 12.1212 23.3413 4.8126
35 0.0000 0.0000 45.4513 4.0657 2.2461 17.4932
36 100.0000 23.9647 100.0000 61.3055 32.5109 97.6518
37 76.8615 0.0000 0.0000 23.4870 12.6180 2.1437
38 100.0000 100.0000 68.2217 84.7407 95.8763 54.6121
39 32.5793 100.0000 100.0000 57.7608 80.7767 107.1549
40 0.0000 26.5663 100.0000 20.8512 12.2101 95.8656
41 24.9601 0.0000 0.0000 3.0211 2.0675 1.1859
42 61.4165 74.3411 0.0000 32.7784 44.3322 7.7754
43 100.0000 0.0000 27.9177 42.9101 22.5002 8.9608
44 46.5479 68.4923 100.0000 41.4209 42.2300 100.5758
45 23.5717 100.0000 78.8483 48.6488 76.9370 67.9767
46 58.7836 0.0000 60.5263 19.1865 9.7307 32.2273
47 0.0000 76.8223 62.4158 26.6792 42.5227 40.2928
48 100.0000 39.9471 38.5746 48.6685 32.3088 16.1466
49 100.0000 100.0000 34.6398 78.9380 93.5552 24.0552
50 100.0000 78.8920 100.0000 80.3657 70.6315 104.0052
51 71.2375 100.0000 0.0000 55.3709 81.6090 13.7798
52 67.5184 100.0000 100.0000 71.1029 87.6548 107.7793
53 0.0000 40.3969 82.2211 17.2285 15.1959 63.1169
54 40.9467 100.0000 55.8277 46.9129 76.6872 38.7516
55 28.0195 0.0000 100.0000 21.4253 9.4909 95.3104
56 0.0000 100.0000 24.7515 37.2444 72.1614 17.5841
57 0.0000 38.5200 0.0000 5.2955 9.6900 2.5373
58 61.9522 21.9554 0.0000 16.3051 10.9930 2.2086
59 0.0000 0.0000 72.4660 9.5978 4.4589 46.6250
60 0.0000 37.9847 40.2429 7.5746 10.4004 15.1590
61 41.1972 20.5897 100.0000 25.8317 13.6004 95.8714
62 100.0000 64.3326 78.2060 65.1840 52.4517 61.3838
63 100.0000 72.2375 0.0000 58.7895 56.0703 8.6702
64 100.0000 23.6555 0.0000 43.3945 25.2802 3.5385
65 20.7069 22.5949 0.0000 3.8727 4.7018 1.6495
66 78.6294 42.5404 100.0000 47.8940 31.0913 98.0847
67 100.0000 22.0514 76.9170 53.0690 28.8216 55.4962
68 58.1123 0.0000 18.2193 13.5717 7.4490 4.2747
69 100.0000 76.6898 63.6143 67.6977 63.5259 43.5803
70 23.2161 64.5184 100.0000 33.8528 35.5451 99.6844
71 0.0000 79.6963 20.4778 22.7642 43.6377 11.4111
72 23.4769 0.0000 42.2503 5.4533 3.0133 15.2136
73 67.9069 100.0000 26.3267 54.4567 81.0213 18.9924
74 24.3892 100.0000 23.1370 39.1131 73.1375 17.0978
75 22.1068 78.8991 0.0000 23.3080 43.2876 8.0730
76 0.0000 100.0000 73.7302 45.3405 75.3998 60.2179
77 80.8558 30.6457 0.0000 28.9072 19.4314 3.1731
78 17.4786 0.0000 62.5014 8.2313 4.0339 33.9345
79 0.0000 52.9133 100.0000 27.3875 25.2828 98.0443
80 0.0000 0.0000 21.6687 1.6393 1.2755 4.7160
81 100.0000 63.2442 26.8343 55.4887 47.7951 12.7290
82 81.1199 0.0000 74.9290 35.7029 17.8392 51.3444
83 53.5204 46.1268 0.0000 17.4490 18.9612 3.6863
84 100.0000 52.2878 100.0000 67.9966 45.8932 99.8822
85 48.0651 0.0000 0.0000 8.9759 5.1372 1.4646
86 59.0663 30.6303 100.0000 34.0897 20.0347 96.6781
87 79.1929 0.0000 100.0000 42.9180 20.5708 96.3163
88 0.0000 20.1574 51.9547 6.2960 5.0413 23.3712
89 0.0000 57.7916 50.3056 15.2123 23.3227 24.9595
90 100.0000 20.8152 51.8029 47.1718 26.2272 25.1683
91 66.3744 0.0000 45.8796 20.3816 10.6499 18.5867
92 84.1975 100.0000 51.5740 68.1013 87.6992 35.7236
93 81.4859 81.0610 0.0000 48.6633 58.2839 9.6312
94 29.6697 23.5781 66.8290 12.7025 8.6084 39.7916
95 27.2750 50.1993 89.5477 24.9734 23.1232 77.0079
96 0.0000 80.9873 0.0000 22.9246 44.9483 8.4137
97 100.0000 43.5146 81.7576 58.7317 37.8265 64.5378
98 70.0908 36.2560 33.0477 24.7162 18.7498 11.6214
99 73.4663 29.6898 49.9177 27.6713 18.1036 22.9581
100 45.1828 75.4570 21.4821 27.4072 42.3970 11.2359
101 49.9009 86.6014 100.0000 53.0758 63.7423 104.1138
102 25.7595 49.7247 0.0000 10.6416 17.1113 3.6880
103 38.1484 0.0000 20.3678 6.4726 3.7760 4.5429
104 48.5218 100.0000 84.5588 56.7662 80.9163 77.6373
105 74.4798 55.1600 0.0000 31.3343 30.5875 5.1986
106 24.2825 65.9513 52.1649 20.9998 31.4779 27.8909
107 67.8315 88.9043 57.3843 50.2820 66.0865 38.1076
108 42.3421 33.8637 72.6187 19.0801 14.2746 48.2331
109 100.0000 84.8843 18.9687 66.7397 71.1134 13.9629
110 46.6258 100.0000 28.3281 45.0361 76.1465 19.3799
111 0.0000 58.3185 24.6666 12.4309 22.5441 9.2834
112 86.7234 65.5114 100.0000 62.0746 50.7694 101.1355
113 100.0000 20.6599 25.0478 43.9368 24.9046 8.2205
114 67.7017 100.0000 69.3827 61.1844 83.6992 55.0176
115 0.0000 79.7377 41.8550 24.7836 44.4850 21.9236
116 25.7940 100.0000 0.0000 38.5622 72.9437 12.9932
117 100.0000 0.0000 76.8292 51.6326 25.9892 54.8930
118 38.1623 0.0000 63.8403 12.3905 6.1436 35.6864
119 61.2059 67.6457 43.0458 32.0106 38.5116 21.2309
120 75.2017 0.0000 28.5166 23.5936 12.5365 8.3141
121 31.6713 61.5092 80.7456 27.2181 30.9504 63.2319
122 0.0000 20.1582 78.8905 12.5971 7.5619 56.5518
123 46.8986 0.0000 38.6545 10.7720 5.8080 13.0791
124 21.5210 40.4319 100.0000 25.1849 18.5720 96.8651
125 100.0000 39.9120 16.9148 46.8943 31.5852 6.8463
126 33.1729 42.8858 58.9719 15.5548 15.9890 31.9364
127 59.6324 14.4525 89.6757 28.3882 14.4980 75.3990
128 76.9368 75.7596 49.0537 46.1268 51.9520 27.7795
129 31.3088 54.2970 13.7553 13.5763 20.9274 5.8500
130 12.3602 93.0304 89.5839 45.4961 66.9592 84.4541
131 0.0000 61.1183 76.5159 22.4602 28.3959 56.4245
132 90.1542 76.1590 11.1431 52.5800 56.0106 10.0995
133 62.6835 39.4627 88.6950 33.4569 22.9716 74.9713
134 100.0000 85.8083 46.0058 70.0047 73.3851 28.1787
135 41.3117 25.7918 0.0000 8.6735 7.8248 1.9993
136 100.0000 60.9593 50.2049 57.3147 46.9465 27.2124
137 75.8217 82.6598 100.0000 63.6875 65.4326 103.8808
138 75.7053 19.6291 100.0000 41.7362 21.6412 96.5852
139 0.0000 17.7598 0.0000 1.8904 2.8798 1.4023
140 59.1188 61.0262 7.7458 25.3689 30.9513 6.2270
141 61.3597 63.7764 26.6990 28.5501 34.2601 11.4814
142 84.4201 100.0000 83.9646 76.2060 90.9601 77.5415
143 46.2654 20.5886 39.1748 11.8541 8.1963 13.8132
144 44.5616 46.8317 100.0000 32.2233 24.8261 97.7013
145 20.6230 84.2460 100.0000 44.2661 56.9140 103.2602
146 49.5677 31.3291 28.3074 13.5227 11.5507 8.5636
147 50.7379 72.5571 85.7434 39.7627 45.0544 73.6526
148 88.9674 17.2817 11.7904 33.3977 19.0277 4.0789
149 85.9137 43.6366 72.8762 44.3096 30.7388 50.4423
150 0.0000 82.8463 82.7140 35.7058 51.9019 70.0423
151 0.0000 39.6501 61.4718 11.5721 12.6366 34.2453
152 43.6768 66.7381 64.1883 28.3575 35.5416 40.9328
153 0.0000 18.7150 25.3249 2.9183 3.4434 6.3448
154 41.1479 71.5777 0.0000 23.3764 37.3027 6.9142
155 40.6828 10.1179 50.5840 10.8561 6.1898 22.1261
156 86.7050 45.1971 22.2524 37.3234 28.7195 8.3214
157 22.5250 66.1721 33.0296 18.2369 30.5073 14.2230
158 16.7067 64.6359 76.3390 24.9234 31.9632 56.7187
159 100.0000 87.1870 82.3752 79.2477 78.5490 72.3306
160 19.1062 44.3858 25.8437 9.0282 13.7607 8.2139
161 93.8758 13.4272 38.9889 39.1421 21.2794 14.7817
162 13.9094 30.8509 54.7734 9.0594 8.7159 26.5884
163 43.3402 93.4863 41.7055 40.3554 66.1149 25.1743
164 83.1322 0.0000 49.5076 31.5706 16.3527 22.0618
165 46.1562 54.6429 13.3593 17.7823 23.2849 6.0065
166 21.0440 100.0000 48.9069 41.4876 74.0306 32.1617
167 90.6950 71.2066 37.8436 52.2512 51.6592 19.2392
168 19.1713 0.0000 21.9450 2.9048 1.9259 4.8636
169 77.6705 60.5831 49.1541 39.2281 37.4079 25.4209
170 19.0655 18.5630 100.0000 21.0754 10.8242 95.5862
171 18.1095 0.0000 82.7558 13.7176 6.2366 62.4563
172 70.9216 10.3316 10.3044 20.3422 11.5293 3.0829
173 0.0000 38.1612 19.3331 5.7661 9.7430 5.4323
174 62.3721 15.6438 46.4993 19.1339 11.1058 19.2268
175 96.8618 90.6428 58.4491 72.6267 79.3831 40.6089
176 40.9938 0.0000 86.3142 19.4663 9.0663 68.7727
177 87.0744 0.0000 15.0129 31.1364 16.5209 4.3330
178 61.1455 0.0000 80.6419 25.4941 12.3837 59.5726
179 11.1913 96.3990 16.2276 34.4134 66.5556 14.0903
180 80.3605 14.9772 31.2361 27.9666 15.7908 9.9670
181 72.1894 51.0555 89.2113 42.2611 32.4720 77.2833
182 79.0300 29.0751 69.5194 35.2546 21.3864 44.5371
183 60.2411 42.9183 22.7463 20.2880 18.9879 7.5052
184 60.8517 77.5734 17.4517 34.7748 47.9989 10.7863
185 31.4297 74.4989 73.2403 31.3160 42.6833 53.9460
186 77.3117 66.6949 14.5461 38.3601 41.3925 8.6541
187 10.0365 48.5122 55.9973 13.3540 17.3676 29.2400
188 75.5495 73.8158 32.2763 42.0064 48.4908 16.0549
189 52.3610 43.8731 63.3237 22.7412 19.9883 37.2047
190 56.7029 77.5025 55.3174 37.1126 48.6462 33.3500
191 45.3396 15.6873 14.3063 9.1044 6.2815 3.3694
192 85.7447 70.0044 60.0248 51.3269 49.8588 37.7273
193 46.6589 29.5572 55.8318 15.8567 11.8576 27.8792
194 31.0936 91.9858 67.0649 40.7329 64.1448 49.3309
195 35.1455 32.5061 16.4509 8.5553 9.4064 4.4747
196 8.4778 63.7030 62.8324 20.4393 29.4219 38.5741
197 19.0686 12.5992 37.3102 4.7526 3.4873 12.1202
198 36.9164 15.2957 85.2476 18.7011 9.7792 67.0950
199 76.5237 13.6667 54.2803 28.4278 15.5138 26.4027
200 90.2864 12.1017 80.5429 44.7673 23.0375 60.4545
201 63.9780 60.5771 100.0000 45.3197 38.9061 99.7288
202 58.9781 58.5957 79.1704 34.7206 33.0839 60.7493
203 100.0000 43.3091 60.7029 53.1852 35.5176 35.6083
204 20.9108 35.8036 12.4333 6.4040 9.3177 3.7392
205 17.9981 78.3558 43.8034 25.3436 43.5313 23.1017
206 31.7249 26.1837 48.4838 9.8536 8.1059 20.7494
207 77.9281 48.7601 58.3957 36.7347 29.4829 32.8124
208 43.5348 74.3933 45.9239 28.7928 41.9519 24.2198
209 26.5626 40.2438 74.0186 17.1232 15.3629 50.5294
210 62.3739 82.1017 83.3377 49.6047 58.3538 71.5948
211 85.6713 30.5967 37.3972 34.4717 22.0488 14.1891
212 59.0747 89.2401 2.1717 40.8964 62.1853 10.9510
213 27.8906 83.9768 14.9828 27.7229 50.1534 10.9982
214 7.0893 9.8297 59.0672 7.0441 4.0190 30.1766
215 79.2155 30.3419 19.0558 28.2574 18.9534 5.9473
216 46.1680 14.0984 71.0422 17.2068 9.3497 45.2068
217 34.1000 13.2898 29.1166 6.6326 4.6229 7.9459
218 60.8854 100.0000 46.7885 53.0993 80.0550 30.9748
219 86.8012 100.0000 19.4989 66.5411 87.3022 17.2464
220 41.7321 81.9575 60.3667 35.2236 51.5074 39.2696
221 23.8793 53.3527 41.5596 14.1465 20.4545 17.6417
222 14.5736 31.8253 82.2532 16.1212 11.8352 62.5796
223 49.0464 44.6548 84.7498 27.5609 22.1207 68.1545
224 68.8708 49.5730 40.9516 28.5248 25.9690 17.5337
225 89.5248 32.2614 90.3256 49.9092 29.0643 78.2809
226 38.6805 43.8747 3.7605 11.7804 15.0730 3.5072
227 42.5600 92.1198 16.8551 36.9525 63.1306 13.4447
228 57.6177 18.7464 61.0899 19.8102 11.5799 33.1781
229 79.2854 59.7093 79.4298 46.8874 40.0180 61.8536
230 83.7257 87.2600 61.6177 60.2913 69.4834 42.8148
231 50.1204 34.8053 12.5955 13.5109 12.6651 4.0398
232 32.9519 76.7002 91.8091 38.7415 47.6550 85.2505
233 15.8739 80.4172 76.5971 33.2515 48.6276 59.8826
234 7.5884 49.7124 35.4841 10.5544 16.8469 13.3251
235 90.9918 56.7766 65.5160 50.8081 40.7355 42.3562
236 37.0896 48.2099 27.4700 13.6795 17.8330 9.4116
237 7.1281 65.8269 39.6751 17.3713 29.7361 18.0026
238 79.2441 58.5546 29.7551 37.0599 35.3344 12.5597
239 11.7459 47.5154 71.2943 16.6066 18.1856 47.2875
240 16.8172 84.3183 28.5288 27.1747 50.0997 15.3811
241 11.0365 46.9460 91.0118 22.4747 20.2491 79.3095
242 57.5504 93.5229 91.6585 57.8916 73.8008 89.0015
243 49.6313 28.8922 86.6200 24.8584 15.4012 70.2489
244 11.6860 67.4314 17.9122 16.5523 30.6542 8.5165
245 23.5747 13.2048 76.9140 13.2382 7.0203 53.3829
246 66.3234 20.9393 32.7975 20.0239 12.5489 10.5422
247 59.4393 84.9885 35.0718 39.9871 57.2760 19.3452
248 78.2497 90.0439 40.5161 54.7559 69.8834 24.3351
249 38.6759 59.5377 49.1607 20.7787 27.2546 24.4391
250 88.4230 71.0458 78.7155 58.6366 53.8702 62.7913
251 77.1929 91.0269 73.2007 61.1505 73.4703 58.2602
252 73.6979 28.4178 84.1876 35.8912 21.0646 66.5530
253 65.2320 38.7111 5.8146 21.0647 17.8769 3.7275
254 12.0509 27.8713 34.5261 5.4827 6.4529 11.0518
255 31.3367 12.8356 7.9989 4.8776 3.7980 2.0958
256 51.8852 93.8418 66.6069 48.2315 70.0363 49.4975
257 18.2670 63.2880 3.0169 14.8178 26.9733 5.5902
258 57.1320 8.9372 30.1587 14.2530 8.1491 8.7013
259 74.7568 94.1629 90.1769 67.1448 79.3357 86.7991
260 10.4598 92.2481 63.1778 37.2444 62.7319 44.5199
261 78.2867 82.9681 19.2147 48.1845 59.7287 12.8117
262 65.8897 92.6037 14.4340 47.0043 68.8452 13.4742
263 16.2456 77.7144 59.5023 27.4927 43.7730 37.2405
264 59.2531 37.3053 48.9623 21.3211 17.1102 22.2845
265 22.5007 13.8979 53.4914 7.6781 4.8592 24.6879
266 23.3691 39.2544 45.8398 10.4644 12.2494 19.3872
267 42.8104 57.2223 90.5517 31.6444 30.2626 79.8966
268 25.5081 56.4118 64.0122 19.5280 24.4423 39.0461
269 88.4468 56.3372 9.5278 41.8469 36.6451 6.6853
270 11.3006 68.3373 90.4240 30.7026 37.0134 81.0108
271 30.3781 30.3488 89.5643 20.5891 13.4568 75.4036
272 36.3235 88.6312 82.8443 43.9808 61.8072 71.7345
273 10.8750 12.6465 88.4812 15.4749 7.6925 72.5819
274 60.0147 20.1064 15.2905 15.5091 10.2207 4.0009
275 53.9532 78.3879 70.6435 39.8507 50.4266 51.4018
276 30.1890 68.4439 18.9654 19.6012 32.9488 9.0800
277 8.3594 93.0725 40.2624 33.7481 62.2791 23.8060
278 88.3922 48.8047 89.8529 53.0255 36.9023 78.7522
279 67.5175 44.8243 69.4640 31.6910 24.8317 45.3167
280 3.9812 11.9378 37.8021 3.6554 2.8497 12.3539
281 10.5485 22.7764 68.0339 10.4113 7.2388 41.1791
282 8.7660 26.4801 10.4779 3.4965 5.2861 2.7918
283 11.3215 46.7643 8.0408 8.1382 14.4290 3.9810
284 75.1969 11.9502 83.4530 34.7465 17.7518 64.7341
285 44.0647 64.2323 32.8661 22.2946 31.2767 14.0728
286 69.0542 9.6260 67.9733 26.5296 13.8169 41.5215
287 89.7461 88.5378 30.1168 61.0759 71.7209 18.4845
288 41.7221 84.6163 4.5756 31.1972 52.5876 9.7861
289 42.8094 53.8987 71.2744 24.4660 25.3993 48.2384
290 88.5756 30.4062 57.5221 39.8135 24.3908 30.7537
291 11.6566 84.2595 8.7441 25.6414 49.3728 9.8910
292 54.2063 51.0343 35.1201 21.0933 22.9336 13.7394
293 62.0777 29.7540 71.8953 26.0142 16.7247 47.3351
294 66.6809 71.1235 90.4119 48.0190 48.0157 82.1992
295 30.6629 86.0567 49.2349 32.9691 54.4776 29.1142
296 90.8521 13.1861 63.8562 40.8771 21.6536 37.1975
297 33.5289 85.5045 32.3117 31.0571 53.2043 17.5597
298 88.1764 49.0616 42.8012 41.6590 32.4671 19.3805
299 74.4425 48.3492 14.2021 29.2973 26.0390 6.0975
300 89.5717 9.1391 94.5537 48.7980 24.3079 85.5398
301 100.0000 100.0000 100.0000 95.0500 100.0000 108.9000
302 100.0000 100.0000 100.0000 95.0500 100.0000 108.9000
303 100.0000 100.0000 100.0000 95.0500 100.0000 108.9000
304 100.0000 100.0000 100.0000 95.0500 100.0000 108.9000
END_DATA
CTI1   

DESCRIPTOR "Argyll Calibration Target chart information 1"
ORIGINATOR "ChromIQ"
DENSITY_EXTREME_VALUES "8"
CREATED "Mo Sep 07 08:52:31 2026"

NUMBER_OF_FIELDS 7
BEGIN_DATA_FORMAT
INDEX RGB_R RGB_G RGB_B XYZ_X XYZ_Y XYZ_Z
END_DATA_FORMAT

NUMBER_OF_SETS 8
BEGIN_DATA
0 100.0000 100.0000 100.0000 95.0500 100.0000 108.9000
1 0.0000 100.0000 100.0000 54.2224 78.9526 106.9893
2 100.0000 0.0000 100.0000 59.6476 29.1952 97.0992
3 0.0000 0.0000 100.0000 18.8200 8.1478 95.1885
4 100.0000 100.0000 0.0000 77.1805 92.8522 14.8005
5 0.0000 100.0000 0.0000 36.3529 71.8048 12.8898
6 100.0000 0.0000 0.0000 41.7781 22.0474 2.9997
7 0.0000 0.0000 0.0000 0.9505 1.0000 1.0890
END_DATA
CTI1   

DESCRIPTOR "Argyll Calibration Target chart information 1"
ORIGINATOR "ChromIQ"
DEVICE_COMBINATION_VALUES "9"
CREATED "Mo Sep 07 08:52:31 2026"

NUMBER_OF_FIELDS 7
BEGIN_DATA_FORMAT
INDEX RGB_R RGB_G RGB_B XYZ_X XYZ_Y XYZ_Z
END_DATA_FORMAT

NUMBER_OF_SETS 9
BEGIN_DATA
0 100.0000 100.0000 100.0000 95.0500 100.0000 108.9000
1 0.0000 100.0000 100.0000 54.2224 78.9526 106.9893
2 100.0000 0.0000 100.0000 59.6476 29.1952 97.0992
3 0.0000 0.0000 100.0000 18.8200 8.1478 95.1885
4 100.0000 100.0000 0.0000 77.1805 92.8522 14.8005
5 0.0000 100.0000 0.0000 36.3529 71.8048 12.8898
6 100.0000 0.0000 0.0000 41.7781 22.0474 2.9997
7 0.0000 0.0000 0.0000 0.9505 1.0000 1.0890
8 50.0000 50.0000 50.0000 21.0917 22.1901 24.1650
END_DATA
