demo-projects/Demo-Report-Matrix/runs/run1/verifications/2026-08-08_100000/Demo-Report-Matrix-verify.ti3
CTI3   
KEYWORD "CHROMIQ_VERIFICATION"
CHROMIQ_VERIFICATION "true"

DESCRIPTOR "Argyll Calibration Target chart information 3"
ORIGINATOR "Argyll fakeread"
CREATED "Tue Aug 11 11:21:04 2026"
DEVICE_CLASS "DISPLAY"
COLOR_REP "iRGB_XYZ"

KEYWORD "CHROMIQ_MEASURED"
CHROMIQ_MEASURED "2026-08-08T10:00:00"
TARGET_INSTRUMENT "X-Rite ColorMunki"
NUMBER_OF_FIELDS 7
BEGIN_DATA_FORMAT
SAMPLE_ID RGB_R RGB_G RGB_B XYZ_X XYZ_Y XYZ_Z 
END_DATA_FORMAT

NUMBER_OF_SETS 108
BEGIN_DATA
1 107.7025 98.90070 86.08070 89.79447 97.59095 82.00382 
2 107.7025 98.90070 86.08070 89.23536 95.83625 83.77703 
3 107.7025 98.90070 86.08070 88.86912 96.47342 79.45181 
4 107.7025 98.90070 86.08070 89.09468 96.01533 82.31732 
5 0.00000 0.00000 0.00000 0.00192427 0.00383939 0.000652847 
6 0.00000 0.00000 0.00000 0.0000102032 5.27815e-06 5.34667e-07 
7 0.00000 0.00000 0.00000 0.000192424 0.000383933 0.0000652837 
8 0.00000 0.00000 0.00000 0.0115189 0.00606333 0.000623911 
9 104.0819 95.57590 83.18690 85.37477 89.88023 77.10271 
10 100.4734 92.26230 80.30280 82.46973 85.82465 70.77135 
11 96.87610 88.95900 77.42770 76.66976 80.87480 64.66623 
12 93.29180 85.66760 74.56300 67.28755 69.53175 60.21703 
13 89.71970 82.38750 71.70810 64.23916 65.87335 55.07316 
14 86.16010 79.11880 68.86300 57.93859 60.24981 50.51991 
15 82.61510 75.86350 66.02970 54.80049 56.49400 46.50865 
16 79.08300 72.62010 63.20670 50.15318 52.72910 44.54523 
17 75.56540 69.38990 60.39520 43.54144 46.31849 37.22040 
18 72.06260 66.17340 57.59570 40.36207 42.66246 35.33782 
19 68.57680 62.97240 54.80970 35.47955 36.44305 30.80506 
20 65.10630 59.78560 52.03590 31.70692 31.74319 29.55325 
21 61.65210 56.61370 49.27520 28.00723 28.85248 23.26769 
22 58.21540 53.45780 46.52840 25.44986 26.94188 20.43513 
23 54.79940 50.32100 43.79810 22.62245 23.01892 18.42080 
24 51.40120 47.20050 41.08210 19.86501 19.58291 17.12746 
25 48.02280 44.09820 38.38200 15.89459 16.85438 13.77526 
26 44.66700 41.01660 35.69980 14.26613 14.87711 11.87970 
27 41.33530 37.95720 33.03700 11.83681 12.58237 10.19658 
28 38.02480 34.91730 30.39120 9.650318 9.882849 9.188190 
29 34.74300 31.90370 27.76820 7.969585 8.379414 6.611128 
30 31.49120 28.91760 25.16920 6.713727 7.283440 5.748460 
31 28.26810 25.95790 22.59310 5.380592 6.053172 4.940656 
32 25.07590 23.02660 20.04180 3.908501 4.337407 3.471535 
33 21.92370 20.13200 17.52240 3.268539 3.107116 2.918657 
34 18.81050 17.27320 15.03420 2.171939 2.286041 1.635701 
35 15.74930 14.46220 12.58760 1.714089 1.906264 1.440658 
36 12.74130 11.70010 10.18350 0.737798 0.807308 0.856735 
37 9.790900 8.990800 7.825400 0.481220 0.496737 0.346988 
38 6.896800 6.333200 5.512200 0.313176 0.388782 0.303671 
39 13.48170 7.414700 87.91940 14.75104 6.299013 71.86796 
40 14.10430 33.12870 58.65500 8.907724 8.430066 28.65999 
41 106.1945 86.38050 25.39570 68.61244 74.20585 16.84131 
42 35.48540 99.13060 70.69240 48.72635 75.32220 60.56180 
43 23.91460 63.37250 70.80770 23.10583 29.83615 48.67873 
44 96.80360 0.00000 55.70000 43.42194 21.90726 28.18734 
45 90.86230 51.57680 40.29980 43.65119 34.68544 17.41581 
46 77.75910 43.51630 86.01120 43.17155 28.41585 71.45113 
47 73.30080 87.16020 46.03350 50.54750 64.72301 26.86942 
48 15.60330 43.67870 30.25990 7.956227 12.87924 9.228683 
49 59.36060 31.83710 38.54260 18.71851 13.94076 14.13252 
50 75.58590 72.07020 87.02920 53.54049 51.93623 79.06441 
51 77.27500 52.84940 67.13990 40.78325 33.86898 44.59841 
52 62.16660 82.93650 71.94120 47.23479 57.92056 58.03213 
53 26.61100 1.116600 31.47640 3.904176 1.875442 7.861967 
54 72.69560 62.72160 37.91380 35.54041 36.76316 16.06897 
55 25.47290 35.53810 87.76750 19.94680 14.26456 74.05541 
56 8.827700 10.33200 54.42030 5.217453 2.493830 25.09760 
57 82.28590 0.00000 26.95480 26.55407 13.62354 6.631696 
58 23.69890 67.45360 33.54620 20.09119 34.42083 15.55869 
59 40.17270 99.17810 86.55220 54.08379 79.35203 80.81245 
60 74.38500 53.41520 49.20950 34.11887 30.57213 22.11486 
61 21.72070 0.00000 11.21290 1.739364 0.890770 0.629525 
62 64.28770 98.97820 35.49910 52.74411 78.48758 23.73542 
63 91.53530 86.94670 86.56670 74.27557 76.04089 79.17133 
64 22.16750 60.49770 55.19900 18.63366 26.90359 29.74594 
65 82.39100 0.00000 12.30210 27.30683 14.12127 2.228383 
66 101.0950 98.89150 72.27220 86.00143 95.93131 62.57195 
67 40.46560 58.74930 75.56350 27.71301 30.49419 57.21525 
68 47.50320 31.74940 18.86290 11.75188 10.43584 4.135979 
69 65.62040 0.00000 56.11120 21.74515 10.67549 27.73253 
70 56.73780 25.19950 87.73240 27.33578 14.95811 71.94848 
71 92.32250 98.97280 81.63830 82.93476 93.96471 72.54009 
72 58.51600 54.41650 58.03220 27.59611 27.31769 32.80335 
73 8.005700 20.34360 27.79110 2.465398 2.950393 5.879707 
74 40.39160 42.28760 25.31810 12.10931 13.86442 7.563711 
75 58.89040 0.00000 35.48820 14.31787 7.192022 10.74548 
76 67.19080 85.36400 86.79160 55.58968 63.37152 77.29035 
77 57.10130 77.49240 54.44300 37.14029 49.27877 31.94239 
78 34.84580 11.50920 26.20740 5.735614 3.354673 5.664130 
79 100.8336 98.82730 46.58900 78.44324 90.60876 30.04062 
80 104.2643 55.40680 22.59220 52.02178 41.57991 9.749281 
81 32.61960 79.32880 62.57750 30.99913 46.88931 40.47055 
82 62.80280 26.64120 23.24500 16.94338 11.58850 5.471032 
83 42.22800 31.50810 45.71610 13.67006 11.58634 19.51761 
84 63.56000 0.00000 27.45600 17.54880 8.947574 6.970483 
85 46.63030 63.37470 25.58430 22.85177 32.16504 9.706159 
86 59.40380 99.03560 57.22010 53.09645 79.75147 38.54096 
87 90.51130 41.70010 47.23190 40.06306 27.12720 21.15404 
88 55.41510 3.762000 0.00000 11.11744 5.798131 0.591707 
89 51.51180 60.43340 57.35810 28.24080 32.90138 34.81889 
90 15.51090 40.33120 49.78250 9.615444 11.72336 22.70642 
91 15.36210 16.48990 0.00000 1.758757 2.098858 0.322956 
92 56.81410 26.81510 47.08780 17.97393 11.61237 17.44314 
93 103.5642 0.00000 87.44410 54.17527 26.58282 69.73247 
94 50.71300 53.94420 87.48000 32.77802 29.85978 73.15255 
95 39.36070 6.973500 14.40850 6.474059 3.394835 2.050872 
96 27.40990 20.02810 24.64910 4.509689 3.640061 4.702912 
97 85.14110 39.01400 57.74110 39.65665 26.69317 32.16861 
98 16.45780 43.61340 44.15710 9.583293 12.90401 18.00908 
99 71.53740 58.39510 13.01160 31.56742 32.38344 6.117337 
100 31.58720 85.13340 85.46760 39.27809 53.07178 76.68346 
101 100.0000 100.0000 100.0000 94.50659 99.70703 108.7106 
102 0.00000 0.00000 0.00000 0.00206216 0.000837010 0.0107651 
103 100.0000 0.00000 0.00000 40.10570 20.74674 2.101616 
104 0.00000 100.0000 0.00000 35.75261 71.32885 12.14913 
105 0.00000 0.00000 100.0000 18.09587 7.345227 94.45137 
106 0.00000 100.0000 100.0000 53.84179 78.67107 106.5797 
107 100.0000 0.00000 100.0000 58.56963 28.36644 92.67225 
108 100.0000 100.0000 0.00000 76.68444 92.50340 14.27353 
END_DATA
