assets/charts/knut/rgb/i1pro/i1_w8_a4_572p_1page_portrait_w8_0mm/chart.ti1
CTI1   

DESCRIPTOR "Argyll Calibration Target chart information 1"
ORIGINATOR "ChromIQ"
APPROX_WHITE_POINT "95.050000 100.000000 108.900000"
COLOR_REP "iRGB"
WHITE_COLOR_PATCHES "2"
BLACK_COLOR_PATCHES "2"
CREATED "Sun Aug 23 22:17:07 2026"

NUMBER_OF_FIELDS 7
BEGIN_DATA_FORMAT
SAMPLE_ID RGB_R RGB_G RGB_B XYZ_X XYZ_Y XYZ_Z
END_DATA_FORMAT

NUMBER_OF_SETS 572
BEGIN_DATA
1 0.0000 0.0000 0.0000 0.9505 1.0000 1.0890
2 0.0000 0.0000 16.6667 1.3732 1.1691 3.3147
3 0.0000 0.0000 33.3333 2.5738 1.6493 9.6372
4 0.0000 0.0000 50.0000 4.7753 2.5299 21.2302
5 0.0000 0.0000 66.6667 8.1336 3.8733 38.9149
6 0.0000 0.0000 83.3333 12.7779 5.7310 63.3712
7 0.0000 0.0000 100.0000 18.8200 8.1478 95.1885
8 0.0000 16.6667 0.0000 1.7879 2.6747 1.3681
9 0.0000 16.6667 16.6667 2.2105 2.8438 3.5938
10 0.0000 16.6667 33.3333 3.4111 3.3240 9.9163
11 0.0000 16.6667 50.0000 5.6127 4.2046 21.5093
12 0.0000 16.6667 66.6667 8.9710 5.5480 39.1940
13 0.0000 16.6667 83.3333 13.6152 7.4057 63.6503
14 0.0000 16.6667 100.0000 19.6574 9.8225 95.4676
15 0.0000 33.3333 0.0000 4.1665 7.4320 2.1610
16 0.0000 33.3333 16.6667 4.5892 7.6011 4.3867
17 0.0000 33.3333 33.3333 5.7898 8.0813 10.7092
18 0.0000 33.3333 50.0000 7.9913 8.9620 22.3022
19 0.0000 33.3333 66.6667 11.3497 10.3053 39.9869
20 0.0000 33.3333 83.3333 15.9939 12.1630 64.4432
21 0.0000 33.3333 100.0000 22.0360 14.5798 96.2605
22 0.0000 50.0000 0.0000 8.5281 16.1551 3.6149
23 0.0000 50.0000 16.6667 8.9507 16.3242 5.8405
24 0.0000 50.0000 33.3333 10.1514 16.8045 12.1630
25 0.0000 50.0000 50.0000 12.3529 17.6851 23.7560
26 0.0000 50.0000 66.6667 15.7112 19.0284 41.4408
27 0.0000 50.0000 83.3333 20.3555 20.8861 65.8970
28 0.0000 50.0000 100.0000 26.3976 23.3029 97.7144
29 0.0000 66.6667 0.0000 15.1815 29.4620 5.8327
30 0.0000 66.6667 16.6667 15.6041 29.6310 8.0583
31 0.0000 66.6667 33.3333 16.8048 30.1113 14.3808
32 0.0000 66.6667 50.0000 19.0063 30.9919 25.9738
33 0.0000 66.6667 66.6667 22.3646 32.3352 43.6586
34 0.0000 66.6667 83.3333 27.0089 34.1929 68.1148
35 0.0000 66.6667 100.0000 33.0510 36.6098 99.9322
36 0.0000 83.3333 0.0000 24.3825 47.8640 8.8997
37 0.0000 83.3333 16.6667 24.8051 48.0330 11.1253
38 0.0000 83.3333 33.3333 26.0058 48.5133 17.4478
39 0.0000 83.3333 50.0000 28.2073 49.3939 29.0408
40 0.0000 83.3333 66.6667 31.5656 50.7372 46.7256
41 0.0000 83.3333 83.3333 36.2099 52.5949 71.1818
42 0.0000 83.3333 100.0000 42.2520 55.0118 102.9992
43 0.0000 100.0000 0.0000 36.3529 71.8048 12.8898
44 0.0000 100.0000 16.6667 36.7756 71.9739 15.1155
45 0.0000 100.0000 33.3333 37.9762 72.4541 21.4380
46 0.0000 100.0000 50.0000 40.1777 73.3347 33.0310
47 0.0000 100.0000 66.6667 43.5360 74.6781 50.7157
48 0.0000 100.0000 83.3333 48.1803 76.5358 75.1720
49 0.0000 100.0000 100.0000 54.2224 78.9526 106.9893
50 16.6667 0.0000 0.0000 1.9162 1.4978 1.1342
51 16.6667 0.0000 16.6667 2.3388 1.6669 3.3599
52 16.6667 0.0000 33.3333 3.5395 2.1471 9.6824
53 16.6667 0.0000 50.0000 5.7410 3.0277 21.2754
54 16.6667 0.0000 66.6667 9.0993 4.3711 38.9601
55 16.6667 0.0000 83.3333 13.7436 6.2288 63.4164
56 16.6667 0.0000 100.0000 19.7857 8.6456 95.2337
57 16.6667 16.6667 0.0000 2.7535 3.1725 1.4133
58 16.6667 16.6667 16.6667 3.1762 3.3416 3.6390
59 16.6667 16.6667 33.3333 4.3768 3.8218 9.9615
60 16.6667 16.6667 50.0000 6.5783 4.7024 21.5545
61 16.6667 16.6667 66.6667 9.9367 6.0458 39.2392
62 16.6667 16.6667 83.3333 14.5809 7.9035 63.6955
63 16.6667 16.6667 100.0000 20.6230 10.3203 95.5128
64 16.6667 33.3333 0.0000 5.1322 7.9299 2.2062
65 16.6667 33.3333 16.6667 5.5548 8.0989 4.4319
66 16.6667 33.3333 33.3333 6.7555 8.5792 10.7544
67 16.6667 33.3333 50.0000 8.9570 9.4598 22.3474
68 16.6667 33.3333 66.6667 12.3153 10.8031 40.0321
69 16.6667 33.3333 83.3333 16.9596 12.6608 64.4884
70 16.6667 33.3333 100.0000 23.0017 15.0777 96.3057
71 16.6667 50.0000 0.0000 9.4937 16.6530 3.6600
72 16.6667 50.0000 16.6667 9.9164 16.8220 5.8857
73 16.6667 50.0000 33.3333 11.1170 17.3023 12.2082
74 16.6667 50.0000 50.0000 13.3185 18.1829 23.8012
75 16.6667 50.0000 66.6667 16.6769 19.5262 41.4860
76 16.6667 50.0000 83.3333 21.3211 21.3839 65.9422
77 16.6667 50.0000 100.0000 27.3632 23.8008 97.7595
78 16.6667 66.6667 0.0000 16.1471 29.9598 5.8779
79 16.6667 66.6667 16.6667 16.5698 30.1288 8.1035
80 16.6667 66.6667 33.3333 17.7704 30.6091 14.4260
81 16.6667 66.6667 50.0000 19.9720 31.4897 26.0190
82 16.6667 66.6667 66.6667 23.3303 32.8330 43.7038
83 16.6667 66.6667 83.3333 27.9745 34.6907 68.1600
84 16.6667 66.6667 100.0000 34.0166 37.1076 99.9774
85 16.6667 83.3333 0.0000 25.3482 48.3618 8.9449
86 16.6667 83.3333 16.6667 25.7708 48.5309 11.1705
87 16.6667 83.3333 33.3333 26.9715 49.0111 17.4930
88 16.6667 83.3333 50.0000 29.1730 49.8917 29.0860
89 16.6667 83.3333 66.6667 32.5313 51.2351 46.7708
90 16.6667 83.3333 83.3333 37.1755 53.0927 71.2270
91 16.6667 83.3333 100.0000 43.2177 55.5096 103.0444
92 16.6667 100.0000 0.0000 37.3186 72.3026 12.9350
93 16.6667 100.0000 16.6667 37.7412 72.4717 15.1607
94 16.6667 100.0000 33.3333 38.9419 72.9519 21.4832
95 16.6667 100.0000 50.0000 41.1434 73.8325 33.0762
96 16.6667 100.0000 66.6667 44.5017 75.1759 50.7609
97 16.6667 100.0000 83.3333 49.1460 77.0336 75.2172
98 16.6667 100.0000 100.0000 55.1881 79.4504 107.0345
99 33.3333 0.0000 0.0000 4.6593 2.9120 1.2626
100 33.3333 0.0000 16.6667 5.0820 3.0810 3.4882
101 33.3333 0.0000 33.3333 6.2826 3.5613 9.8107
102 33.3333 0.0000 50.0000 8.4842 4.4419 21.4037
103 33.3333 0.0000 66.6667 11.8425 5.7852 39.0885
104 33.3333 0.0000 83.3333 16.4867 7.6429 63.5447
105 33.3333 0.0000 100.0000 22.5288 10.0598 95.3621
106 33.3333 16.6667 0.0000 5.4967 4.5867 1.5417
107 33.3333 16.6667 16.6667 5.9194 4.7557 3.7674
108 33.3333 16.6667 33.3333 7.1200 5.2360 10.0898
109 33.3333 16.6667 50.0000 9.3215 6.1166 21.6829
110 33.3333 16.6667 66.6667 12.6798 7.4599 39.3676
111 33.3333 16.6667 83.3333 17.3241 9.3176 63.8239
112 33.3333 16.6667 100.0000 23.3662 11.7345 95.6412
113 33.3333 33.3333 0.0000 7.8754 9.3440 2.3346
114 33.3333 33.3333 16.6667 8.2980 9.5131 4.5603
115 33.3333 33.3333 33.3333 9.4987 9.9933 10.8827
116 33.3333 33.3333 50.0000 11.7002 10.8739 22.4757
117 33.3333 33.3333 66.6667 15.0585 12.2173 40.1605
118 33.3333 33.3333 83.3333 19.7028 14.0750 64.6167
119 33.3333 33.3333 100.0000 25.7449 16.4918 96.4341
120 33.3333 50.0000 0.0000 12.2369 18.0671 3.7884
121 33.3333 50.0000 16.6667 12.6596 18.2362 6.0141
122 33.3333 50.0000 33.3333 13.8602 18.7164 12.3366
123 33.3333 50.0000 50.0000 16.0617 19.5970 23.9296
124 33.3333 50.0000 66.6667 19.4201 20.9404 41.6143
125 33.3333 50.0000 83.3333 24.0643 22.7981 66.0706
126 33.3333 50.0000 100.0000 30.1064 25.2149 97.8879
127 33.3333 66.6667 0.0000 18.8903 31.3739 6.0062
128 33.3333 66.6667 16.6667 19.3130 31.5430 8.2319
129 33.3333 66.6667 33.3333 20.5136 32.0233 14.5544
130 33.3333 66.6667 50.0000 22.7151 32.9039 26.1474
131 33.3333 66.6667 66.6667 26.0735 34.2472 43.8321
132 33.3333 66.6667 83.3333 30.7177 36.1049 68.2884
133 33.3333 66.6667 100.0000 36.7598 38.5217 100.1057
134 33.3333 83.3333 0.0000 28.0913 49.7760 9.0732
135 33.3333 83.3333 16.6667 28.5140 49.9450 11.2989
136 33.3333 83.3333 33.3333 29.7146 50.4253 17.6214
137 33.3333 83.3333 50.0000 31.9161 51.3059 29.2144
138 33.3333 83.3333 66.6667 35.2745 52.6492 46.8991
139 33.3333 83.3333 83.3333 39.9187 54.5069 71.3554
140 33.3333 83.3333 100.0000 45.9608 56.9238 103.1727
141 33.3333 100.0000 0.0000 40.0617 73.7168 13.0634
142 33.3333 100.0000 16.6667 40.4844 73.8858 15.2890
143 33.3333 100.0000 33.3333 41.6850 74.3661 21.6115
144 33.3333 100.0000 50.0000 43.8866 75.2467 33.2045
145 33.3333 100.0000 66.6667 47.2449 76.5900 50.8893
146 33.3333 100.0000 83.3333 51.8891 78.4477 75.3455
147 33.3333 100.0000 100.0000 57.9312 80.8646 107.1629
148 50.0000 0.0000 0.0000 9.6893 5.5050 1.4980
149 50.0000 0.0000 16.6667 10.1119 5.6741 3.7236
150 50.0000 0.0000 33.3333 11.3126 6.1543 10.0461
151 50.0000 0.0000 50.0000 13.5141 7.0349 21.6391
152 50.0000 0.0000 66.6667 16.8724 8.3783 39.3239
153 50.0000 0.0000 83.3333 21.5167 10.2360 63.7801
154 50.0000 0.0000 100.0000 27.5588 12.6528 95.5975
155 50.0000 16.6667 0.0000 10.5266 7.1797 1.7771
156 50.0000 16.6667 16.6667 10.9493 7.3488 4.0028
157 50.0000 16.6667 33.3333 12.1499 7.8290 10.3252
158 50.0000 16.6667 50.0000 14.3514 8.7096 21.9182
159 50.0000 16.6667 66.6667 17.7098 10.0530 39.6030
160 50.0000 16.6667 83.3333 22.3540 11.9107 64.0593
161 50.0000 16.6667 100.0000 28.3961 14.3275 95.8766
162 50.0000 33.3333 0.0000 12.9053 11.9370 2.5700
163 50.0000 33.3333 16.6667 13.3280 12.1061 4.7957
164 50.0000 33.3333 33.3333 14.5286 12.5864 11.1181
165 50.0000 33.3333 50.0000 16.7301 13.4670 22.7111
166 50.0000 33.3333 66.6667 20.0884 14.8103 40.3959
167 50.0000 33.3333 83.3333 24.7327 16.6680 64.8521
168 50.0000 33.3333 100.0000 30.7748 19.0848 96.6695
169 50.0000 50.0000 0.0000 17.2669 20.6601 4.0238
170 50.0000 50.0000 16.6667 17.6895 20.8292 6.2495
171 50.0000 50.0000 33.3333 18.8902 21.3095 12.5720
172 50.0000 50.0000 50.0000 21.0917 22.1901 24.1650
173 50.0000 50.0000 66.6667 24.4500 23.5334 41.8497
174 50.0000 50.0000 83.3333 29.0942 25.3911 66.3060
175 50.0000 50.0000 100.0000 35.1364 27.8079 98.1233
176 50.0000 66.6667 0.0000 23.9203 33.9670 6.2416
177 50.0000 66.6667 16.6667 24.3429 34.1360 8.4673
178 50.0000 66.6667 33.3333 25.5436 34.6163 14.7898
179 50.0000 66.6667 50.0000 27.7451 35.4969 26.3828
180 50.0000 66.6667 66.6667 31.1034 36.8402 44.0675
181 50.0000 66.6667 83.3333 35.7477 38.6979 68.5238
182 50.0000 66.6667 100.0000 41.7898 41.1148 100.3411
183 50.0000 83.3333 0.0000 33.1213 52.3690 9.3086
184 50.0000 83.3333 16.6667 33.5439 52.5380 11.5343
185 50.0000 83.3333 33.3333 34.7446 53.0183 17.8568
186 50.0000 83.3333 50.0000 36.9461 53.8989 29.4498
187 50.0000 83.3333 66.6667 40.3044 55.2422 47.1345
188 50.0000 83.3333 83.3333 44.9487 57.0999 71.5908
189 50.0000 83.3333 100.0000 50.9908 59.5168 103.4081
190 50.0000 100.0000 0.0000 45.0917 76.3098 13.2988
191 50.0000 100.0000 16.6667 45.5143 76.4789 15.5244
192 50.0000 100.0000 33.3333 46.7150 76.9591 21.8469
193 50.0000 100.0000 50.0000 48.9165 77.8397 33.4399
194 50.0000 100.0000 66.6667 52.2748 79.1831 51.1247
195 50.0000 100.0000 83.3333 56.9191 81.0408 75.5809
196 50.0000 100.0000 100.0000 62.9612 83.4576 107.3983
197 66.6667 0.0000 0.0000 17.3623 9.4606 1.8571
198 66.6667 0.0000 16.6667 17.7849 9.6296 4.0827
199 66.6667 0.0000 33.3333 18.9856 10.1099 10.4052
200 66.6667 0.0000 50.0000 21.1871 10.9905 21.9982
201 66.6667 0.0000 66.6667 24.5454 12.3338 39.6830
202 66.6667 0.0000 83.3333 29.1897 14.1915 64.1392
203 66.6667 0.0000 100.0000 35.2318 16.6084 95.9566
204 66.6667 16.6667 0.0000 18.1996 11.1353 2.1362
205 66.6667 16.6667 16.6667 18.6223 11.3044 4.3619
206 66.6667 16.6667 33.3333 19.8229 11.7846 10.6843
207 66.6667 16.6667 50.0000 22.0244 12.6652 22.2773
208 66.6667 16.6667 66.6667 25.3828 14.0085 39.9621
209 66.6667 16.6667 83.3333 30.0270 15.8662 64.4183
210 66.6667 16.6667 100.0000 36.0691 18.2831 96.2357
211 66.6667 33.3333 0.0000 20.5783 15.8926 2.9291
212 66.6667 33.3333 16.6667 21.0010 16.0617 5.1547
213 66.6667 33.3333 33.3333 22.2016 16.5419 11.4772
214 66.6667 33.3333 50.0000 24.4031 17.4225 23.0702
215 66.6667 33.3333 66.6667 27.7614 18.7659 40.7550
216 66.6667 33.3333 83.3333 32.4057 20.6236 65.2112
217 66.6667 33.3333 100.0000 38.4478 23.0404 97.0286
218 66.6667 50.0000 0.0000 24.9399 24.6157 4.3829
219 66.6667 50.0000 16.6667 25.3625 24.7848 6.6086
220 66.6667 50.0000 33.3333 26.5632 25.2650 12.9311
221 66.6667 50.0000 50.0000 28.7647 26.1457 24.5241
222 66.6667 50.0000 66.6667 32.1230 27.4890 42.2088
223 66.6667 50.0000 83.3333 36.7672 29.3467 66.6651
224 66.6667 50.0000 100.0000 42.8094 31.7635 98.4824
225 66.6667 66.6667 0.0000 31.5933 37.9225 6.6007
226 66.6667 66.6667 16.6667 32.0159 38.0916 8.8264
227 66.6667 66.6667 33.3333 33.2166 38.5719 15.1489
228 66.6667 66.6667 50.0000 35.4181 39.4525 26.7419
229 66.6667 66.6667 66.6667 38.7764 40.7958 44.4266
230 66.6667 66.6667 83.3333 43.4207 42.6535 68.8829
231 66.6667 66.6667 100.0000 49.4628 45.0703 100.7002
232 66.6667 83.3333 0.0000 40.7943 56.3246 9.6677
233 66.6667 83.3333 16.6667 41.2169 56.4936 11.8934
234 66.6667 83.3333 33.3333 42.4176 56.9739 18.2159
235 66.6667 83.3333 50.0000 44.6191 57.8545 29.8089
236 66.6667 83.3333 66.6667 47.9774 59.1978 47.4936
237 66.6667 83.3333 83.3333 52.6217 61.0555 71.9499
238 66.6667 83.3333 100.0000 58.6638 63.4724 103.7672
239 66.6667 100.0000 0.0000 52.7647 80.2654 13.6579
240 66.6667 100.0000 16.6667 53.1873 80.4344 15.8835
241 66.6667 100.0000 33.3333 54.3880 80.9147 22.2060
242 66.6667 100.0000 50.0000 56.5895 81.7953 33.7990
243 66.6667 100.0000 66.6667 59.9478 83.1386 51.4838
244 66.6667 100.0000 83.3333 64.5921 84.9963 75.9400
245 66.6667 100.0000 100.0000 70.6342 87.4132 107.7574
246 83.3333 0.0000 0.0000 27.9733 14.9308 2.3536
247 83.3333 0.0000 16.6667 28.3960 15.0998 4.5793
248 83.3333 0.0000 33.3333 29.5966 15.5801 10.9018
249 83.3333 0.0000 50.0000 31.7981 16.4607 22.4948
250 83.3333 0.0000 66.6667 35.1564 17.8040 40.1796
251 83.3333 0.0000 83.3333 39.8007 19.6617 64.6358
252 83.3333 0.0000 100.0000 45.8428 22.0786 96.4531
253 83.3333 16.6667 0.0000 28.8106 16.6055 2.6328
254 83.3333 16.6667 16.6667 29.2333 16.7745 4.8584
255 83.3333 16.6667 33.3333 30.4339 17.2548 11.1809
256 83.3333 16.6667 50.0000 32.6355 18.1354 22.7739
257 83.3333 16.6667 66.6667 35.9938 19.4787 40.4587
258 83.3333 16.6667 83.3333 40.6380 21.3364 64.9149
259 83.3333 16.6667 100.0000 46.6801 23.7533 96.7323
260 83.3333 33.3333 0.0000 31.1893 21.3628 3.4257
261 83.3333 33.3333 16.6667 31.6120 21.5319 5.6513
262 83.3333 33.3333 33.3333 32.8126 22.0121 11.9738
263 83.3333 33.3333 50.0000 35.0141 22.8927 23.5668
264 83.3333 33.3333 66.6667 38.3725 24.2360 41.2516
265 83.3333 33.3333 83.3333 43.0167 26.0937 65.7078
266 83.3333 33.3333 100.0000 49.0588 28.5106 97.5252
267 83.3333 50.0000 0.0000 35.5509 30.0859 4.8795
268 83.3333 50.0000 16.6667 35.9735 30.2550 7.1052
269 83.3333 50.0000 33.3333 37.1742 30.7352 13.4277
270 83.3333 50.0000 50.0000 39.3757 31.6158 25.0207
271 83.3333 50.0000 66.6667 42.7340 32.9592 42.7054
272 83.3333 50.0000 83.3333 47.3783 34.8169 67.1617
273 83.3333 50.0000 100.0000 53.4204 37.2337 98.9790
274 83.3333 66.6667 0.0000 42.2043 43.3927 7.0973
275 83.3333 66.6667 16.6667 42.6269 43.5618 9.3230
276 83.3333 66.6667 33.3333 43.8276 44.0420 15.6455
277 83.3333 66.6667 50.0000 46.0291 44.9226 27.2385
278 83.3333 66.6667 66.6667 49.3874 46.2660 44.9232
279 83.3333 66.6667 83.3333 54.0317 48.1237 69.3795
280 83.3333 66.6667 100.0000 60.0738 50.5405 101.1968
281 83.3333 83.3333 0.0000 51.4053 61.7947 10.1643
282 83.3333 83.3333 16.6667 51.8279 61.9638 12.3900
283 83.3333 83.3333 33.3333 53.0286 62.4441 18.7125
284 83.3333 83.3333 50.0000 55.2301 63.3247 30.3055
285 83.3333 83.3333 66.6667 58.5884 64.6680 47.9902
286 83.3333 83.3333 83.3333 63.2327 66.5257 72.4465
287 83.3333 83.3333 100.0000 69.2748 68.9425 104.2638
288 83.3333 100.0000 0.0000 63.3757 85.7356 14.1544
289 83.3333 100.0000 16.6667 63.7984 85.9046 16.3801
290 83.3333 100.0000 33.3333 64.9990 86.3849 22.7026
291 83.3333 100.0000 50.0000 67.2005 87.2655 34.2956
292 83.3333 100.0000 66.6667 70.5588 88.6088 51.9804
293 83.3333 100.0000 83.3333 75.2031 90.4665 76.4366
294 83.3333 100.0000 100.0000 81.2452 92.8834 108.2539
295 100.0000 0.0000 0.0000 41.7781 22.0474 2.9997
296 100.0000 0.0000 16.6667 42.2008 22.2165 5.2254
297 100.0000 0.0000 33.3333 43.4014 22.6967 11.5479
298 100.0000 0.0000 50.0000 45.6029 23.5773 23.1409
299 100.0000 0.0000 66.6667 48.9612 24.9207 40.8256
300 100.0000 0.0000 83.3333 53.6055 26.7784 65.2819
301 100.0000 0.0000 100.0000 59.6476 29.1952 97.0992
302 100.0000 16.6667 0.0000 42.6155 23.7221 3.2788
303 100.0000 16.6667 16.6667 43.0381 23.8912 5.5045
304 100.0000 16.6667 33.3333 44.2387 24.3714 11.8270
305 100.0000 16.6667 50.0000 46.4403 25.2520 23.4200
306 100.0000 16.6667 66.6667 49.7986 26.5954 41.1047
307 100.0000 16.6667 83.3333 54.4428 28.4531 65.5610
308 100.0000 16.6667 100.0000 60.4850 30.8699 97.3783
309 100.0000 33.3333 0.0000 44.9941 28.4794 4.0717
310 100.0000 33.3333 16.6667 45.4168 28.6485 6.2974
311 100.0000 33.3333 33.3333 46.6174 29.1287 12.6199
312 100.0000 33.3333 50.0000 48.8189 30.0094 24.2129
313 100.0000 33.3333 66.6667 52.1773 31.3527 41.8976
314 100.0000 33.3333 83.3333 56.8215 33.2104 66.3539
315 100.0000 33.3333 100.0000 62.8636 35.6272 98.1712
316 100.0000 50.0000 0.0000 49.3557 37.2025 5.5256
317 100.0000 50.0000 16.6667 49.7783 37.3716 7.7512
318 100.0000 50.0000 33.3333 50.9790 37.8519 14.0737
319 100.0000 50.0000 50.0000 53.1805 38.7325 25.6667
320 100.0000 50.0000 66.6667 56.5388 40.0758 43.3515
321 100.0000 50.0000 83.3333 61.1831 41.9335 67.8077
322 100.0000 50.0000 100.0000 67.2252 44.3503 99.6251
323 100.0000 66.6667 0.0000 56.0091 50.5094 7.7434
324 100.0000 66.6667 16.6667 56.4317 50.6784 9.9690
325 100.0000 66.6667 33.3333 57.6324 51.1587 16.2915
326 100.0000 66.6667 50.0000 59.8339 52.0393 27.8845
327 100.0000 66.6667 66.6667 63.1922 53.3826 45.5693
328 100.0000 66.6667 83.3333 67.8365 55.2403 70.0255
329 100.0000 66.6667 100.0000 73.8786 57.6572 101.8429
330 100.0000 83.3333 0.0000 65.2101 68.9114 10.8104
331 100.0000 83.3333 16.6667 65.6327 69.0804 13.0360
332 100.0000 83.3333 33.3333 66.8334 69.5607 19.3585
333 100.0000 83.3333 50.0000 69.0349 70.4413 30.9515
334 100.0000 83.3333 66.6667 72.3932 71.7846 48.6363
335 100.0000 83.3333 83.3333 77.0375 73.6423 73.0925
336 100.0000 83.3333 100.0000 83.0796 76.0592 104.9099
337 100.0000 100.0000 0.0000 77.1805 92.8522 14.8005
338 100.0000 100.0000 16.6667 77.6032 93.0213 17.0262
339 100.0000 100.0000 33.3333 78.8038 93.5015 23.3487
340 100.0000 100.0000 50.0000 81.0053 94.3821 34.9417
341 100.0000 100.0000 66.6667 84.3636 95.7255 52.6264
342 100.0000 100.0000 83.3333 89.0079 97.5832 77.0827
343 100.0000 100.0000 100.0000 95.0500 100.0000 108.9000
344 8.3333 0.0000 0.0000 1.2619 1.1606 1.1036
345 25.0000 0.0000 0.0000 3.0276 2.0708 1.1862
346 41.6667 0.0000 0.0000 6.8644 4.0487 1.3658
347 58.3333 0.0000 0.0000 13.1759 7.3024 1.6611
348 75.0000 0.0000 0.0000 22.2838 11.9977 2.0874
349 91.6667 0.0000 0.0000 34.4617 18.2756 2.6573
350 0.0000 8.3333 0.0000 1.2206 1.5401 1.1790
351 0.0000 25.0000 0.0000 2.7516 4.6023 1.6894
352 0.0000 41.6667 0.0000 6.0785 11.2561 2.7983
353 0.0000 58.3333 0.0000 11.5514 22.2017 4.6226
354 0.0000 75.0000 0.0000 19.4490 37.9970 7.2552
355 0.0000 91.6667 0.0000 30.0087 59.1163 10.7751
356 0.0000 0.0000 8.3333 1.0868 1.0545 1.8068
357 0.0000 0.0000 25.0000 1.8596 1.3637 5.8764
358 0.0000 0.0000 41.6667 3.5389 2.0354 14.7193
359 0.0000 0.0000 58.3333 6.3013 3.1403 29.2660
360 0.0000 0.0000 75.0000 10.2877 4.7349 50.2580
361 0.0000 0.0000 91.6667 15.6177 6.8669 78.3256
362 100.0000 8.3333 0.0000 42.0482 22.5875 3.0897
363 100.0000 25.0000 0.0000 43.5792 25.6497 3.6001
364 100.0000 41.6667 0.0000 46.9061 32.3035 4.7090
365 100.0000 58.3333 0.0000 52.3790 43.2491 6.5333
366 100.0000 75.0000 0.0000 60.2766 59.0444 9.1659
367 100.0000 91.6667 0.0000 70.8363 80.1637 12.6858
368 100.0000 0.0000 8.3333 41.9144 22.1019 3.7175
369 100.0000 0.0000 25.0000 42.6872 22.4111 7.7871
370 100.0000 0.0000 41.6667 44.3665 23.0828 16.6300
371 100.0000 0.0000 58.3333 47.1289 24.1877 31.1767
372 100.0000 0.0000 75.0000 51.1153 25.7823 52.1687
373 100.0000 0.0000 91.6667 56.4453 27.9143 80.2363
374 8.3333 100.0000 0.0000 36.6643 71.9654 12.9044
375 25.0000 100.0000 0.0000 38.4300 72.8756 12.9870
376 41.6667 100.0000 0.0000 42.2668 74.8535 13.1666
377 58.3333 100.0000 0.0000 48.5783 78.1072 13.4619
378 75.0000 100.0000 0.0000 57.6862 82.8025 13.8882
379 91.6667 100.0000 0.0000 69.8641 89.0804 14.4581
380 0.0000 100.0000 8.3333 36.4892 71.8593 13.6076
381 0.0000 100.0000 25.0000 37.2620 72.1685 17.6772
382 0.0000 100.0000 41.6667 38.9413 72.8402 26.5201
383 0.0000 100.0000 58.3333 41.7037 73.9451 41.0668
384 0.0000 100.0000 75.0000 45.6901 75.5397 62.0588
385 0.0000 100.0000 91.6667 51.0201 77.6717 90.1264
386 0.0000 8.3333 100.0000 19.0901 8.6879 95.2785
387 0.0000 25.0000 100.0000 20.6211 11.7501 95.7889
388 0.0000 41.6667 100.0000 23.9480 18.4039 96.8978
389 0.0000 58.3333 100.0000 29.4209 29.3495 98.7221
390 0.0000 75.0000 100.0000 37.3185 45.1448 101.3547
391 0.0000 91.6667 100.0000 47.8782 66.2641 104.8746
392 8.3333 0.0000 100.0000 19.1314 8.3084 95.2031
393 25.0000 0.0000 100.0000 20.8971 9.2186 95.2857
394 41.6667 0.0000 100.0000 24.7339 11.1965 95.4653
395 58.3333 0.0000 100.0000 31.0454 14.4502 95.7606
396 75.0000 0.0000 100.0000 40.1533 19.1455 96.1869
397 91.6667 0.0000 100.0000 52.3312 25.4234 96.7568
398 100.0000 100.0000 8.3333 77.3168 92.9067 15.5183
399 100.0000 100.0000 25.0000 78.0896 93.2159 19.5879
400 100.0000 100.0000 41.6667 79.7689 93.8876 28.4308
401 100.0000 100.0000 58.3333 82.5313 94.9925 42.9775
402 100.0000 100.0000 75.0000 86.5177 96.5871 63.9695
403 100.0000 100.0000 91.6667 91.8477 98.7191 92.0371
404 8.3333 100.0000 100.0000 54.5338 79.1132 107.0039
405 25.0000 100.0000 100.0000 56.2995 80.0234 107.0865
406 41.6667 100.0000 100.0000 60.1363 82.0013 107.2661
407 58.3333 100.0000 100.0000 66.4478 85.2550 107.5614
408 75.0000 100.0000 100.0000 75.5557 89.9503 107.9877
409 91.6667 100.0000 100.0000 87.7336 96.2282 108.5576
410 100.0000 8.3333 100.0000 59.9177 29.7353 97.1892
411 100.0000 25.0000 100.0000 61.4487 32.7975 97.6996
412 100.0000 41.6667 100.0000 64.7756 39.4513 98.8085
413 100.0000 58.3333 100.0000 70.2485 50.3969 100.6328
414 100.0000 75.0000 100.0000 78.1461 66.1922 103.2654
415 100.0000 91.6667 100.0000 88.7058 87.3115 106.7853
416 4.1667 0.0000 0.0000 1.0823 1.0679 1.0952
417 0.0000 4.1667 0.0000 1.0648 1.2285 1.1271
418 0.0000 0.0000 4.1667 1.0082 1.0231 1.3927
419 95.8333 0.0000 0.0000 38.0146 20.1072 2.8236
420 100.0000 4.1667 0.0000 41.8924 22.2759 3.0378
421 100.0000 0.0000 4.1667 41.8358 22.0705 3.3034
422 4.1667 100.0000 0.0000 36.4847 71.8727 12.8960
423 0.0000 95.8333 0.0000 33.0895 65.2780 11.8020
424 0.0000 100.0000 4.1667 36.4106 71.8279 13.1935
425 4.1667 0.0000 100.0000 18.9518 8.2157 95.1947
426 0.0000 4.1667 100.0000 18.9343 8.3763 95.2266
427 0.0000 0.0000 95.8333 17.1728 7.4889 86.5144
428 4.1667 100.0000 100.0000 54.3542 79.0205 106.9955
429 0.0000 95.8333 100.0000 50.9590 72.4258 105.9015
430 0.0000 100.0000 95.8333 52.5752 78.2937 98.3152
431 95.8333 0.0000 100.0000 55.8841 27.2550 96.9231
432 100.0000 4.1667 100.0000 59.7619 29.4237 97.1373
433 100.0000 0.0000 95.8333 58.0004 28.5363 88.4251
434 95.8333 100.0000 0.0000 73.4170 90.9120 14.6244
435 100.0000 95.8333 0.0000 73.9171 86.3254 13.7127
436 100.0000 100.0000 4.1667 77.2382 92.8753 15.1042
437 95.8333 100.0000 100.0000 91.2865 98.0598 108.7239
438 100.0000 95.8333 100.0000 91.7866 93.4732 107.8122
439 100.0000 100.0000 95.8333 93.4028 99.3411 100.2259
440 0.0000 0.0000 2.0000 0.9782 1.0111 1.2347
441 3.5714 3.5714 3.5714 1.2106 1.2737 1.3870
442 7.1429 7.1429 7.1429 1.5289 1.6085 1.7517
443 10.7143 10.7143 10.7143 2.0013 2.1056 2.2930
444 14.2857 14.2857 14.2857 2.6449 2.7827 3.0303
445 17.8571 17.8571 17.8571 3.4739 3.6548 3.9801
446 21.4286 21.4286 21.4286 4.5010 4.7354 5.1569
447 25.0000 25.0000 25.0000 5.7379 6.0367 6.5740
448 28.5714 28.5714 28.5714 7.1953 7.5700 8.2437
449 32.1429 32.1429 32.1429 8.8832 9.3458 10.1776
450 35.7143 35.7143 35.7143 10.8109 11.3739 12.3862
451 39.2857 39.2857 39.2857 12.9874 13.6638 14.8799
452 42.8571 42.8571 42.8571 15.4211 16.2242 17.6682
453 46.4286 46.4286 46.4286 18.1200 19.0636 20.7603
454 48.8453 48.8453 48.8453 20.1006 21.1474 23.0295
455 53.5714 53.5714 53.5714 24.3436 25.6113 27.8907
456 57.1429 57.1429 57.1429 27.8828 29.3349 31.9457
457 60.7143 60.7143 60.7143 31.7161 33.3678 36.3375
458 64.2857 64.2857 64.2857 35.8502 37.7171 41.0740
459 67.8571 67.8571 67.8571 40.2913 42.3896 46.1623
460 71.4286 71.4286 71.4286 45.0458 47.3916 51.6095
461 75.0000 75.0000 75.0000 50.1195 52.7296 57.4226
