demo-projects/Demo-Report-Matrix/runs/run1/verifications/2026-07-20_100000/Demo-Report-Matrix-verify.ti3
CTI3   
KEYWORD "CHROMIQ_VERIFICATION"
CHROMIQ_VERIFICATION "true"

DESCRIPTOR "Argyll Calibration Target chart information 3"
ORIGINATOR "Argyll fakeread"
CREATED "Tue Aug 11 11:21:04 2026"
DEVICE_CLASS "DISPLAY"
COLOR_REP "iRGB_XYZ"

KEYWORD "CHROMIQ_MEASURED"
CHROMIQ_MEASURED "2026-07-20T10:00:00"
TARGET_INSTRUMENT "X-Rite ColorMunki"
NUMBER_OF_FIELDS 7
BEGIN_DATA_FORMAT
SAMPLE_ID RGB_R RGB_G RGB_B XYZ_X XYZ_Y XYZ_Z 
END_DATA_FORMAT

NUMBER_OF_SETS 105
BEGIN_DATA
1 100.0000 100.0000 100.0000 94.87340 99.91781 108.6019 
2 100.0000 100.0000 100.0000 94.84951 99.60808 108.8397 
3 100.0000 100.0000 100.0000 94.60739 99.82478 106.5978 
4 100.0000 100.0000 100.0000 94.95409 99.81725 108.8746 
5 0.00000 0.00000 0.00000 0.0204704 0.0409406 0.00682293 
6 0.00000 0.00000 0.00000 0.00199824 0.00103038 0.0000936376 
7 0.00000 0.00000 0.00000 0.00711773 0.0142354 0.00237239 
8 0.00000 0.00000 0.00000 0.0539796 0.0345112 0.00381800 
9 100.0000 100.0000 0.00000 76.23937 91.80858 13.72985 
10 0.00000 0.00000 100.0000 18.04900 7.224096 94.93113 
11 100.0000 0.00000 0.00000 40.82934 21.09161 1.920643 
12 0.00000 100.0000 100.0000 52.71886 76.55912 106.6099 
13 0.00000 100.0000 0.00000 35.15887 70.30930 11.71714 
14 100.0000 0.00000 100.0000 58.47319 28.06445 96.91350 
15 0.00000 38.69451 100.0000 22.50467 16.10213 96.53368 
16 0.00000 61.01825 0.00000 12.29203 24.55742 4.178849 
17 0.00000 0.00000 49.66734 3.728891 1.516066 19.56251 
18 100.0000 0.00000 49.59690 44.55117 22.55969 22.33306 
19 100.0000 51.96322 100.0000 67.21923 44.58993 99.67708 
20 100.0000 51.02120 0.00000 48.75251 36.28500 4.550769 
21 49.79587 0.00000 0.00000 8.739266 4.506342 0.409522 
22 100.0000 100.0000 50.20307 80.71882 94.26967 33.45320 
23 0.00000 100.0000 50.70625 39.50595 72.70317 32.44763 
24 49.48561 100.0000 100.0000 62.23636 81.92955 107.1452 
25 51.72588 100.0000 0.00000 44.82354 76.19103 12.34336 
26 50.05958 0.00000 100.0000 26.83489 11.77262 94.83453 
27 0.00000 47.79621 60.34591 12.88428 16.48347 32.92225 
28 100.0000 59.17416 43.63085 54.47884 43.80491 21.40747 
29 47.31399 48.98978 0.00000 15.02601 18.61099 2.800429 
30 52.09288 0.00000 45.52943 12.65582 6.198012 17.10309 
31 55.39583 47.66229 100.0000 36.03701 27.45708 98.01249 
32 49.20125 100.0000 50.84061 47.90166 77.31535 33.37650 
33 48.29114 47.33520 50.18713 19.32514 19.34918 23.92022 
34 0.00000 30.94905 0.00000 2.830290 5.651425 0.941594 
35 100.0000 21.19106 79.12555 53.50187 28.55371 59.16766 
36 33.94804 70.69041 100.0000 37.75969 41.39817 100.6121 
37 74.96124 25.82053 0.00000 23.40124 14.89277 1.641955 
38 0.00000 77.61705 71.72771 29.65695 45.37163 52.87145 
39 24.97790 0.00000 23.41364 3.326488 1.629702 4.431276 
40 76.31808 100.0000 28.35106 58.91226 82.43383 18.48326 
41 0.00000 77.00365 31.43299 21.60667 40.63291 15.11481 
42 75.41143 77.79628 100.0000 60.71026 58.97261 102.7953 
43 100.0000 23.29829 20.42453 43.34422 24.49256 5.666808 
44 100.0000 80.02238 22.27702 64.06470 65.76397 13.11993 
45 75.35445 100.0000 76.01304 66.75611 86.22970 63.82127 
46 75.31505 74.81469 0.00000 40.12487 46.87782 6.945429 
47 100.0000 79.49395 78.19811 72.64815 67.73868 62.79718 
48 26.41218 100.0000 75.99234 47.67410 76.52983 63.51924 
49 28.19308 28.22301 100.0000 23.10222 13.35037 95.97119 
50 76.81359 0.00000 23.55016 23.54524 12.03979 5.667713 
51 75.25932 0.00000 74.69026 31.38639 15.11734 50.68972 
52 29.89921 74.23536 0.00000 20.98638 37.57121 6.257395 
53 25.50439 100.0000 24.78846 38.91934 73.04077 16.84101 
54 77.21225 23.71451 100.0000 42.55439 22.22336 95.10145 
55 0.00000 21.07405 72.23364 10.15540 6.139889 46.95565 
56 26.28049 0.00000 71.93547 10.88759 4.621610 45.29878 
57 0.00000 19.89483 30.07019 2.496370 2.895812 7.297325 
58 26.28079 33.45692 23.52814 6.845450 8.795058 6.093557 
59 66.56754 70.38587 52.30860 37.08373 43.63530 28.60998 
60 75.09479 52.62129 65.01886 36.59535 30.70911 37.92726 
61 26.64973 49.33561 81.42125 21.12928 21.00735 60.39230 
62 45.91179 68.61670 63.70484 29.49552 37.06491 41.55736 
63 71.11740 50.49568 34.71935 29.10722 26.45497 12.79640 
64 54.43736 27.35888 62.61652 19.34408 12.51331 34.27998 
65 34.69612 74.79966 32.60823 24.97993 41.48601 14.53803 
66 74.85889 20.44437 50.18860 26.79253 15.27080 22.71675 
67 47.85106 20.11464 33.14580 11.11484 7.441458 9.741792 
68 27.20651 32.63652 48.27367 9.316221 9.050092 20.40989 
69 27.58870 24.69734 0.00000 4.337537 4.840872 0.708553 
70 0.00000 69.14068 100.0000 33.16801 37.50114 99.91061 
71 20.53684 59.80271 49.57175 16.73879 25.23188 23.12972 
72 0.00000 46.98630 28.11508 7.729208 13.59067 8.334712 
73 73.54294 75.32966 75.96305 49.70853 52.99448 57.72516 
74 63.36650 75.70063 29.24590 35.04583 45.72282 14.11300 
75 100.0000 50.88622 71.33775 57.01955 40.43211 49.34445 
76 23.55356 85.77019 53.26247 30.98643 52.03111 31.16410 
77 100.0000 29.41094 48.41781 46.81646 27.52387 21.29534 
78 72.19800 51.56213 8.666635 28.56001 26.95177 4.506510 
79 21.36322 53.66478 11.70929 10.49087 18.28134 3.989848 
80 12.24937 81.96187 10.32227 23.70712 46.22753 8.813874 
81 50.32410 91.80251 71.76533 46.32444 66.35246 54.42481 
82 48.45094 95.04594 23.03440 40.44871 67.91173 15.16088 
83 47.91670 54.94911 27.45694 19.58036 24.68778 9.834181 
84 3.781525 53.33689 81.63552 20.05223 21.26724 63.96318 
85 76.14076 97.71765 95.89858 73.54726 87.43664 98.18374 
86 74.72769 92.97172 51.48222 55.87726 74.92634 31.82783 
87 91.51768 77.11623 49.84954 55.56351 56.21089 27.70058 
88 55.99479 23.67844 88.16304 25.79329 14.24942 69.77320 
89 76.02370 54.61404 92.04182 47.33710 37.14118 85.25279 
90 52.92777 23.07148 11.01567 11.76364 8.315462 2.132826 
91 2.113597 97.73685 76.72762 44.49838 73.01338 63.53529 
92 77.95688 25.26049 74.12841 34.95195 19.56949 47.60327 
93 5.158119 95.50651 28.71841 32.74597 63.46261 16.37757 
94 4.213096 24.16053 51.05457 5.922953 5.274619 21.47580 
95 51.24030 47.80404 76.36550 26.58115 22.29507 55.87614 
96 97.40498 100.0000 75.01152 84.21436 94.51318 62.69472 
97 49.19419 5.350316 74.01136 18.07305 8.476833 49.15128 
98 91.32533 51.59153 22.20459 42.75527 33.82834 8.143425 
99 74.48121 24.34677 26.05584 24.35329 14.93739 7.162003 
100 94.19953 74.22767 93.65841 67.93848 58.59733 90.48945 
101 23.32810 75.54038 80.93191 32.29237 43.69252 66.57626 
102 56.07175 76.90790 5.268606 30.42556 44.43521 7.466042 
103 27.55381 8.135545 46.48987 5.927067 3.008767 17.61453 
104 27.88054 25.86915 72.11177 13.56749 8.858788 48.26177 
105 51.80627 80.99682 89.24284 45.87306 54.27748 82.88208 
END_DATA
