assets/charts/knut/rgb/cr30/cr30_letter_368p_1page_portrait_w11_0mm/chart.ti1
CTI1   

DESCRIPTOR "Argyll Calibration Target chart information 1"
ORIGINATOR "ChromIQ"
APPROX_WHITE_POINT "95.050000 100.000000 108.900000"
COLOR_REP "iRGB"
WHITE_COLOR_PATCHES "1"
BLACK_COLOR_PATCHES "1"
CREATED "Sun Sep 06 16:32:53 2026"

NUMBER_OF_FIELDS 7
BEGIN_DATA_FORMAT
SAMPLE_ID RGB_R RGB_G RGB_B XYZ_X XYZ_Y XYZ_Z
END_DATA_FORMAT

NUMBER_OF_SETS 368
BEGIN_DATA
1 0.0000 0.0000 0.0000 0.9505 1.0000 1.0890
2 0.0000 0.0000 20.0000 1.5421 1.2366 4.2041
3 0.0000 0.0000 40.0000 3.3248 1.9497 13.5918
4 0.0000 0.0000 60.0000 6.6428 3.2769 31.0641
5 0.0000 0.0000 80.0000 11.7406 5.3160 57.9089
6 0.0000 0.0000 100.0000 18.8200 8.1478 95.1885
7 0.0000 20.0000 0.0000 2.1225 3.3440 1.4797
8 0.0000 20.0000 20.0000 2.7141 3.5806 4.5948
9 0.0000 20.0000 40.0000 4.4968 4.2937 13.9825
10 0.0000 20.0000 60.0000 7.8148 5.6209 31.4548
11 0.0000 20.0000 80.0000 12.9126 7.6600 58.2995
12 0.0000 20.0000 100.0000 19.9920 10.4918 95.5792
13 0.0000 40.0000 0.0000 5.6544 10.4077 2.6570
14 0.0000 40.0000 20.0000 6.2459 10.6443 5.7721
15 0.0000 40.0000 40.0000 8.0286 11.3574 15.1598
16 0.0000 40.0000 60.0000 11.3466 12.6846 32.6320
17 0.0000 40.0000 80.0000 16.4445 14.7238 59.4768
18 0.0000 40.0000 100.0000 23.5239 17.5555 96.7565
19 0.0000 60.0000 0.0000 12.2278 23.5546 4.8481
20 0.0000 60.0000 20.0000 12.8194 23.7913 7.9632
21 0.0000 60.0000 40.0000 14.6021 24.5044 17.3509
22 0.0000 60.0000 60.0000 17.9201 25.8315 34.8232
23 0.0000 60.0000 80.0000 23.0179 27.8707 61.6680
24 0.0000 60.0000 100.0000 30.0973 30.7024 98.9476
25 0.0000 80.0000 0.0000 22.3274 43.7539 8.2146
26 0.0000 80.0000 20.0000 22.9190 43.9905 11.3298
27 0.0000 80.0000 40.0000 24.7017 44.7036 20.7175
28 0.0000 80.0000 60.0000 28.0197 46.0308 38.1897
29 0.0000 80.0000 80.0000 33.1175 48.0699 65.0345
30 0.0000 80.0000 100.0000 40.1969 50.9017 102.3141
31 0.0000 100.0000 0.0000 36.3529 71.8048 12.8898
32 0.0000 100.0000 20.0000 36.9445 72.0414 16.0049
33 0.0000 100.0000 40.0000 38.7272 72.7545 25.3926
34 0.0000 100.0000 60.0000 42.0452 74.0817 42.8649
35 0.0000 100.0000 80.0000 47.1430 76.1208 69.7097
36 0.0000 100.0000 100.0000 54.2224 78.9526 106.9893
37 20.0000 0.0000 0.0000 2.3021 1.6968 1.1523
38 20.0000 0.0000 20.0000 2.8937 1.9334 4.2674
39 20.0000 0.0000 40.0000 4.6764 2.6465 13.6551
40 20.0000 0.0000 60.0000 7.9944 3.9737 31.1273
41 20.0000 0.0000 80.0000 13.0922 6.0128 57.9721
42 20.0000 0.0000 100.0000 20.1716 8.8446 95.2518
43 20.0000 20.0000 0.0000 3.4741 4.0407 1.5429
44 20.0000 20.0000 20.0000 4.0656 4.2774 4.6581
45 20.0000 20.0000 40.0000 5.8484 4.9905 14.0458
46 20.0000 20.0000 60.0000 9.1663 6.3177 31.5180
47 20.0000 20.0000 80.0000 14.2642 8.3568 58.3628
48 20.0000 20.0000 100.0000 21.3436 11.1885 95.6424
49 20.0000 40.0000 0.0000 7.0059 11.1045 2.7202
50 20.0000 40.0000 20.0000 7.5975 11.3411 5.8353
51 20.0000 40.0000 40.0000 9.3802 12.0542 15.2230
52 20.0000 40.0000 60.0000 12.6982 13.3814 32.6953
53 20.0000 40.0000 80.0000 17.7960 15.4205 59.5401
54 20.0000 40.0000 100.0000 24.8754 18.2523 96.8197
55 20.0000 60.0000 0.0000 13.5794 24.2514 4.9114
56 20.0000 60.0000 20.0000 14.1710 24.4880 8.0265
57 20.0000 60.0000 40.0000 15.9537 25.2011 17.4142
58 20.0000 60.0000 60.0000 19.2717 26.5283 34.8865
59 20.0000 60.0000 80.0000 24.3695 28.5674 61.7312
60 20.0000 60.0000 100.0000 31.4489 31.3992 99.0109
61 20.0000 80.0000 0.0000 23.6790 44.4506 8.2779
62 20.0000 80.0000 20.0000 24.2706 44.6873 11.3930
63 20.0000 80.0000 40.0000 26.0533 45.4004 20.7807
64 20.0000 80.0000 60.0000 29.3713 46.7276 38.2530
65 20.0000 80.0000 80.0000 34.4691 48.7667 65.0977
66 20.0000 80.0000 100.0000 41.5485 51.5984 102.3774
67 20.0000 100.0000 0.0000 37.7045 72.5016 12.9531
68 20.0000 100.0000 20.0000 38.2961 72.7382 16.0682
69 20.0000 100.0000 40.0000 40.0788 73.4513 25.4559
70 20.0000 100.0000 60.0000 43.3968 74.7785 42.9281
71 20.0000 100.0000 80.0000 48.4946 76.8176 69.7729
72 20.0000 100.0000 100.0000 55.5740 79.6494 107.0526
73 40.0000 0.0000 0.0000 6.3752 3.7965 1.3429
74 40.0000 0.0000 20.0000 6.9668 4.0332 4.4580
75 40.0000 0.0000 40.0000 8.7495 4.7462 13.8457
76 40.0000 0.0000 60.0000 12.0675 6.0734 31.3180
77 40.0000 0.0000 80.0000 17.1653 8.1126 58.1627
78 40.0000 0.0000 100.0000 24.2447 10.9443 95.4424
79 40.0000 20.0000 0.0000 7.5472 6.1405 1.7335
80 40.0000 20.0000 20.0000 8.1387 6.3771 4.8487
81 40.0000 20.0000 40.0000 9.9215 7.0902 14.2364
82 40.0000 20.0000 60.0000 13.2395 8.4174 31.7086
83 40.0000 20.0000 80.0000 18.3373 10.4565 58.5534
84 40.0000 20.0000 100.0000 25.4167 13.2883 95.8330
85 40.0000 40.0000 0.0000 11.0791 13.2042 2.9108
86 40.0000 40.0000 20.0000 11.6706 13.4409 6.0260
87 40.0000 40.0000 40.0000 13.4533 14.1540 15.4137
88 40.0000 40.0000 60.0000 16.7713 15.4812 32.8859
89 40.0000 40.0000 80.0000 21.8691 17.5203 59.7307
90 40.0000 40.0000 100.0000 28.9486 20.3520 97.0103
91 40.0000 60.0000 0.0000 17.6525 26.3512 5.1020
92 40.0000 60.0000 20.0000 18.2441 26.5878 8.2171
93 40.0000 60.0000 40.0000 20.0268 27.3009 17.6048
94 40.0000 60.0000 60.0000 23.3448 28.6281 35.0771
95 40.0000 60.0000 80.0000 28.4426 30.6672 61.9218
96 40.0000 60.0000 100.0000 35.5220 33.4990 99.2015
97 40.0000 80.0000 0.0000 27.7521 46.5504 8.4685
98 40.0000 80.0000 20.0000 28.3437 46.7870 11.5837
99 40.0000 80.0000 40.0000 30.1264 47.5001 20.9714
100 40.0000 80.0000 60.0000 33.4444 48.8273 38.4436
101 40.0000 80.0000 80.0000 38.5422 50.8664 65.2884
102 40.0000 80.0000 100.0000 45.6216 53.6982 102.5680
103 40.0000 100.0000 0.0000 41.7776 74.6013 13.1437
104 40.0000 100.0000 20.0000 42.3692 74.8380 16.2588
105 40.0000 100.0000 40.0000 44.1519 75.5510 25.6465
106 40.0000 100.0000 60.0000 47.4699 76.8782 43.1188
107 40.0000 100.0000 80.0000 52.5677 78.9174 69.9635
108 40.0000 100.0000 100.0000 59.6471 81.7491 107.2432
109 60.0000 0.0000 0.0000 13.9560 7.7046 1.6976
110 60.0000 0.0000 20.0000 14.5476 7.9412 4.8128
111 60.0000 0.0000 40.0000 16.3303 8.6543 14.2005
112 60.0000 0.0000 60.0000 19.6483 9.9815 31.6727
113 60.0000 0.0000 80.0000 24.7461 12.0206 58.5175
114 60.0000 0.0000 100.0000 31.8255 14.8524 95.7971
115 60.0000 20.0000 0.0000 15.1280 10.0486 2.0883
116 60.0000 20.0000 20.0000 15.7196 10.2852 5.2035
117 60.0000 20.0000 40.0000 17.5023 10.9983 14.5912
118 60.0000 20.0000 60.0000 20.8203 12.3255 32.0634
119 60.0000 20.0000 80.0000 25.9181 14.3646 58.9082
120 60.0000 20.0000 100.0000 32.9975 17.1964 96.1878
121 60.0000 40.0000 0.0000 18.6599 17.1123 3.2656
122 60.0000 40.0000 20.0000 19.2514 17.3489 6.3807
123 60.0000 40.0000 40.0000 21.0341 18.0620 15.7684
124 60.0000 40.0000 60.0000 24.3521 19.3892 33.2407
125 60.0000 40.0000 80.0000 29.4500 21.4283 60.0855
126 60.0000 40.0000 100.0000 36.5294 24.2601 97.3651
127 60.0000 60.0000 0.0000 25.2333 30.2592 5.4568
128 60.0000 60.0000 20.0000 25.8249 30.4958 8.5719
129 60.0000 60.0000 40.0000 27.6076 31.2089 17.9596
130 60.0000 60.0000 60.0000 30.9256 32.5361 35.4318
131 60.0000 60.0000 80.0000 36.0234 34.5753 62.2766
132 60.0000 60.0000 100.0000 43.1028 37.4070 99.5563
133 60.0000 80.0000 0.0000 35.3329 50.4585 8.8233
134 60.0000 80.0000 20.0000 35.9245 50.6951 11.9384
135 60.0000 80.0000 40.0000 37.7072 51.4082 21.3261
136 60.0000 80.0000 60.0000 41.0252 52.7354 38.7984
137 60.0000 80.0000 80.0000 46.1230 54.7745 65.6431
138 60.0000 80.0000 100.0000 53.2024 57.6063 102.9228
139 60.0000 100.0000 0.0000 49.3584 78.5094 13.4984
140 60.0000 100.0000 20.0000 49.9500 78.7460 16.6136
141 60.0000 100.0000 40.0000 51.7327 79.4591 26.0013
142 60.0000 100.0000 60.0000 55.0507 80.7863 43.4735
143 60.0000 100.0000 80.0000 60.1485 82.8254 70.3183
144 60.0000 100.0000 100.0000 67.2279 85.6572 107.5979
145 80.0000 0.0000 0.0000 25.6033 13.7090 2.2427
146 80.0000 0.0000 20.0000 26.1949 13.9456 5.3579
147 80.0000 0.0000 40.0000 27.9776 14.6587 14.7456
148 80.0000 0.0000 60.0000 31.2956 15.9859 32.2178
149 80.0000 0.0000 80.0000 36.3934 18.0250 59.0626
150 80.0000 0.0000 100.0000 43.4728 20.8568 96.3422
151 80.0000 20.0000 0.0000 26.7753 16.0530 2.6334
152 80.0000 20.0000 20.0000 27.3669 16.2896 5.7485
153 80.0000 20.0000 40.0000 29.1496 17.0027 15.1362
154 80.0000 20.0000 60.0000 32.4676 18.3299 32.6085
155 80.0000 20.0000 80.0000 37.5654 20.3690 59.4532
156 80.0000 20.0000 100.0000 44.6448 23.2008 96.7329
157 80.0000 40.0000 0.0000 30.3072 23.1167 3.8107
158 80.0000 40.0000 20.0000 30.8987 23.3533 6.9258
159 80.0000 40.0000 40.0000 32.6815 24.0664 16.3135
160 80.0000 40.0000 60.0000 35.9995 25.3936 33.7858
161 80.0000 40.0000 80.0000 41.0973 27.4327 60.6305
162 80.0000 40.0000 100.0000 48.1767 30.2645 97.9102
163 80.0000 60.0000 0.0000 36.8806 36.2636 6.0018
164 80.0000 60.0000 20.0000 37.4722 36.5003 9.1170
165 80.0000 60.0000 40.0000 39.2549 37.2134 18.5047
166 80.0000 60.0000 60.0000 42.5729 38.5405 35.9769
167 80.0000 60.0000 80.0000 47.6707 40.5797 62.8217
168 80.0000 60.0000 100.0000 54.7501 43.4114 100.1013
169 80.0000 80.0000 0.0000 46.9803 56.4629 9.3684
170 80.0000 80.0000 20.0000 47.5718 56.6995 12.4835
171 80.0000 80.0000 40.0000 49.3545 57.4126 21.8712
172 80.0000 80.0000 60.0000 52.6725 58.7398 39.3435
173 80.0000 80.0000 80.0000 57.7704 60.7789 66.1882
174 80.0000 80.0000 100.0000 64.8498 63.6107 103.4679
175 80.0000 100.0000 0.0000 61.0057 84.5138 14.0435
176 80.0000 100.0000 20.0000 61.5973 84.7504 17.1587
177 80.0000 100.0000 40.0000 63.3800 85.4635 26.5464
178 80.0000 100.0000 60.0000 66.6980 86.7907 44.0186
179 80.0000 100.0000 80.0000 71.7958 88.8298 70.8634
180 80.0000 100.0000 100.0000 78.8752 91.6616 108.1430
181 100.0000 0.0000 0.0000 41.7781 22.0474 2.9997
182 100.0000 0.0000 20.0000 42.3697 22.2840 6.1148
183 100.0000 0.0000 40.0000 44.1524 22.9971 15.5025
184 100.0000 0.0000 60.0000 47.4704 24.3243 32.9748
185 100.0000 0.0000 80.0000 52.5682 26.3634 59.8196
186 100.0000 0.0000 100.0000 59.6476 29.1952 97.0992
187 100.0000 20.0000 0.0000 42.9501 24.3914 3.3904
188 100.0000 20.0000 20.0000 43.5417 24.6280 6.5055
189 100.0000 20.0000 40.0000 45.3244 25.3411 15.8932
190 100.0000 20.0000 60.0000 48.6424 26.6683 33.3655
191 100.0000 20.0000 80.0000 53.7402 28.7074 60.2102
192 100.0000 20.0000 100.0000 60.8196 31.5392 97.4899
193 100.0000 40.0000 0.0000 46.4820 31.4551 4.5677
194 100.0000 40.0000 20.0000 47.0735 31.6917 7.6828
195 100.0000 40.0000 40.0000 48.8562 32.4048 17.0705
196 100.0000 40.0000 60.0000 52.1742 33.7320 34.5427
197 100.0000 40.0000 80.0000 57.2721 35.7712 61.3875
198 100.0000 40.0000 100.0000 64.3515 38.6029 98.6672
199 100.0000 60.0000 0.0000 53.0554 44.6020 6.7588
200 100.0000 60.0000 20.0000 53.6470 44.8387 9.8739
201 100.0000 60.0000 40.0000 55.4297 45.5518 19.2616
202 100.0000 60.0000 60.0000 58.7477 46.8789 36.7339
203 100.0000 60.0000 80.0000 63.8455 48.9181 63.5787
204 100.0000 60.0000 100.0000 70.9249 51.7498 100.8583
205 100.0000 80.0000 0.0000 63.1550 64.8013 10.1253
206 100.0000 80.0000 20.0000 63.7466 65.0379 13.2405
207 100.0000 80.0000 40.0000 65.5293 65.7510 22.6282
208 100.0000 80.0000 60.0000 68.8473 67.0782 40.1004
209 100.0000 80.0000 80.0000 73.9451 69.1173 66.9452
210 100.0000 80.0000 100.0000 81.0245 71.9491 104.2248
211 100.0000 100.0000 0.0000 77.1805 92.8522 14.8005
212 100.0000 100.0000 20.0000 77.7721 93.0888 17.9156
213 100.0000 100.0000 40.0000 79.5548 93.8019 27.3033
214 100.0000 100.0000 60.0000 82.8728 95.1291 44.7756
215 100.0000 100.0000 80.0000 87.9706 97.1682 71.6204
216 100.0000 100.0000 100.0000 95.0500 100.0000 108.9000
217 10.0000 0.0000 0.0000 1.3597 1.2110 1.1082
218 0.0000 10.0000 0.0000 1.3053 1.7097 1.2073
219 0.0000 0.0000 10.0000 1.1296 1.0716 2.0321
220 90.0000 0.0000 0.0000 33.0987 17.5730 2.5935
221 100.0000 10.0000 0.0000 42.1329 22.7571 3.1180
222 100.0000 0.0000 10.0000 41.9572 22.1190 3.9428
223 10.0000 100.0000 0.0000 36.7621 72.0158 12.9090
224 0.0000 90.0000 0.0000 28.8268 56.7526 10.3811
225 0.0000 100.0000 10.0000 36.5320 71.8764 13.8329
226 10.0000 0.0000 100.0000 19.2292 8.3588 95.2077
227 0.0000 10.0000 100.0000 19.1748 8.8575 95.3068
228 0.0000 0.0000 90.0000 15.0212 6.6283 75.1841
229 10.0000 100.0000 100.0000 54.6316 79.1636 107.0085
230 0.0000 90.0000 100.0000 46.6963 63.9004 104.4806
231 0.0000 100.0000 90.0000 50.4236 77.4331 86.9849
232 90.0000 0.0000 100.0000 50.9682 24.7208 96.6930
233 100.0000 10.0000 100.0000 60.0024 29.9049 97.2175
234 100.0000 0.0000 90.0000 55.8488 27.6757 77.0948
235 90.0000 100.0000 0.0000 68.5011 88.3778 14.3943
236 100.0000 90.0000 0.0000 69.6544 77.8000 12.2918
237 100.0000 100.0000 10.0000 77.3596 92.9238 15.7436
238 90.0000 100.0000 100.0000 86.3706 95.5256 108.4938
239 100.0000 90.0000 100.0000 87.5239 84.9478 106.3913
240 100.0000 100.0000 90.0000 91.2512 98.4805 88.8956
241 0.0000 0.0000 2.0000 0.9782 1.0111 1.2347
242 4.0000 4.0000 4.0000 1.2418 1.3065 1.4228
243 8.0000 8.0000 8.0000 1.6275 1.7122 1.8646
244 12.0000 12.0000 12.0000 2.2125 2.3278 2.5349
245 16.0000 16.0000 16.0000 3.0189 3.1761 3.4588
246 18.8453 18.8453 18.8453 3.7378 3.9324 4.2824
247 24.0000 24.0000 24.0000 5.3698 5.6495 6.1523
248 28.0000 28.0000 28.0000 6.9469 7.3087 7.9591
249 32.0000 32.0000 32.0000 8.8111 9.2700 10.0950
250 36.0000 36.0000 36.0000 10.9758 11.5474 12.5751
251 38.8453 38.8453 38.8453 12.7053 13.3670 14.5566
252 44.0000 44.0000 44.0000 16.2555 17.1021 18.6242
253 48.0000 48.0000 48.0000 19.3935 20.4034 22.2193
254 52.0000 52.0000 52.0000 22.8778 24.0692 26.2113
255 56.0000 56.0000 56.0000 26.7186 28.1100 30.6118
256 58.8453 58.8453 58.8453 29.6730 31.2183 33.9967
257 64.0000 64.0000 64.0000 35.5082 37.3574 40.6822
258 68.0000 68.0000 68.0000 40.4754 42.5833 46.3732
259 72.0000 72.0000 72.0000 45.8359 48.2230 52.5148
260 76.0000 76.0000 76.0000 51.5982 54.2853 59.1167
261 78.0000 80.0000 80.0000 56.4089 60.0771 66.1245
262 84.0000 84.0000 84.0000 64.3603 67.7121 73.7385
263 88.0000 88.0000 88.0000 71.3759 75.0930 81.7763
264 92.0000 92.0000 92.0000 78.8245 82.9295 90.3102
265 96.0000 96.0000 96.0000 86.7135 91.2293 99.3488
266 98.0000 100.0000 100.0000 93.2170 99.0551 108.8142
267 2.6667 0.0000 0.0000 1.0348 1.0434 1.0929
268 0.1786 2.4880 0.0000 1.0243 1.1393 1.1120
269 0.0000 2.6667 2.0000 1.0512 1.1572 1.2590
270 2.0000 1.3333 1.3333 1.0687 1.1130 1.2012
271 0.0000 0.0000 4.0809 1.0070 1.0226 1.3863
272 2.7475 0.0000 2.7475 1.0753 1.0600 1.2932
273 8.9167 4.9167 4.9167 1.5001 1.4783 1.5140
274 7.5833 7.5833 3.5833 1.5087 1.6327 1.4415
275 4.9167 8.9167 4.9167 1.4753 1.7053 1.5591
276 3.5833 7.5833 7.5833 1.4192 1.5785 1.8010
277 4.9167 4.9167 8.9167 1.3954 1.4149 1.9346
278 7.5833 3.5833 7.5833 1.4404 1.3845 1.7624
279 15.1667 11.1667 11.1667 2.4022 2.3507 2.3906
280 13.8333 13.8333 9.8333 2.4236 2.6345 2.2416
281 11.1667 15.1667 11.1667 2.3585 2.7518 2.4703
282 9.8333 13.8333 13.8333 2.2567 2.5334 2.9116
283 11.1667 11.1667 15.1667 2.2171 2.2387 3.1338
284 13.8333 9.8333 13.8333 2.2961 2.1718 2.8397
285 21.4167 17.4167 17.4167 3.8541 3.7904 3.8740
286 20.0833 20.0833 16.0833 3.8904 4.2232 3.6342
287 17.4167 21.4167 17.4167 3.7886 4.3911 3.9935
288 16.0833 20.0833 20.0833 3.6337 4.0678 4.6648
289 17.4167 17.4167 21.4167 3.5769 3.6225 4.9870
290 20.0833 16.0833 20.0833 3.6944 3.5116 4.5542
291 27.6667 23.6667 23.6667 5.9251 5.8719 6.0476
292 26.3333 26.3333 22.3333 5.9781 6.4704 5.7056
293 23.6667 27.6667 23.6667 5.8355 6.6935 6.2109
294 22.3333 26.3333 26.3333 5.6215 6.2545 7.1375
295 23.6667 23.6667 27.6667 5.5460 5.6424 7.5698
296 26.3333 22.3333 26.3333 5.7058 5.4817 6.9839
297 33.9167 29.9167 29.9167 8.6741 8.6587 8.9813
298 32.5833 32.5833 28.5833 8.7456 9.4372 8.5277
299 29.9167 33.9167 29.9167 8.5584 9.7197 9.1922
300 28.5833 32.5833 32.5833 8.2803 9.1555 10.3962
301 29.9167 29.9167 33.9167 8.1845 8.3623 10.9471
302 32.5833 28.5833 32.5833 8.3902 8.1470 10.1957
303 40.1667 36.1667 36.1667 12.1534 12.2065 12.7367
304 38.8333 38.8333 34.8333 12.2448 13.1778 12.1629
305 36.1667 40.1667 36.1667 12.0098 13.5236 12.9985
306 34.8333 38.8333 38.8333 11.6629 12.8255 14.4995
307 36.1667 36.1667 40.1667 11.5457 11.8385 15.1770
308 38.8333 34.8333 38.8333 11.8004 11.5643 14.2488
309 46.4167 42.4167 42.4167 16.4100 16.5654 17.3690
310 45.0833 45.0833 41.0833 16.5226 17.7412 16.6673
311 42.4167 46.4167 42.4167 16.2369 18.1537 17.6847
312 41.0833 45.0833 45.0833 15.8170 17.3140 19.5006
313 42.4167 42.4167 46.4167 15.6772 16.1217 20.3118
314 45.0833 41.0833 45.0833 15.9837 15.7847 19.1967
315 52.6667 48.6667 48.6667 21.4871 21.7813 22.9287
316 51.3333 51.3333 47.3333 21.6220 23.1722 22.0921
317 48.6667 52.6667 48.6667 21.2828 23.6547 23.3011
318 47.3333 51.3333 51.3333 20.7861 22.6662 25.4484
319 48.6667 48.6667 52.6667 20.6227 21.2579 26.3998
320 51.3333 47.3333 51.3333 20.9837 20.8547 25.0883
321 58.9167 54.9167 54.9167 27.4245 27.8966 29.4624
322 57.5833 57.5833 53.5833 27.5828 29.5127 28.4843
323 54.9167 58.9167 54.9167 27.1877 30.0682 29.8941
324 53.5833 57.5833 57.5833 26.6107 28.9241 32.3880
325 54.9167 54.9167 58.9167 26.4225 27.2899 33.4859
326 57.5833 53.5833 57.5833 26.8404 26.8172 31.9693
327 65.1667 61.1667 61.1667 34.2595 34.9510 37.0136
328 63.8333 63.8333 59.8333 34.4424 36.8016 35.8879
329 61.1667 65.1667 61.1667 33.9889 37.4330 37.5069
330 59.8333 63.8333 63.8333 33.3282 36.1270 40.3620
331 61.1667 61.1667 65.1667 33.1144 34.2576 41.6122
332 63.8333 59.8333 63.8333 33.5915 33.7122 39.8820
333 71.4167 67.4167 67.4167 42.0274 42.9817 45.6231
334 70.0833 70.0833 66.0833 42.2358 45.0756 44.3441
335 67.4167 71.4167 67.4167 41.7217 45.7856 46.1804
336 66.0833 70.0833 70.0833 40.9742 44.3118 49.4101
337 67.4167 67.4167 71.4167 40.7337 42.1984 50.8181
338 70.0833 66.0833 70.0833 41.2723 41.5775 48.8666
339 77.6667 73.6667 73.6667 50.7614 52.0239 55.3296
340 76.3333 76.3333 72.3333 50.9961 54.3696 53.8918
341 73.6667 77.6667 73.6667 50.4194 55.1606 55.9531
342 72.3333 76.3333 76.3333 49.5820 53.5134 59.5702
343 73.6667 73.6667 77.6667 49.3141 51.1477 61.1412
344 76.3333 72.3333 76.3333 49.9161 50.4486 58.9611
345 83.9167 79.9167 79.9167 60.4930 62.1112 66.1697
346 82.5833 82.5833 78.5833 60.7549 64.7165 64.5680
347 79.9167 83.9167 79.9167 60.1135 65.5912 66.8614
348 78.5833 82.5833 82.5833 59.1835 63.7651 70.8783
349 79.9167 79.9167 83.9167 58.8873 61.1391 72.6173
350 82.5833 78.5833 82.5833 59.5548 60.3592 70.2014
351 90.1667 86.1667 86.1667 71.2524 73.2754 78.1784
352 88.8333 88.8333 84.8333 71.5425 76.1481 76.4078
353 86.1667 90.1667 86.1667 70.8344 77.1086 78.9403
354 84.8333 88.8333 88.8333 69.8090 75.0986 83.3687
355 86.1667 86.1667 90.1667 69.4837 72.2046 85.2804
356 88.8333 84.8333 88.8333 70.2186 71.3415 82.6219
357 96.4167 92.4167 92.4167 83.0685 85.5472 91.3892
358 95.0833 95.0833 91.0833 83.3875 88.6944 89.4450
359 92.4167 96.4167 92.4167 82.6110 89.7432 92.2232
360 91.0833 95.0833 95.0833 81.4875 87.5442 97.0743
361 92.4167 92.4167 96.4167 81.1325 84.3751 99.1633
362 95.0833 91.0833 95.0833 81.9365 83.4264 96.2558
363 98.8453 97.5120 97.5120 91.0202 95.1119 102.9549
364 100.0000 100.0000 97.3333 93.9851 99.5740 103.2923
365 97.2525 98.5858 98.6667 90.8790 96.2369 105.5777
366 95.3333 100.0000 100.0000 90.8491 97.8344 108.7034
367 98.6667 96.6667 100.0000 91.1971 94.1164 107.9674
368 100.0000 95.9191 98.5858 91.2824 93.3761 104.8350
END_DATA
CTI1   

DESCRIPTOR "Argyll Calibration Target chart information 1"
ORIGINATOR "ChromIQ"
DENSITY_EXTREME_VALUES "8"
CREATED "Sun Sep 06 16:32:53 2026"

NUMBER_OF_FIELDS 7
BEGIN_DATA_FORMAT
INDEX RGB_R RGB_G RGB_B XYZ_X XYZ_Y XYZ_Z
END_DATA_FORMAT

NUMBER_OF_SETS 8
BEGIN_DATA
0 100.0000 100.0000 100.0000 95.0500 100.0000 108.9000
1 0.0000 100.0000 100.0000 54.2224 78.9526 106.9893
2 100.0000 0.0000 100.0000 59.6476 29.1952 97.0992
3 0.0000 0.0000 100.0000 18.8200 8.1478 95.1885
4 100.0000 100.0000 0.0000 77.1805 92.8522 14.8005
5 0.0000 100.0000 0.0000 36.3529 71.8048 12.8898
6 100.0000 0.0000 0.0000 41.7781 22.0474 2.9997
7 0.0000 0.0000 0.0000 0.9505 1.0000 1.0890
END_DATA
CTI1   

DESCRIPTOR "Argyll Calibration Target chart information 1"
ORIGINATOR "ChromIQ"
DEVICE_COMBINATION_VALUES "9"
CREATED "Sun Sep 06 16:32:53 2026"

NUMBER_OF_FIELDS 7
BEGIN_DATA_FORMAT
INDEX RGB_R RGB_G RGB_B XYZ_X XYZ_Y XYZ_Z
END_DATA_FORMAT

NUMBER_OF_SETS 9
BEGIN_DATA
0 100.0000 100.0000 100.0000 95.0500 100.0000 108.9000
1 0.0000 100.0000 100.0000 54.2224 78.9526 106.9893
2 100.0000 0.0000 100.0000 59.6476 29.1952 97.0992
3 0.0000 0.0000 100.0000 18.8200 8.1478 95.1885
4 100.0000 100.0000 0.0000 77.1805 92.8522 14.8005
5 0.0000 100.0000 0.0000 36.3529 71.8048 12.8898
6 100.0000 0.0000 0.0000 41.7781 22.0474 2.9997
7 0.0000 0.0000 0.0000 0.9505 1.0000 1.0890
8 50.0000 50.0000 50.0000 21.0917 22.1901 24.1650
END_DATA
