demo-projects/old/Demo-Report-Matrix-2026-08-10_232125/runs/run1/Demo-Report-Matrix.ti3
CTI3   

DESCRIPTOR "Argyll Calibration Target chart information 3"
ORIGINATOR "Argyll fakeread"
CREATED "Mon Aug 10 23:19:48 2026"
DEVICE_CLASS "DISPLAY"
COLOR_REP "iRGB_XYZ"

NUMBER_OF_FIELDS 7
BEGIN_DATA_FORMAT
SAMPLE_ID RGB_R RGB_G RGB_B XYZ_X XYZ_Y XYZ_Z 
END_DATA_FORMAT

NUMBER_OF_SETS 210
BEGIN_DATA
1 100.0000 100.0000 100.0000 94.90500 99.71907 108.8582 
2 100.0000 100.0000 100.0000 94.65215 99.79718 108.8866 
3 100.0000 100.0000 100.0000 94.66304 99.81734 108.2310 
4 100.0000 100.0000 100.0000 94.98660 99.96964 108.9023 
5 0.00000 0.00000 0.00000 0.0162851 0.00727263 0.0515172 
6 0.00000 0.00000 0.00000 0.00582175 0.0116434 0.00194043 
7 0.00000 0.00000 0.00000 0.0277745 0.0271061 0.00376863 
8 0.00000 0.00000 0.00000 0.0280246 0.0207729 0.00784185 
9 100.0000 100.0000 0.00000 76.59962 91.98346 13.72832 
10 0.00000 0.00000 100.0000 18.05962 7.225775 95.05476 
11 100.0000 0.00000 0.00000 41.24187 21.26567 1.951334 
12 0.00000 100.0000 100.0000 53.53592 78.18225 106.8801 
13 0.00000 100.0000 0.00000 35.75985 71.51725 11.92563 
14 100.0000 0.00000 100.0000 58.82042 28.24272 96.96460 
15 0.00000 48.94341 100.0000 25.58457 22.28585 97.56485 
16 0.00000 49.27058 0.00000 7.156253 14.31244 2.385231 
17 0.00000 0.00000 49.74722 3.838066 1.535138 20.21332 
18 100.0000 0.00000 50.27844 45.08015 22.78965 22.67296 
19 100.0000 52.95732 100.0000 67.88584 45.79152 99.87386 
20 100.0000 51.46797 0.00000 49.16118 37.45275 4.649159 
21 48.15306 0.00000 0.00000 8.123284 4.188172 0.405137 
22 100.0000 100.0000 50.62479 80.93510 94.34115 34.63860 
23 0.00000 100.0000 51.02191 39.75864 73.10256 32.96412 
24 51.31754 100.0000 100.0000 63.22592 83.59247 107.4140 
25 50.65051 100.0000 0.00000 44.83116 76.19496 12.34371 
26 50.39017 0.00000 100.0000 27.25137 12.00071 95.17235 
27 0.00000 50.47073 50.95826 11.83033 17.27425 23.63364 
28 100.0000 50.01621 48.06799 52.27530 37.90107 22.38382 
29 50.59241 49.73283 0.00000 16.50983 19.54525 2.902601 
30 51.64018 0.00000 48.02905 12.95788 6.282732 18.76605 
31 49.74911 50.29281 100.0000 34.55514 26.87448 97.97808 
32 51.47506 100.0000 49.90814 48.86986 77.83672 32.42365 
33 0.00000 24.48986 0.00000 1.758315 3.516614 0.586059 
34 0.00000 0.00000 23.80317 0.812715 0.326278 4.276459 
35 100.0000 26.72220 100.0000 61.42407 32.75749 97.69877 
36 74.61589 0.00000 0.00000 21.60456 11.14050 1.035238 
37 0.00000 75.63524 100.0000 36.83863 44.79879 101.3169 
38 52.95721 54.86698 45.29698 22.20588 24.79033 20.13531 
39 100.0000 100.0000 25.40356 77.97782 93.17333 19.01762 
40 100.0000 76.36183 0.00000 61.11216 61.01182 8.556533 
41 100.0000 0.00000 25.06615 42.12158 21.63083 6.910741 
42 0.00000 74.61888 27.06523 19.40417 37.03863 11.81171 
43 67.64862 76.28067 100.0000 54.76755 55.01083 102.3436 
44 75.70873 0.00000 100.0000 39.80780 18.45511 95.34645 
45 74.59608 100.0000 76.31285 66.66920 86.06477 64.49941 
46 0.00000 26.02462 100.0000 20.05544 11.23256 95.72290 
47 100.0000 75.71850 78.55725 70.95630 63.96747 63.73993 
48 25.59418 100.0000 76.86926 47.69852 76.54188 63.54480 
49 0.00000 100.0000 25.71017 36.63394 71.73694 16.92965 
50 100.0000 0.00000 75.88249 50.79770 25.09237 52.26330 
51 27.58624 73.39933 0.00000 20.46208 37.25893 6.112882 
52 100.0000 25.63905 0.00000 43.15401 25.08782 2.595199 
53 26.30576 0.00000 71.17499 10.62718 4.514939 44.04080 
54 76.73663 100.0000 100.0000 76.39046 90.38779 107.7095 
55 75.54941 100.0000 0.00000 57.13641 81.85441 12.82247 
56 0.00000 100.0000 76.21086 45.56423 75.44078 63.47012 
57 35.53599 76.87970 100.0000 42.14203 49.27432 101.4183 
58 100.0000 100.0000 76.60860 86.44741 96.51468 65.71229 
59 25.21997 100.0000 0.00000 37.52382 71.93161 11.90570 
60 32.94395 0.00000 23.22224 4.403342 2.180559 4.267488 
61 25.28005 25.31841 0.00000 4.001438 4.849603 0.725201 
62 0.00000 73.96029 77.00057 28.50782 40.64270 59.90451 
63 74.09027 26.52765 73.61097 31.75735 18.25631 48.65191 
64 24.67490 0.00000 100.0000 20.14825 8.302576 95.15259 
65 100.0000 29.78965 74.57692 53.28227 30.30586 52.33798 
66 0.00000 75.71814 0.00000 18.90614 37.80795 6.314397 
67 0.00000 0.00000 76.09367 9.631948 3.854168 50.72204 
68 100.0000 77.31918 100.0000 79.15380 68.21680 103.6082 
69 73.87364 100.0000 26.17568 57.21621 82.21247 18.11337 
70 72.05195 24.51108 0.00000 21.68337 13.73967 1.518667 
71 0.00000 26.49709 23.71872 2.853274 4.418941 4.920940 
72 30.75750 37.91439 66.25346 14.62843 13.00364 39.35930 
73 100.0000 77.73344 31.23535 62.85230 62.30121 16.42168 
74 75.56648 24.37740 45.00575 26.03992 15.54463 18.21915 
75 75.50505 72.82185 0.00000 39.00038 45.94926 6.823680 
76 100.0000 28.38243 25.33786 44.50029 26.27872 7.673842 
77 22.98514 0.00000 0.00000 1.760392 0.907734 0.0824920 
78 0.00000 25.81538 70.66845 10.08125 7.050280 43.78804 
79 24.25002 100.0000 30.06553 39.12968 73.09687 19.21397 
80 32.14348 27.58155 100.0000 23.72014 13.43595 95.93836 
81 26.91779 51.53922 23.52635 11.18335 17.51895 7.178965 
82 75.83725 0.00000 71.20510 30.66981 14.84983 45.41821 
83 64.88735 0.00000 21.52970 16.35180 8.375626 4.297392 
84 49.00294 72.07542 76.16645 35.55870 42.78225 57.31412 
85 66.80184 26.26536 100.0000 36.53156 19.65176 96.48019 
86 25.99746 71.39006 49.26601 22.93232 36.45219 25.53055 
87 25.25845 100.0000 100.0000 55.99928 79.87065 106.8699 
88 79.76515 49.91431 20.63878 33.26455 28.53804 6.796662 
89 46.57199 26.83048 28.07037 10.69849 8.413833 7.017802 
90 47.97812 79.34591 20.98837 29.97470 47.13519 10.88749 
91 75.38947 75.77211 48.91837 44.72674 51.03342 26.95956 
92 74.66165 60.08226 76.27818 42.70923 38.18784 56.49873 
93 76.52644 51.86452 100.0000 49.56342 36.17028 98.68842 
94 24.09739 48.40938 0.00000 9.079055 15.29492 2.473595 
95 21.46241 19.53768 47.60490 6.078115 4.375908 18.71808 
96 50.96953 100.0000 75.63390 54.39144 80.02578 62.38046 
97 23.86247 52.96849 100.0000 28.54376 25.40899 97.82733 
98 78.09958 0.00000 42.10351 26.55783 13.39636 14.69245 
99 25.76719 100.0000 54.22529 42.57154 74.49867 36.20641 
100 27.31162 67.08796 75.36823 26.47387 34.07187 54.82503 
101 0.00000 50.28361 24.44027 8.573188 15.74416 7.142340 
102 100.0000 24.47371 50.27555 46.55633 26.05794 22.58617 
103 100.0000 53.36129 71.79695 58.56340 42.38303 49.42725 
104 55.02557 53.14513 70.21287 27.55460 26.01814 46.98900 
105 44.03680 21.98664 78.39277 18.58093 10.48823 56.07146 
106 0.00000 48.91010 77.13587 17.51994 18.69316 56.23989 
107 78.31565 42.10361 51.21553 33.40683 24.70239 24.35140 
108 46.63963 23.39635 49.90428 12.89197 8.661515 20.97257 
109 76.05712 74.23037 26.20722 41.42021 48.07730 12.50870 
110 0.00000 25.75224 46.23788 5.087564 5.078859 17.40861 
111 47.52593 23.02819 0.00000 9.581762 7.239839 0.892672 
112 19.54697 43.64720 46.35939 10.46725 13.71329 19.31937 
113 19.23591 77.97018 25.34867 22.98954 42.46332 12.06867 
114 83.83931 15.61500 14.49644 29.27011 16.07717 3.311252 
115 51.40751 76.24459 0.00000 28.79138 43.76506 6.940749 
116 49.95628 73.83793 49.65658 31.03450 42.37344 26.75578 
117 22.91641 21.54739 18.04803 3.635498 3.889215 3.179461 
118 58.69194 50.41350 21.75336 21.00694 22.35728 6.825097 
119 0.00000 75.28998 52.84163 22.92507 38.81943 29.31005 
120 75.91020 100.0000 53.36857 61.24260 83.14796 35.29646 
121 76.47031 47.41229 0.00000 29.54626 25.25004 3.341970 
122 48.28827 100.0000 23.29808 44.79038 75.99023 16.24225 
123 100.0000 76.62859 55.56587 66.07349 63.12871 34.27708 
124 13.29195 85.50085 85.40985 38.75378 56.25034 75.53108 
125 51.28013 0.00000 74.69981 18.58574 8.487055 50.35519 
126 24.71178 0.00000 45.62440 5.233798 2.335363 16.64480 
127 14.02653 10.62774 87.19651 14.28117 6.399271 69.67435 
128 100.0000 55.32715 24.55975 51.35780 40.10541 9.615007 
129 86.35840 15.38194 87.42043 43.54690 21.99110 71.87174 
130 76.98678 77.28701 79.69321 53.80570 56.63721 64.40951 
131 86.62658 62.70897 40.25988 44.80385 41.55858 18.28039 
132 87.04273 38.71822 88.36409 47.70447 29.53194 74.07951 
133 36.29819 83.69165 64.12164 35.15114 53.09907 42.42761 
134 66.11643 28.63055 22.14370 19.04475 13.19846 5.272966 
135 39.15627 58.23252 60.93043 21.51291 25.75516 34.82865 
136 87.21240 16.22540 63.47064 37.02229 19.58599 36.14286 
137 17.70658 42.29183 85.64934 19.25180 16.40767 69.14861 
138 56.96216 62.79813 88.96348 38.18921 36.87390 77.95007 
139 12.81359 36.00600 10.80450 4.598800 7.912305 2.388858 
140 89.00560 82.93281 12.64317 55.24637 62.94372 10.68342 
141 36.40120 37.14522 12.40511 8.848481 10.59619 2.795770 
142 15.38053 62.14103 12.11720 13.45515 25.26005 5.402808 
143 67.94668 57.66651 57.83205 33.03618 31.69411 32.26085 
144 36.43616 85.43095 83.85906 41.70906 57.26825 72.88362 
145 62.77502 87.15890 83.90262 52.71042 64.32620 72.95232 
146 64.95765 11.17881 85.85756 28.42786 13.83984 67.28465 
147 41.03013 62.69470 13.78973 18.63909 28.12846 6.022638 
148 19.13698 51.09286 65.28859 16.31965 19.51135 39.58343 
149 39.46878 42.75380 82.48089 22.26875 18.13412 63.16957 
150 13.36687 60.84617 86.02033 25.14092 28.61829 71.95600 
151 13.36527 60.01461 38.97192 14.04838 23.66479 15.28721 
152 37.19040 87.71642 42.05529 33.77827 55.94413 23.26667 
153 8.036606 10.42017 17.03832 1.160184 1.179299 2.486919 
154 34.58778 15.66400 62.28956 10.85005 5.907665 32.64249 
155 13.37425 13.71385 63.49910 7.731853 4.088141 34.39903 
156 68.58462 16.10942 57.11024 23.50620 12.67478 28.90294 
157 86.56384 89.03062 38.27800 59.97788 72.11853 22.15589 
158 65.63108 86.82175 12.88781 42.86240 61.08558 10.96161 
159 40.57024 13.22913 14.29912 6.352324 4.033680 2.159370 
160 88.82010 65.30692 12.58998 45.26812 43.64768 7.414942 
161 13.45146 86.84297 42.72850 29.44410 53.40555 23.37199 
162 85.62743 34.79568 12.35284 32.93227 22.26528 4.021906 
163 86.06902 87.72688 64.51087 62.85835 71.45393 45.91959 
164 87.44463 37.74804 34.91491 36.34209 24.75383 12.30460 
165 89.63838 17.37448 34.81315 35.50255 19.55416 11.13460 
166 15.37023 89.44209 11.18241 29.00635 56.45842 10.53612 
167 86.92420 64.07560 62.38749 49.60562 44.57162 38.96607 
168 34.09172 89.26489 14.00883 31.75404 57.39718 10.98593 
169 14.05326 86.21880 66.83697 33.49784 54.21790 47.12720 
170 59.36164 66.17704 32.77806 28.83748 35.81145 13.89033 
171 86.60879 64.73215 90.02622 57.30022 47.75481 79.71215 
172 57.82718 90.00716 62.49480 46.20589 64.19393 43.31083 
173 60.85154 34.90815 40.68796 19.77527 15.29822 15.13808 
174 66.11143 43.74438 80.43246 33.04918 24.52672 60.38755 
175 60.84564 15.21238 34.00155 16.43205 9.312512 10.20648 
176 35.83815 69.99307 30.23060 21.48603 34.40631 12.69555 
177 61.21213 86.20862 36.45005 41.74812 59.99613 19.47321 
178 81.12472 2.460981 26.56412 26.38265 13.58245 6.541426 
179 63.75946 64.60886 11.40055 28.88409 34.66483 6.350281 
180 12.61013 35.24157 58.96784 9.600395 9.719935 29.87358 
181 43.47890 44.61602 29.61553 14.06535 16.19134 9.327948 
182 39.01456 39.83710 48.08457 13.29864 13.35956 20.40152 
183 62.14251 12.54902 10.95362 14.82562 8.318322 1.974979 
184 42.43468 9.169894 35.91093 8.531873 4.604693 10.40739 
185 13.83441 39.65443 29.89508 6.581509 10.00232 8.425627 
186 57.72060 32.15551 68.85940 22.72317 15.11738 41.92814 
187 10.19840 19.60955 33.93320 3.231156 3.185528 9.021889 
188 14.84852 3.325629 33.79536 2.629683 1.302594 9.117058 
189 88.93154 93.77788 85.68240 74.38806 82.02070 77.73402 
190 54.13047 32.63141 90.82276 28.45432 17.74757 78.81996 
191 45.52034 15.82221 98.09570 25.35653 12.19162 92.72149 
192 58.22792 42.89616 56.31173 23.06923 19.29519 29.17773 
193 15.31574 12.96012 4.694697 1.443729 1.510260 0.554955 
194 56.76331 36.93317 9.187622 15.74404 14.11261 2.733063 
195 83.82187 97.81152 14.34803 62.22969 82.48279 14.28006 
196 17.65657 75.07963 98.08640 36.89221 44.62468 96.74192 
197 85.88447 42.77806 68.38968 42.31551 29.28312 43.41667 
198 36.69516 59.13174 87.69950 29.14296 30.01495 75.02843 
199 70.08301 51.78187 37.27123 28.68495 26.70951 14.10273 
200 36.20907 57.95763 41.46704 17.68768 24.66900 17.61312 
201 5.468365 34.02005 88.44715 17.08190 12.26749 72.30251 
202 52.22558 84.18383 98.62956 51.15966 60.15181 100.7311 
203 11.87502 65.27469 60.44171 19.94565 29.81312 35.31030 
204 23.99503 25.38803 82.48991 15.52463 9.391009 62.60682 
205 54.40907 11.30600 64.87077 17.86382 9.099464 36.31274 
206 4.276114 77.97125 13.75109 20.60405 40.60200 8.157285 
207 28.69171 26.55966 33.75525 6.579867 6.205031 9.493045 
208 34.77114 7.830922 85.03975 16.82634 7.624791 65.77375 
209 84.23997 84.27323 96.38655 68.40436 69.20850 97.23693 
210 64.56057 74.01070 66.09675 40.99185 47.22633 44.74816 
END_DATA
