demo-projects/old/Demo-Report-Matrix-2026-08-10_231948/runs/run1/Demo-Report-Matrix.ti3
CTI3   

DESCRIPTOR "Argyll Calibration Target chart information 3"
ORIGINATOR "Argyll fakeread"
CREATED "Mon Aug 10 23:17:25 2026"
DEVICE_CLASS "DISPLAY"
COLOR_REP "iRGB_XYZ"

NUMBER_OF_FIELDS 7
BEGIN_DATA_FORMAT
SAMPLE_ID RGB_R RGB_G RGB_B XYZ_X XYZ_Y XYZ_Z 
END_DATA_FORMAT

NUMBER_OF_SETS 210
BEGIN_DATA
1 100.0000 100.0000 100.0000 94.86982 99.64871 108.8465 
2 100.0000 100.0000 100.0000 94.79981 99.88043 108.5730 
3 100.0000 100.0000 100.0000 94.30271 99.63926 107.8655 
4 100.0000 100.0000 100.0000 94.17081 99.59012 107.0077 
5 0.00000 0.00000 0.00000 0.0207825 0.0123677 0.00129254 
6 0.00000 0.00000 0.00000 0.00607653 0.00649325 0.00108722 
7 0.00000 0.00000 0.00000 0.0218646 0.0437289 0.00728762 
8 0.00000 0.00000 0.00000 0.00180214 0.000720814 0.00949103 
9 100.0000 100.0000 0.00000 76.88535 92.72348 13.84577 
10 0.00000 0.00000 100.0000 18.05508 7.222353 95.05433 
11 100.0000 0.00000 0.00000 40.83789 21.06267 1.947802 
12 0.00000 100.0000 100.0000 53.04056 77.41398 106.0651 
13 0.00000 100.0000 0.00000 35.77740 71.52041 11.96484 
14 100.0000 0.00000 100.0000 58.97115 28.32044 96.97166 
15 0.00000 48.94341 100.0000 25.25387 21.74376 97.04623 
16 0.00000 49.27058 0.00000 7.426421 14.84982 2.474710 
17 0.00000 0.00000 49.74722 3.971977 1.596587 20.82503 
18 100.0000 0.00000 50.27844 44.99049 22.74646 22.53171 
19 100.0000 52.95732 100.0000 67.86538 45.80929 99.32394 
20 100.0000 51.46797 0.00000 49.11960 37.02405 4.567825 
21 48.15306 0.00000 0.00000 8.020238 4.146763 0.407297 
22 100.0000 100.0000 50.62479 80.72795 94.24823 34.63339 
23 0.00000 100.0000 51.02191 39.85002 73.15322 33.46665 
24 51.31754 100.0000 100.0000 63.18407 83.57769 107.1053 
25 50.65051 100.0000 0.00000 44.61316 76.08255 12.33350 
26 50.39017 0.00000 100.0000 26.74487 11.71594 94.88591 
27 0.00000 50.47073 50.95826 11.96481 17.40811 24.05512 
28 100.0000 50.01621 48.06799 52.41796 37.91835 23.24899 
29 50.59241 49.73283 0.00000 16.65175 19.66037 2.917345 
30 51.64018 0.00000 48.02905 12.93633 6.266173 18.85357 
31 49.74911 50.29281 100.0000 34.50392 27.22485 98.04839 
32 51.47506 100.0000 49.90814 48.65789 77.14344 32.33612 
33 0.00000 24.48986 0.00000 1.640785 3.277978 0.557918 
34 0.00000 0.00000 23.80317 0.799438 0.319757 4.210270 
35 100.0000 26.72220 100.0000 61.47796 32.86526 97.71673 
36 74.61589 0.00000 0.00000 21.18298 10.92261 1.003624 
37 0.00000 75.63524 100.0000 37.19061 45.71115 100.7577 
38 52.95721 54.86698 45.29698 22.37217 25.18222 20.12162 
39 100.0000 100.0000 25.40356 77.52498 92.25951 18.89177 
40 100.0000 76.36183 0.00000 60.05259 59.25974 8.294165 
41 100.0000 0.00000 25.06615 42.14306 21.62612 6.697478 
42 0.00000 74.61888 27.06523 19.55150 37.42962 11.67560 
43 67.64862 76.28067 100.0000 54.75647 55.04012 101.8855 
44 75.70873 0.00000 100.0000 39.72812 18.44247 94.05896 
45 74.59608 100.0000 76.31285 67.23791 86.61407 64.60274 
46 0.00000 26.02462 100.0000 19.73302 10.87967 94.71530 
47 100.0000 75.71850 78.55725 70.46193 63.26484 62.38124 
48 25.59418 100.0000 76.86926 47.60091 76.11327 64.59254 
49 0.00000 100.0000 25.71017 35.93512 70.32736 16.73352 
50 100.0000 0.00000 75.88249 50.98227 25.18639 53.17309 
51 27.58624 73.39933 0.00000 20.42892 37.17142 6.097741 
52 100.0000 25.63905 0.00000 42.96575 25.08016 2.606446 
53 26.30576 0.00000 71.17499 10.65061 4.552746 44.17521 
54 76.73663 100.0000 100.0000 76.68347 90.53675 107.8196 
55 75.54941 100.0000 0.00000 57.44005 82.69601 12.96326 
56 0.00000 100.0000 76.21086 45.50189 75.26058 63.65287 
57 35.53599 76.87970 100.0000 41.97984 49.12798 100.8100 
58 100.0000 100.0000 76.60860 86.63070 96.59835 66.20978 
59 25.21997 100.0000 0.00000 37.89075 72.57217 12.00999 
60 32.94395 0.00000 23.22224 4.310693 2.132063 4.295731 
61 25.28005 25.31841 0.00000 3.804895 4.576943 0.698024 
62 0.00000 73.96029 77.00057 27.92920 40.11611 57.84555 
63 74.09027 26.52765 73.61097 32.13811 18.45883 49.34706 
64 24.67490 0.00000 100.0000 20.09977 8.282243 95.15122 
65 100.0000 29.78965 74.57692 52.43030 29.81480 51.13585 
66 0.00000 75.71814 0.00000 19.17460 38.31703 6.384856 
67 0.00000 0.00000 76.09367 9.574916 3.830978 50.41740 
68 100.0000 77.31918 100.0000 78.85942 68.17652 103.6159 
69 73.87364 100.0000 26.17568 57.38725 82.52528 18.05481 
70 72.05195 24.51108 0.00000 21.27593 13.62152 1.508524 
71 0.00000 26.49709 23.71872 2.971587 4.633846 5.027343 
72 30.75750 37.91439 66.25346 14.51826 12.83922 39.23447 
73 100.0000 77.73344 31.23535 63.32577 63.10633 16.94497 
74 75.56648 24.37740 45.00575 27.00734 16.15051 18.27522 
75 75.50505 72.82185 0.00000 39.13142 46.42088 6.898039 
76 100.0000 28.38243 25.33786 44.49068 26.26012 7.668714 
77 22.98514 0.00000 0.00000 1.766402 0.929885 0.0887768 
78 0.00000 25.81538 70.66845 10.28620 7.275861 44.42459 
79 24.25002 100.0000 30.06553 38.99792 73.03571 18.90170 
80 32.14348 27.58155 100.0000 23.80414 13.42312 95.69749 
81 26.91779 51.53922 23.52635 11.26007 17.70228 6.848056 
82 75.83725 0.00000 71.20510 30.61941 14.83705 44.85569 
83 64.88735 0.00000 21.52970 16.26651 8.307726 4.371729 
84 49.00294 72.07542 76.16645 35.36606 42.54695 56.44740 
85 66.80184 26.26536 100.0000 36.82548 19.85909 95.77338 
86 25.99746 71.39006 49.26601 23.01826 36.52168 25.46896 
87 25.25845 100.0000 100.0000 55.75220 79.75687 106.2438 
88 79.76515 49.91431 20.63878 32.89707 27.88868 7.164304 
89 46.57199 26.83048 28.07037 10.80179 8.721779 7.172193 
90 47.97812 79.34591 20.98837 29.46568 46.54036 10.94990 
91 75.38947 75.77211 48.91837 44.75713 51.17065 26.90656 
92 74.66165 60.08226 76.27818 42.41223 37.24605 56.47210 
93 76.52644 51.86452 100.0000 49.08453 35.41737 98.86173 
94 24.09739 48.40938 0.00000 8.956462 15.13123 2.448462 
95 21.46241 19.53768 47.60490 6.168127 4.413615 19.23679 
96 50.96953 100.0000 75.63390 54.64545 80.05178 63.29772 
97 23.86247 52.96849 100.0000 28.63525 25.63642 98.05083 
98 78.09958 0.00000 42.10351 26.20641 13.21059 15.13355 
99 25.76719 100.0000 54.22529 42.51220 74.47129 36.05823 
100 27.31162 67.08796 75.36823 26.22788 33.52493 54.59969 
101 0.00000 50.28361 24.44027 8.673833 15.93818 7.192972 
102 100.0000 24.47371 50.27555 46.60505 26.18189 22.86475 
103 100.0000 53.36129 71.79695 58.48584 42.09749 49.80349 
104 55.02557 53.14513 70.21287 27.83846 26.36170 46.67100 
105 44.03680 21.98664 78.39277 18.45361 10.27441 55.16820 
106 0.00000 48.91010 77.13587 17.00432 18.02643 54.94420 
107 78.31565 42.10361 51.21553 33.63073 24.92202 24.52047 
108 46.63963 23.39635 49.90428 12.89998 8.429213 20.95750 
109 76.05712 74.23037 26.20722 41.40456 48.29768 12.74193 
110 0.00000 25.75224 46.23788 5.212207 5.263777 17.64861 
111 47.52593 23.02819 0.00000 9.588843 7.308730 0.905594 
112 19.54697 43.64720 46.35939 10.17635 13.16593 19.36043 
113 19.23591 77.97018 25.34867 22.75941 42.09424 12.02912 
114 83.83931 15.61500 14.49644 28.85723 15.99175 3.281451 
115 51.40751 76.24459 0.00000 28.52802 43.40533 6.874350 
116 49.95628 73.83793 49.65658 30.66089 42.16553 26.45716 
117 22.91641 21.54739 18.04803 3.689678 3.907605 3.193825 
118 58.69194 50.41350 21.75336 20.89857 22.20209 7.003220 
119 0.00000 75.28998 52.84163 23.37270 39.83422 29.09849 
120 75.91020 100.0000 53.36857 62.19967 84.64520 35.97897 
121 76.47031 47.41229 0.00000 28.90791 24.77136 3.258395 
122 48.28827 100.0000 23.29808 44.76941 76.06854 16.60907 
123 100.0000 76.62859 55.56587 65.49167 62.03203 33.87672 
124 13.29195 85.50085 85.40985 38.22215 55.20702 74.99265 
125 51.28013 0.00000 74.69981 18.22560 8.332273 48.94277 
126 24.71178 0.00000 45.62440 5.313296 2.368621 16.99761 
127 14.02653 10.62774 87.19651 14.38842 6.467952 70.01762 
128 100.0000 55.32715 24.55975 51.65932 40.70371 9.730121 
129 86.35840 15.38194 87.42043 43.11764 21.79213 72.36134 
130 76.98678 77.28701 79.69321 53.42951 55.76633 65.80275 
131 86.62658 62.70897 40.25988 44.82123 40.78726 18.80135 
132 87.04273 38.71822 88.36409 48.22797 29.86205 74.88722 
133 36.29819 83.69165 64.12164 35.24277 53.33277 43.32781 
134 66.11643 28.63055 22.14370 20.07824 13.99358 5.522115 
135 39.15627 58.23252 60.93043 22.02095 26.86741 34.70484 
136 87.21240 16.22540 63.47064 37.41324 19.79835 35.83104 
137 17.70658 42.29183 85.64934 19.38934 16.32699 70.39345 
138 56.96216 62.79813 88.96348 38.36646 37.13255 79.00515 
139 12.81359 36.00600 10.80450 4.601489 7.907327 2.397742 
140 89.00560 82.93281 12.64317 55.70032 63.55794 10.76360 
141 36.40120 37.14522 12.40511 8.685477 10.54336 2.925411 
142 15.38053 62.14103 12.11720 13.55765 25.41555 5.511324 
143 67.94668 57.66651 57.83205 32.90855 32.37014 31.81288 
144 36.43616 85.43095 83.85906 41.83697 57.47047 72.47947 
145 62.77502 87.15890 83.90262 52.33373 63.92589 72.82838 
146 64.95765 11.17881 85.85756 28.92916 14.01166 68.89464 
147 41.03013 62.69470 13.78973 18.41842 27.86842 6.013628 
148 19.13698 51.09286 65.28859 16.24961 19.22461 40.12014 
149 39.46878 42.75380 82.48089 22.32296 18.07544 63.84837 
150 13.36687 60.84617 86.02033 25.61923 29.33266 72.86875 
151 13.36527 60.01461 38.97192 14.16013 23.81526 15.48262 
152 37.19040 87.71642 42.05529 34.14979 56.95487 23.02711 
153 8.036606 10.42017 17.03832 1.142316 1.077675 2.632321 
154 34.58778 15.66400 62.28956 11.24651 6.175584 33.96213 
155 13.37425 13.71385 63.49910 7.944934 4.296918 35.19527 
156 68.58462 16.10942 57.11024 23.78772 12.82376 27.95257 
157 86.56384 89.03062 38.27800 60.13373 72.29500 22.21700 
158 65.63108 86.82175 12.88781 41.46035 58.86977 10.48226 
159 40.57024 13.22913 14.29912 6.522914 4.195190 2.132977 
160 88.82010 65.30692 12.58998 45.23254 43.25386 7.354743 
161 13.45146 86.84297 42.72850 29.38546 53.35045 23.11014 
162 85.62743 34.79568 12.35284 32.75004 22.10382 3.825251 
163 86.06902 87.72688 64.51087 63.36718 71.75047 46.43925 
164 87.44463 37.74804 34.91491 35.87147 24.37684 12.16631 
165 89.63838 17.37448 34.81315 34.76677 19.04570 11.24351 
166 15.37023 89.44209 11.18241 29.03431 56.39167 10.58238 
167 86.92420 64.07560 62.38749 49.51187 44.41907 38.68439 
168 34.09172 89.26489 14.00883 31.66395 57.02225 10.95366 
169 14.05326 86.21880 66.83697 33.76044 54.69703 47.24107 
170 59.36164 66.17704 32.77806 28.67275 35.67284 13.73260 
171 86.60879 64.73215 90.02622 57.61843 48.07384 80.48587 
172 57.82718 90.00716 62.49480 45.90719 64.29513 42.74733 
173 60.85154 34.90815 40.68796 19.49285 15.14931 14.85053 
174 66.11143 43.74438 80.43246 33.25161 24.23692 61.04933 
175 60.84564 15.21238 34.00155 16.37181 9.210576 9.819956 
176 35.83815 69.99307 30.23060 21.76180 34.83324 12.61253 
177 61.21213 86.20862 36.45005 41.56402 59.12712 19.48854 
178 81.12472 2.460981 26.56412 26.19718 13.49907 6.694244 
179 63.75946 64.60886 11.40055 29.15540 35.43783 6.457411 
180 12.61013 35.24157 58.96784 9.617077 9.701933 29.76362 
181 43.47890 44.61602 29.61553 13.84052 15.73284 9.136131 
182 39.01456 39.83710 48.08457 13.48202 13.60886 20.52362 
183 62.14251 12.54902 10.95362 15.04091 8.487677 1.989562 
184 42.43468 9.169894 35.91093 8.357821 4.561667 10.35608 
185 13.83441 39.65443 29.89508 6.611651 10.02127 8.438409 
186 57.72060 32.15551 68.85940 22.46054 15.01757 42.33822 
187 10.19840 19.60955 33.93320 3.252044 3.146646 9.498934 
188 14.84852 3.325629 33.79536 2.627395 1.300942 9.052815 
189 88.93154 93.77788 85.68240 75.45025 83.96766 78.73956 
190 54.13047 32.63141 90.82276 28.34987 17.47095 78.78192 
191 45.52034 15.82221 98.09570 24.89914 11.90879 91.01149 
192 58.22792 42.89616 56.31173 22.72154 19.27781 28.76656 
193 15.31574 12.96012 4.694697 1.498326 1.601717 0.631653 
194 56.76331 36.93317 9.187622 15.81038 14.26507 2.820768 
195 83.82187 97.81152 14.34803 62.20942 82.51265 14.33886 
196 17.65657 75.07963 98.08640 37.24374 44.89959 98.37456 
197 85.88447 42.77806 68.38968 43.14548 29.87583 43.98819 
198 36.69516 59.13174 87.69950 28.96339 29.46819 74.72563 
199 70.08301 51.78187 37.27123 29.07223 26.98400 14.69775 
200 36.20907 57.95763 41.46704 17.83290 24.86114 17.43046 
201 5.468365 34.02005 88.44715 17.23685 12.27185 73.33542 
202 52.22558 84.18383 98.62956 52.15250 61.63239 100.6354 
203 11.87502 65.27469 60.44171 20.22134 30.10800 36.04680 
204 23.99503 25.38803 82.48991 15.18274 9.203139 60.86385 
205 54.40907 11.30600 64.87077 17.75317 9.046881 36.50963 
206 4.276114 77.97125 13.75109 20.71590 40.77402 8.305369 
207 28.69171 26.55966 33.75525 6.395286 6.175607 9.335389 
208 34.77114 7.830922 85.03975 16.67293 7.550492 65.53079 
209 84.23997 84.27323 96.38655 69.26751 69.45855 97.12734 
210 64.56057 74.01070 66.09675 40.85102 47.22609 44.18251 
END_DATA
