demo-projects/Demo-Report-Matrix/runs/run1/verifications/2026-08-09_100000/chart/Demo-Report-Matrix-verify.ti2
CTI2   

DESCRIPTOR "Argyll Calibration Target chart information 2"
ORIGINATOR "Argyll printtarg"
CREATED "Tue Aug 11 11:21:04 2026"
TARGET_INSTRUMENT "X-Rite ColorMunki"
APPROX_WHITE_POINT "95.050000 100.000000 108.900000"
COLOR_REP "iRGB"
PAPER_SIZE "210.0x297.0"
RANDOM_START "76"
STEPS_IN_PASS "15"
PASSES_IN_STRIPS2 "6,2"
STRIP_INDEX_PATTERN "A-Z, A-Z"
PATCH_INDEX_PATTERN "0-9,@-9,@-9;1-999"
INDEX_ORDER "STRIP_THEN_PATCH"

NUMBER_OF_FIELDS 8
BEGIN_DATA_FORMAT
SAMPLE_ID SAMPLE_LOC RGB_R RGB_G RGB_B XYZ_X XYZ_Y XYZ_Z 
END_DATA_FORMAT

NUMBER_OF_SETS 120
BEGIN_DATA
1 "E13" 107.8431 98.82353 86.27451 96.54900 100.0625 81.86520 
2 "A3" 107.8431 98.82353 86.27451 96.54900 100.0625 81.86520 
3 "E4" 107.8431 98.82353 86.27451 96.54900 100.0625 81.86520 
4 "E14" 107.8431 98.82353 86.27451 96.54900 100.0625 81.86520 
5 "G10" 0.00000 0.00000 0.00000 0.950500 1.000000 1.089000 
6 "D9" 0.00000 0.00000 0.00000 0.950500 1.000000 1.089000 
7 "C6" 0.00000 0.00000 0.00000 0.950500 1.000000 1.089000 
8 "H1" 0.00000 0.00000 0.00000 0.950500 1.000000 1.089000 
9 "A11" 103.9216 95.68627 83.13725 89.39650 92.65410 75.86580 
10 "G11" 100.3922 92.15686 80.39216 82.58870 85.60260 70.15350 
11 "B13" 96.86275 89.01961 77.25490 76.11650 78.89860 64.72080 
12 "H11" 93.33333 85.49020 74.50980 69.97560 72.53760 59.56420 
13 "H6" 89.80392 82.35294 71.76471 64.15720 66.51060 54.67630 
14 "A12" 86.27451 79.21569 69.01961 58.65420 60.81000 50.05090 
15 "D10" 82.74510 75.68627 65.88235 53.46210 55.43140 45.68490 
16 "F4" 79.21569 72.54902 63.13725 48.57070 50.36410 41.56950 
17 "C5" 75.68627 69.41176 60.39216 43.97420 45.60210 37.70000 
18 "F7" 72.15686 66.27451 57.64706 39.66530 41.13780 34.07030 
19 "C10" 68.62745 63.13725 54.90196 35.63820 36.96530 30.67560 
20 "G4" 65.09804 59.60784 52.15686 31.88270 33.07410 27.50760 
21 "G3" 61.56863 56.47059 49.41176 28.39160 29.45670 24.56020 
22 "A9" 58.03922 53.33333 46.66667 25.15770 26.10560 21.82750 
23 "H12" 54.90196 50.19608 43.92157 22.17520 23.01480 19.30470 
24 "F2" 51.37255 47.05882 41.17647 19.43270 20.17250 16.98240 
25 "H8" 47.84314 43.92157 38.43137 16.92290 17.57120 14.85460 
26 "E5" 44.70588 41.17647 35.68627 14.63870 15.20350 12.91540 
27 "A13" 41.17647 38.03922 32.94118 12.57170 13.06070 11.15780 
28 "H13" 38.03922 34.90196 30.19608 10.71060 11.13120 9.572600 
29 "B7" 34.90196 31.76471 27.84314 9.049800 9.409100 8.155100 
30 "H5" 31.37255 29.01961 25.09804 7.579400 7.884300 6.897200 
31 "C8" 28.23529 25.88235 22.74510 6.288700 6.545500 5.790000 
32 "A15" 25.09804 23.13725 20.00000 5.168000 5.382800 4.825500 
33 "B15" 21.96078 20.00000 17.64706 4.209300 4.388000 3.997300 
34 "F3" 18.82353 17.25490 14.90196 3.400800 3.548800 3.295600 
35 "D4" 15.68627 14.50980 12.54902 2.733700 2.856000 2.713000 
36 "F11" 12.54902 11.76471 10.19608 2.195100 2.296600 2.239300 
37 "E8" 9.803922 9.019608 7.843137 1.773100 1.857800 1.864300 
38 "H7" 7.058824 6.274510 5.490196 1.454400 1.526200 1.577300 
39 "B3" 13.33333 7.450980 87.84314 15.19110 7.139500 71.47630 
40 "E10" 14.11765 32.94118 58.82353 10.26090 9.888000 30.70020 
41 "D13" 106.2745 86.27451 25.49020 74.11500 76.32640 16.68710 
42 "F12" 35.29412 99.21569 70.58824 48.06080 75.86180 55.94460 
43 "B10" 23.92157 63.52941 70.98039 23.78850 30.70950 48.66460 
44 "C1" 96.86275 0.00000 55.68627 43.70830 22.48380 28.33110 
45 "C12" 90.98039 51.76471 40.39216 44.31630 35.10830 18.02930 
46 "H2" 77.64706 43.52941 85.88235 42.40610 29.25260 70.92970 
47 "C14" 73.33333 87.05882 45.88235 50.34830 64.58550 27.53790 
48 "E6" 15.68627 43.52941 30.19608 8.809400 13.31280 10.03220 
49 "C9" 59.21569 31.76471 38.43137 18.77580 14.28010 14.22220 
50 "C13" 75.68627 72.15686 87.05882 52.62500 51.25530 76.42930 
51 "D7" 77.25490 52.94118 67.05882 39.60120 32.76720 43.42870 
52 "D12" 62.35294 82.74510 71.76471 46.70230 58.01560 54.27800 
53 "D2" 26.66667 1.176471 31.37255 4.774600 2.850100 8.809000 
54 "B6" 72.54902 62.74510 38.03922 35.40360 36.97540 17.33600 
55 "E15" 25.49020 35.68627 87.84314 20.07170 14.77230 72.41960 
56 "H4" 9.019608 10.19608 54.50980 6.259800 3.760200 25.43730 
57 "B1" 82.35294 0.00000 27.05882 28.27020 14.96190 7.875300 
58 "F1" 23.52941 67.45098 33.72549 19.07230 31.83480 14.70640 
59 "A7" 40.00000 99.21569 86.66667 54.05100 78.46310 80.76300 
60 "D8" 74.50980 53.33333 49.01961 34.33540 30.76580 24.44380 
61 "E1" 21.56863 0.00000 11.37255 2.746000 1.900800 2.293100 
62 "C11" 64.31373 98.82353 35.68627 52.52790 78.71640 23.06340 
63 "B11" 91.37255 87.05882 86.66667 73.02500 74.94430 79.10930 
64 "H9" 22.35294 60.39216 55.29412 18.82030 26.71230 29.96390 
65 "D6" 82.35294 0.00000 12.15686 27.54010 14.67860 3.636600 
66 "B4" 101.1765 98.82353 72.15686 85.91450 95.04620 59.81780 
67 "E3" 40.39216 58.82353 75.68627 26.77160 29.19840 54.93740 
68 "G2" 47.45098 31.76471 18.82353 12.21560 11.06620 5.217300 
69 "G13" 65.49020 0.00000 56.07843 21.71160 11.13500 27.71060 
70 "G8" 56.86275 25.09804 87.84314 27.56690 15.90290 72.17990 
71 "A2" 92.15686 98.82353 81.56863 80.88080 92.23550 73.67770 
72 "A8" 58.43137 54.50980 58.03922 27.65670 27.67440 32.55960 
73 "E7" 7.843137 20.39216 27.84314 3.576500 4.020800 7.413200 
74 "E2" 40.39216 42.35294 25.49020 12.71150 14.81060 8.020100 
75 "F9" 58.82353 0.00000 35.29412 15.28140 8.174400 11.40430 
76 "H14" 67.05882 85.49020 86.66667 55.35070 64.27020 78.37720 
77 "F13" 57.25490 77.64706 54.50980 37.12150 48.66090 32.49930 
78 "G7" 34.90196 11.37255 26.27451 6.456900 4.381700 6.682000 
79 "A10" 100.7843 98.82353 46.66667 80.30660 92.69320 31.82160 
80 "D5" 104.3137 55.29412 22.74510 56.06930 43.38900 10.27750 
81 "F5" 32.54902 79.21569 62.74510 31.71900 47.27940 41.13160 
82 "D15" 62.74510 26.66667 23.13725 18.16300 12.81440 6.595600 
83 "H10" 42.35294 31.37255 45.88235 13.05390 11.12840 18.93830 
84 "A1" 63.52941 0.00000 27.45098 16.81230 9.050600 7.545400 
85 "B9" 46.66667 63.52941 25.49020 22.14350 30.70170 10.69220 
86 "F14" 59.21569 99.21569 57.25490 53.43400 78.87220 40.24000 
87 "B12" 90.58824 41.56863 47.05882 42.03290 29.41340 22.13900 
88 "F15" 55.29412 3.921569 0.00000 11.98030 6.839100 1.634700 
89 "F8" 51.37255 60.39216 57.25490 26.88550 30.78230 32.49920 
90 "B8" 15.68627 40.39216 49.80392 10.37510 12.52630 22.67650 
91 "E12" 15.29412 16.47059 0.00000 2.606800 3.073200 1.401900 
92 "G5" 56.86275 26.66667 47.05882 17.91900 12.43110 20.01600 
93 "D1" 103.5294 0.00000 87.45098 58.35080 29.06800 72.58300 
94 "G12" 50.58824 54.11765 87.45098 32.09200 28.79330 73.97800 
95 "C3" 39.21569 7.058824 14.50980 6.731300 4.255100 3.124400 
96 "G1" 27.45098 20.00000 24.70588 5.502900 4.989100 6.253700 
97 "F6" 85.09804 38.82353 57.64706 39.00730 26.63970 31.45760 
98 "A14" 16.47059 43.52941 44.31373 10.47380 13.95960 18.43860 
99 "B5" 71.37255 58.43137 12.94118 31.04720 32.25710 6.973500 
100 "C4" 31.76471 85.09804 85.49020 41.38020 56.89590 75.37440 
101 "D11" 100.0000 100.0000 100.0000 95.05000 100.0000 108.9000 
102 "C15" 0.00000 0.00000 0.00000 0.950500 1.000000 1.089000 
103 "A6" 100.0000 0.00000 0.00000 41.77810 22.04740 2.999700 
104 "B14" 0.00000 100.0000 0.00000 36.35290 71.80480 12.88980 
105 "G15" 0.00000 0.00000 100.0000 18.82000 8.147800 95.18850 
106 "A5" 0.00000 100.0000 100.0000 54.22240 78.95260 106.9893 
107 "H15" 100.0000 0.00000 100.0000 59.64760 29.19520 97.09920 
108 "A4" 100.0000 100.0000 0.00000 77.18050 92.85220 14.80050 
0 "G9" 100.0000 100.0000 100.0000 95.05000 100.0000 108.9000 
0 "E9" 100.0000 100.0000 100.0000 95.05000 100.0000 108.9000 
0 "F10" 100.0000 100.0000 100.0000 95.05000 100.0000 108.9000 
0 "E11" 100.0000 100.0000 100.0000 95.05000 100.0000 108.9000 
0 "C7" 100.0000 100.0000 100.0000 95.05000 100.0000 108.9000 
0 "C2" 100.0000 100.0000 100.0000 95.05000 100.0000 108.9000 
0 "B2" 100.0000 100.0000 100.0000 95.05000 100.0000 108.9000 
0 "G6" 100.0000 100.0000 100.0000 95.05000 100.0000 108.9000 
0 "D14" 100.0000 100.0000 100.0000 95.05000 100.0000 108.9000 
0 "H3" 100.0000 100.0000 100.0000 95.05000 100.0000 108.9000 
0 "G14" 100.0000 100.0000 100.0000 95.05000 100.0000 108.9000 
0 "D3" 100.0000 100.0000 100.0000 95.05000 100.0000 108.9000 
END_DATA
