demo-projects/old/Demo-Report-Matrix-2026-08-11_112103/runs/run1/verifications/2026-05-01_100000/Demo-Report-Matrix-verify.ti3
CTI3   
KEYWORD "CHROMIQ_VERIFICATION"
CHROMIQ_VERIFICATION "true"

DESCRIPTOR "Argyll Calibration Target chart information 3"
ORIGINATOR "Argyll fakeread"
CREATED "Mon Aug 10 23:21:26 2026"
DEVICE_CLASS "DISPLAY"
COLOR_REP "iRGB_XYZ"

KEYWORD "CHROMIQ_MEASURED"
CHROMIQ_MEASURED "2026-05-01T10:00:00"
TARGET_INSTRUMENT "X-Rite ColorMunki"
NUMBER_OF_FIELDS 7
BEGIN_DATA_FORMAT
SAMPLE_ID RGB_R RGB_G RGB_B XYZ_X XYZ_Y XYZ_Z 
END_DATA_FORMAT

NUMBER_OF_SETS 105
BEGIN_DATA
1 100.0000 100.0000 100.0000 94.96615 99.96827 108.4873 
2 100.0000 100.0000 100.0000 94.95904 99.95543 108.9010 
3 100.0000 100.0000 100.0000 94.98339 99.97517 108.5781 
4 100.0000 100.0000 100.0000 94.54277 99.74079 108.8815 
5 0.00000 0.00000 0.00000 0.00359078 0.00714770 0.00130114 
6 0.00000 0.00000 0.00000 0.0146757 0.0233814 0.0232980 
7 0.00000 0.00000 0.00000 0.00156928 0.00313854 0.000523051 
8 0.00000 0.00000 0.00000 0.00153460 0.000791304 0.0000719111 
9 100.0000 100.0000 0.00000 77.00425 92.78393 13.89025 
10 0.00000 0.00000 100.0000 18.05944 7.240583 95.05762 
11 100.0000 0.00000 0.00000 41.24904 21.27454 1.970565 
12 0.00000 100.0000 100.0000 53.70409 78.64737 106.5505 
13 0.00000 100.0000 0.00000 35.77765 71.52651 11.92272 
14 100.0000 0.00000 100.0000 59.14840 28.41184 96.97997 
15 0.00000 38.69451 100.0000 22.46491 16.02593 96.52107 
16 0.00000 61.01825 0.00000 11.68152 23.35017 3.891071 
17 0.00000 0.00000 49.66734 3.770084 1.509427 19.78846 
18 100.0000 0.00000 49.59690 44.91899 22.72728 21.73007 
19 100.0000 51.96322 100.0000 67.51512 44.93953 99.72896 
20 100.0000 51.02120 0.00000 48.85760 37.36529 4.661880 
21 49.79587 0.00000 0.00000 8.678108 4.474624 0.414870 
22 100.0000 100.0000 50.20307 80.64584 94.22292 33.86119 
23 0.00000 100.0000 50.70625 39.76423 73.12053 32.94136 
24 49.48561 100.0000 100.0000 62.57374 83.25618 107.3834 
25 51.72588 100.0000 0.00000 44.80787 75.59469 12.29073 
26 50.05958 0.00000 100.0000 26.99734 11.85888 95.39076 
27 0.00000 47.79621 60.34591 12.91552 16.44554 33.24131 
28 100.0000 59.17416 43.63085 55.09052 44.36431 20.74558 
29 47.31399 48.98978 0.00000 15.13787 18.86367 2.843303 
30 52.09288 0.00000 45.52943 12.62845 6.140184 17.36058 
31 55.39583 47.66229 100.0000 36.15421 26.69916 97.86005 
32 49.20125 100.0000 50.84061 48.03330 77.40035 32.60994 
33 48.29114 47.33520 50.18713 18.88608 19.57011 23.04151 
34 0.00000 30.94905 0.00000 2.839010 5.677995 0.946262 
35 100.0000 21.19106 79.12555 53.22543 28.17022 58.55318 
36 33.94804 70.69041 100.0000 38.17006 41.53263 100.6165 
37 74.96124 25.82053 0.00000 23.55185 15.04984 1.677810 
38 0.00000 77.61705 71.72771 28.73836 43.72702 51.87646 
39 24.97790 0.00000 23.41364 3.091803 1.518261 4.485396 
40 76.31808 100.0000 28.35106 59.28156 83.28881 19.20861 
41 0.00000 77.00365 31.43299 21.14461 39.98551 14.14635 
42 75.41143 77.79628 100.0000 60.24645 58.85110 102.0759 
43 100.0000 23.29829 20.42453 43.46823 24.71451 5.788504 
44 100.0000 80.02238 22.27702 63.57512 64.77713 12.95582 
45 75.35445 100.0000 76.01304 66.46040 85.54536 63.91686 
46 75.31505 74.81469 0.00000 40.60987 48.64379 7.262022 
47 100.0000 79.49395 78.19811 72.90719 68.22710 62.97495 
48 26.41218 100.0000 75.99234 47.56488 75.98481 63.35025 
49 28.19308 28.22301 100.0000 22.95982 13.07520 95.92558 
50 76.81359 0.00000 23.55016 23.32435 11.93698 5.157299 
51 75.25932 0.00000 74.69026 31.12778 14.95446 50.93445 
52 29.89921 74.23536 0.00000 21.32195 38.18872 6.247042 
53 25.50439 100.0000 24.78846 38.81913 72.99359 16.63387 
54 77.21225 23.71451 100.0000 42.54431 22.32727 96.67995 
55 0.00000 21.07405 72.23364 9.974990 6.087694 46.06524 
56 26.28049 0.00000 71.93547 10.67429 4.548563 43.99708 
57 0.00000 19.89483 30.07019 2.574886 3.030403 7.295339 
58 26.28079 33.45692 23.52814 6.385854 8.062674 5.684077 
59 66.56754 70.38587 52.30860 37.21002 42.60557 28.56686 
60 75.09479 52.62129 65.01886 37.25628 30.96930 40.48022 
61 26.64973 49.33561 81.42125 21.15501 20.55300 62.38232 
62 45.91179 68.61670 63.70484 28.69953 36.39166 39.34771 
63 71.11740 50.49568 34.71935 29.00834 26.63066 12.86550 
64 54.43736 27.35888 62.61652 18.89417 12.21463 34.91871 
65 34.69612 74.79966 32.60823 24.20354 39.83236 14.39965 
66 74.85889 20.44437 50.18860 26.04620 14.79497 21.73562 
67 47.85106 20.11464 33.14580 10.79333 7.113293 9.304522 
68 27.20651 32.63652 48.27367 9.169717 8.825805 20.01262 
69 27.58870 24.69734 0.00000 4.309521 4.920490 0.736874 
70 0.00000 69.14068 100.0000 33.53678 38.19513 100.2163 
71 20.53684 59.80271 49.57175 16.28548 24.60226 23.51368 
72 0.00000 46.98630 28.11508 7.726303 13.65803 8.108146 
73 73.54294 75.32966 75.96305 49.08482 51.56959 58.87561 
74 63.36650 75.70063 29.24590 35.07929 46.43495 13.86396 
75 100.0000 50.88622 71.33775 57.49963 40.50413 49.53217 
76 23.55356 85.77019 53.26247 31.13026 52.71303 30.88679 
77 100.0000 29.41094 48.41781 47.27436 27.63212 21.69338 
78 72.19800 51.56213 8.666635 27.90811 26.21577 4.313143 
79 21.36322 53.66478 11.70929 10.59089 18.69930 4.179885 
80 12.24937 81.96187 10.32227 23.87258 46.65314 8.756732 
81 50.32410 91.80251 71.76533 46.97181 67.05910 55.14357 
82 48.45094 95.04594 23.03440 40.59263 67.74343 15.24933 
83 47.91670 54.94911 27.45694 18.27683 22.92554 9.431145 
84 3.781525 53.33689 81.63552 20.31109 22.45183 62.08867 
85 76.14076 97.71765 95.89858 72.92495 86.55490 97.96669 
86 74.72769 92.97172 51.48222 55.76352 73.33930 33.38909 
87 91.51768 77.11623 49.84954 57.32982 58.50619 28.94847 
88 55.99479 23.67844 88.16304 26.36263 14.51215 72.31652 
89 76.02370 54.61404 92.04182 46.84833 36.08734 83.48220 
90 52.92777 23.07148 11.01567 11.73010 8.350254 2.095644 
91 2.113597 97.73685 76.72762 43.79538 71.77668 62.92235 
92 77.95688 25.26049 74.12841 34.31766 19.39785 50.24146 
93 5.158119 95.50651 28.71841 33.90047 65.67881 17.13265 
94 4.213096 24.16053 51.05457 5.820269 5.027902 21.73140 
95 51.24030 47.80404 76.36550 26.39672 22.82905 54.73626 
96 97.40498 100.0000 75.01152 84.07632 95.33295 63.75514 
97 49.19419 5.350316 74.01136 17.83256 8.374912 48.49555 
98 91.32533 51.59153 22.20459 43.01077 34.29189 8.413373 
99 74.48121 24.34677 26.05584 23.77630 14.74584 6.707840 
100 94.19953 74.22767 93.65841 69.87256 61.18827 89.83955 
101 23.32810 75.54038 80.93191 32.02970 43.38753 65.05445 
102 56.07175 76.90790 5.268606 31.11198 45.34458 7.464554 
103 27.55381 8.135545 46.48987 6.042350 3.111784 17.53298 
104 27.88054 25.86915 72.11177 13.07201 8.698474 45.85886 
105 51.80627 80.99682 89.24284 45.95575 55.33615 82.09225 
END_DATA
