assets/charts/knut/rgb/i1pro3/p3_letter_143p_1page_portrait_w16_0mm/chart.ti1
CTI1   

DESCRIPTOR "Argyll Calibration Target chart information 1"
ORIGINATOR "ChromIQ"
APPROX_WHITE_POINT "95.050000 100.000000 108.900000"
COLOR_REP "iRGB"
WHITE_COLOR_PATCHES "1"
BLACK_COLOR_PATCHES "1"
CREATED "Tue Aug 18 16:51:17 2026"

NUMBER_OF_FIELDS 7
BEGIN_DATA_FORMAT
SAMPLE_ID RGB_R RGB_G RGB_B XYZ_X XYZ_Y XYZ_Z
END_DATA_FORMAT

NUMBER_OF_SETS 143
BEGIN_DATA
1 0.0000 0.0000 0.0000 0.9505 1.0000 1.0890
2 0.0000 0.0000 25.0000 1.8596 1.3637 5.8764
3 0.0000 0.0000 50.0000 4.7753 2.5299 21.2302
4 0.0000 0.0000 75.0000 10.2877 4.7349 50.2580
5 0.0000 0.0000 100.0000 18.8200 8.1478 95.1885
6 0.0000 25.0000 0.0000 2.7516 4.6023 1.6894
7 0.0000 25.0000 25.0000 3.6608 4.9659 6.4768
8 0.0000 25.0000 50.0000 6.5764 6.1322 21.8305
9 0.0000 25.0000 75.0000 12.0888 8.3372 50.8584
10 0.0000 25.0000 100.0000 20.6211 11.7501 95.7889
11 0.0000 50.0000 0.0000 8.5281 16.1551 3.6149
12 0.0000 50.0000 25.0000 9.4372 16.5188 8.4023
13 0.0000 50.0000 50.0000 12.3529 17.6851 23.7560
14 0.0000 50.0000 75.0000 17.8653 19.8900 52.7839
15 0.0000 50.0000 100.0000 26.3976 23.3029 97.7144
16 0.0000 75.0000 0.0000 19.4490 37.9970 7.2552
17 0.0000 75.0000 25.0000 20.3581 38.3607 12.0426
18 0.0000 75.0000 50.0000 23.2738 39.5270 27.3963
19 0.0000 75.0000 75.0000 28.7862 41.7319 56.4242
20 0.0000 75.0000 100.0000 37.3185 45.1448 101.3547
21 0.0000 100.0000 0.0000 36.3529 71.8048 12.8898
22 0.0000 100.0000 25.0000 37.2620 72.1685 17.6772
23 0.0000 100.0000 50.0000 40.1777 73.3347 33.0310
24 0.0000 100.0000 75.0000 45.6901 75.5397 62.0588
25 0.0000 100.0000 100.0000 54.2224 78.9526 106.9893
26 25.0000 0.0000 0.0000 3.0276 2.0708 1.1862
27 25.0000 0.0000 25.0000 3.9368 2.4345 5.9736
28 25.0000 0.0000 50.0000 6.8525 3.6007 21.3274
29 25.0000 0.0000 75.0000 12.3648 5.8057 50.3552
30 25.0000 0.0000 100.0000 20.8971 9.2186 95.2857
31 25.0000 25.0000 0.0000 4.8288 5.6731 1.7866
32 25.0000 25.0000 25.0000 5.7379 6.0367 6.5740
33 25.0000 25.0000 50.0000 8.6536 7.2030 21.9278
34 25.0000 25.0000 75.0000 14.1660 9.4080 50.9556
35 25.0000 25.0000 100.0000 22.6983 12.8209 95.8861
36 25.0000 50.0000 0.0000 10.6052 17.2259 3.7121
37 25.0000 50.0000 25.0000 11.5143 17.5896 8.4995
38 25.0000 50.0000 50.0000 14.4300 18.7559 23.8532
39 25.0000 50.0000 75.0000 19.9424 20.9608 52.8811
40 25.0000 50.0000 100.0000 28.4747 24.3737 97.8116
41 25.0000 75.0000 0.0000 21.5262 39.0678 7.3524
42 25.0000 75.0000 25.0000 22.4353 39.4315 12.1398
43 25.0000 75.0000 50.0000 25.3510 40.5978 27.4935
44 25.0000 75.0000 75.0000 30.8634 42.8027 56.5214
45 25.0000 75.0000 100.0000 39.3957 46.2156 101.4519
46 25.0000 100.0000 0.0000 38.4300 72.8756 12.9870
47 25.0000 100.0000 25.0000 39.3392 73.2393 17.7744
48 25.0000 100.0000 50.0000 42.2549 74.4055 33.1282
49 25.0000 100.0000 75.0000 47.7672 76.6105 62.1560
50 25.0000 100.0000 100.0000 56.2995 80.0234 107.0865
51 50.0000 0.0000 0.0000 9.6893 5.5050 1.4980
52 50.0000 0.0000 25.0000 10.5984 5.8687 6.2854
53 50.0000 0.0000 50.0000 13.5141 7.0349 21.6391
54 50.0000 0.0000 75.0000 19.0265 9.2399 50.6670
55 50.0000 0.0000 100.0000 27.5588 12.6528 95.5975
56 50.0000 25.0000 0.0000 11.4904 9.1073 2.0983
57 50.0000 25.0000 25.0000 12.3996 9.4709 6.8858
58 50.0000 25.0000 50.0000 15.3152 10.6372 22.2395
59 50.0000 25.0000 75.0000 20.8276 12.8422 51.2674
60 50.0000 25.0000 100.0000 29.3599 16.2551 96.1978
61 50.0000 50.0000 0.0000 17.2669 20.6601 4.0238
62 50.0000 50.0000 25.0000 18.1760 21.0238 8.8112
63 50.0000 50.0000 50.0000 21.0917 22.1901 24.1650
64 50.0000 50.0000 75.0000 26.6041 24.3950 53.1928
65 50.0000 50.0000 100.0000 35.1364 27.8079 98.1233
66 50.0000 75.0000 0.0000 28.1878 42.5020 7.6641
67 50.0000 75.0000 25.0000 29.0969 42.8657 12.4516
68 50.0000 75.0000 50.0000 32.0126 44.0320 27.8053
69 50.0000 75.0000 75.0000 37.5250 46.2369 56.8332
70 50.0000 75.0000 100.0000 46.0573 49.6498 101.7636
71 50.0000 100.0000 0.0000 45.0917 76.3098 13.2988
72 50.0000 100.0000 25.0000 46.0008 76.6735 18.0862
73 50.0000 100.0000 50.0000 48.9165 77.8397 33.4399
74 50.0000 100.0000 75.0000 54.4289 80.0447 62.4678
75 50.0000 100.0000 100.0000 62.9612 83.4576 107.3983
76 75.0000 0.0000 0.0000 22.2838 11.9977 2.0874
77 75.0000 0.0000 25.0000 23.1929 12.3614 6.8748
78 75.0000 0.0000 50.0000 26.1086 13.5276 22.2285
79 75.0000 0.0000 75.0000 31.6210 15.7326 51.2564
80 75.0000 0.0000 100.0000 40.1533 19.1455 96.1869
81 75.0000 25.0000 0.0000 24.0849 15.6000 2.6878
82 75.0000 25.0000 25.0000 24.9941 15.9636 7.4752
83 75.0000 25.0000 50.0000 27.9097 17.1299 22.8289
84 75.0000 25.0000 75.0000 33.4221 19.3349 51.8568
85 75.0000 25.0000 100.0000 41.9544 22.7478 96.7873
86 75.0000 50.0000 0.0000 29.8614 27.1529 4.6132
87 75.0000 50.0000 25.0000 30.7705 27.5165 9.4007
88 75.0000 50.0000 50.0000 33.6862 28.6828 24.7544
89 75.0000 50.0000 75.0000 39.1986 30.8877 53.7823
90 75.0000 50.0000 100.0000 47.7309 34.3007 98.7127
91 75.0000 75.0000 0.0000 40.7823 48.9948 8.2536
92 75.0000 75.0000 25.0000 41.6914 49.3584 13.0410
93 75.0000 75.0000 50.0000 44.6071 50.5247 28.3947
94 75.0000 75.0000 75.0000 50.1195 52.7296 57.4226
95 75.0000 75.0000 100.0000 58.6518 56.1426 102.3531
96 75.0000 100.0000 0.0000 57.6862 82.8025 13.8882
97 75.0000 100.0000 25.0000 58.5953 83.1662 18.6756
98 75.0000 100.0000 50.0000 61.5110 84.3324 34.0293
99 75.0000 100.0000 75.0000 67.0234 86.5374 63.0572
100 75.0000 100.0000 100.0000 75.5557 89.9503 107.9877
101 100.0000 0.0000 0.0000 41.7781 22.0474 2.9997
102 100.0000 0.0000 25.0000 42.6872 22.4111 7.7871
103 100.0000 0.0000 50.0000 45.6029 23.5773 23.1409
104 100.0000 0.0000 75.0000 51.1153 25.7823 52.1687
105 100.0000 0.0000 100.0000 59.6476 29.1952 97.0992
106 100.0000 25.0000 0.0000 43.5792 25.6497 3.6001
107 100.0000 25.0000 25.0000 44.4884 26.0133 8.3875
108 100.0000 25.0000 50.0000 47.4040 27.1796 23.7412
109 100.0000 25.0000 75.0000 52.9164 29.3846 52.7691
110 100.0000 25.0000 100.0000 61.4487 32.7975 97.6996
111 100.0000 50.0000 0.0000 49.3557 37.2025 5.5256
112 100.0000 50.0000 25.0000 50.2648 37.5662 10.3130
113 100.0000 50.0000 50.0000 53.1805 38.7325 25.6667
114 100.0000 50.0000 75.0000 58.6929 40.9374 54.6946
115 100.0000 50.0000 100.0000 67.2252 44.3503 99.6251
116 100.0000 75.0000 0.0000 60.2766 59.0444 9.1659
117 100.0000 75.0000 25.0000 61.1857 59.4081 13.9533
118 100.0000 75.0000 50.0000 64.1014 60.5744 29.3070
119 100.0000 75.0000 75.0000 69.6138 62.7793 58.3349
120 100.0000 75.0000 100.0000 78.1461 66.1922 103.2654
121 100.0000 100.0000 0.0000 77.1805 92.8522 14.8005
122 100.0000 100.0000 25.0000 78.0896 93.2159 19.5879
123 100.0000 100.0000 50.0000 81.0053 94.3821 34.9417
124 100.0000 100.0000 75.0000 86.5177 96.5871 63.9695
125 100.0000 100.0000 100.0000 95.0500 100.0000 108.9000
126 0.0000 0.0000 2.0000 0.9782 1.0111 1.2347
127 5.8824 5.8824 5.8824 1.4000 1.4729 1.6040
128 11.7647 11.7647 11.7647 2.1722 2.2853 2.4887
129 17.6471 17.6471 17.6471 3.4198 3.5979 3.9181
130 23.5294 23.5294 23.5294 5.2025 5.4734 5.9606
131 29.4118 29.4118 29.4118 7.5713 7.9656 8.6746
132 35.2941 35.2941 35.2941 10.5714 11.1219 12.1118
133 41.1765 41.1765 41.1765 14.2433 14.9851 16.3187
134 47.0588 47.0588 47.0588 18.6243 19.5943 21.3381
135 52.9412 52.9412 52.9412 23.7490 24.9858 27.2096
136 58.8235 58.8235 58.8235 29.6497 31.1937 33.9700
137 64.7059 64.7059 64.7059 36.3566 38.2500 41.6542
138 70.5882 70.5882 70.5882 43.8985 46.1847 50.2951
139 76.4706 76.4706 76.4706 52.3029 55.0267 59.9241
140 82.3529 82.3529 82.3529 61.5957 64.8035 70.5710
141 88.2353 88.2353 88.2353 71.8020 75.5413 82.2645
142 94.1176 94.1176 94.1176 82.9457 87.2653 95.0320
143 98.0000 100.0000 100.0000 93.2170 99.0551 108.8142
END_DATA
CTI1   

DESCRIPTOR "Argyll Calibration Target chart information 1"
ORIGINATOR "ChromIQ"
DENSITY_EXTREME_VALUES "8"
CREATED "Tue Aug 18 16:51:17 2026"

NUMBER_OF_FIELDS 7
BEGIN_DATA_FORMAT
INDEX RGB_R RGB_G RGB_B XYZ_X XYZ_Y XYZ_Z
END_DATA_FORMAT

NUMBER_OF_SETS 8
BEGIN_DATA
0 100.0000 100.0000 100.0000 95.0500 100.0000 108.9000
1 0.0000 100.0000 100.0000 54.2224 78.9526 106.9893
2 100.0000 0.0000 100.0000 59.6476 29.1952 97.0992
3 0.0000 0.0000 100.0000 18.8200 8.1478 95.1885
4 100.0000 100.0000 0.0000 77.1805 92.8522 14.8005
5 0.0000 100.0000 0.0000 36.3529 71.8048 12.8898
6 100.0000 0.0000 0.0000 41.7781 22.0474 2.9997
7 0.0000 0.0000 0.0000 0.9505 1.0000 1.0890
END_DATA
CTI1   

DESCRIPTOR "Argyll Calibration Target chart information 1"
ORIGINATOR "ChromIQ"
DEVICE_COMBINATION_VALUES "9"
CREATED "Tue Aug 18 16:51:17 2026"

NUMBER_OF_FIELDS 7
BEGIN_DATA_FORMAT
INDEX RGB_R RGB_G RGB_B XYZ_X XYZ_Y XYZ_Z
END_DATA_FORMAT

NUMBER_OF_SETS 9
BEGIN_DATA
0 100.0000 100.0000 100.0000 95.0500 100.0000 108.9000
1 0.0000 100.0000 100.0000 54.2224 78.9526 106.9893
2 100.0000 0.0000 100.0000 59.6476 29.1952 97.0992
3 0.0000 0.0000 100.0000 18.8200 8.1478 95.1885
4 100.0000 100.0000 0.0000 77.1805 92.8522 14.8005
5 0.0000 100.0000 0.0000 36.3529 71.8048 12.8898
6 100.0000 0.0000 0.0000 41.7781 22.0474 2.9997
7 0.0000 0.0000 0.0000 0.9505 1.0000 1.0890
8 50.0000 50.0000 50.0000 21.0917 22.1901 24.1650
END_DATA
