assets/charts/pharmacist/rgb/i1pro/130x180/photocard648/photocard648.ti2
CTI2   

DESCRIPTOR "Argyll Calibration Target chart information 2"
ORIGINATOR "Argyll printtarg"
CREATED "Tue Sep  8 09:17:02 2026"
TARGET_INSTRUMENT "GretagMacbeth i1 Pro"
APPROX_WHITE_POINT "95.050000 100.000000 108.900000"
COLOR_REP "iRGB"
PAPER_SIZE "130.0x180.0"
RANDOM_START "518"
STEPS_IN_PASS "18"
PASSES_IN_STRIPS2 "12,12,12"
STRIP_INDEX_PATTERN "A-Z, A-Z"
PATCH_INDEX_PATTERN "0-9,@-9,@-9;1-999"
INDEX_ORDER "STRIP_THEN_PATCH"

NUMBER_OF_FIELDS 8
BEGIN_DATA_FORMAT
SAMPLE_ID SAMPLE_LOC RGB_R RGB_G RGB_B XYZ_X XYZ_Y XYZ_Z 
END_DATA_FORMAT

NUMBER_OF_SETS 648
BEGIN_DATA
1 "AJ6" 0.00000 0.00000 0.00000 0.950500 1.000000 1.089000 
2 "AE5" 100.0000 0.00000 0.00000 41.77810 22.04740 2.999700 
3 "G8" 0.00000 100.0000 0.00000 36.35290 71.80480 12.88980 
4 "AB12" 0.00000 0.00000 100.0000 18.82000 8.147800 95.18850 
5 "J8" 0.00000 100.0000 100.0000 54.22240 78.95260 106.9893 
6 "F9" 100.0000 0.00000 100.0000 59.64760 29.19520 97.09920 
7 "M16" 100.0000 100.0000 0.00000 77.18050 92.85220 14.80050 
8 "J7" 100.0000 100.0000 100.0000 95.05000 100.0000 108.9000 
9 "D1" 16.66743 0.00000 0.00000 1.916200 1.497800 1.134200 
10 "AH1" 33.33333 0.00000 0.00000 4.659300 2.912000 1.262600 
11 "J12" 50.00076 0.00000 0.00000 9.689300 5.505000 1.498000 
12 "L16" 66.66667 0.00000 0.00000 17.36230 9.460600 1.857100 
13 "E7" 83.33257 0.00000 0.00000 27.97330 14.93080 2.353600 
14 "AA16" 0.00000 16.66743 0.00000 1.787900 2.674700 1.368100 
15 "AC18" 0.00000 33.33333 0.00000 4.166500 7.432000 2.161000 
16 "W12" 0.00000 50.00076 0.00000 8.528100 16.15510 3.614900 
17 "V8" 0.00000 66.66667 0.00000 15.18150 29.46200 5.832700 
18 "F11" 0.00000 83.33257 0.00000 24.38250 47.86400 8.899700 
19 "E18" 0.00000 0.00000 16.66743 1.373200 1.169100 3.314700 
20 "X1" 0.00000 0.00000 33.33333 2.573800 1.649300 9.637200 
21 "X8" 0.00000 0.00000 50.00076 4.775300 2.529900 21.23020 
22 "B4" 0.00000 0.00000 66.66667 8.133600 3.873300 38.91490 
23 "AA13" 0.00000 0.00000 83.33257 12.77790 5.731000 63.37120 
24 "W8" 100.0000 16.66743 0.00000 42.61550 23.72210 3.278800 
25 "I7" 100.0000 33.33333 0.00000 44.99410 28.47940 4.071700 
26 "D2" 100.0000 50.00076 0.00000 49.35570 37.20250 5.525600 
27 "K12" 100.0000 66.66667 0.00000 56.00910 50.50940 7.743400 
28 "B14" 100.0000 83.33257 0.00000 65.21010 68.91140 10.81040 
29 "AB14" 100.0000 0.00000 16.66743 42.20080 22.21650 5.225400 
30 "AG16" 100.0000 0.00000 33.33333 43.40140 22.69670 11.54790 
31 "Q5" 100.0000 0.00000 50.00076 45.60290 23.57730 23.14090 
32 "A8" 100.0000 0.00000 66.66667 48.96120 24.92070 40.82560 
33 "L6" 100.0000 0.00000 83.33257 53.60550 26.77840 65.28190 
34 "B12" 16.66743 100.0000 0.00000 37.31860 72.30260 12.93500 
35 "AJ8" 33.33333 100.0000 0.00000 40.06170 73.71680 13.06340 
36 "V1" 50.00076 100.0000 0.00000 45.09170 76.30980 13.29880 
37 "N14" 66.66667 100.0000 0.00000 52.76470 80.26540 13.65790 
38 "U6" 83.33257 100.0000 0.00000 63.37570 85.73560 14.15440 
39 "D11" 0.00000 100.0000 16.66743 36.77560 71.97390 15.11550 
40 "AE1" 0.00000 100.0000 33.33333 37.97620 72.45410 21.43800 
41 "B10" 0.00000 100.0000 50.00076 40.17770 73.33470 33.03100 
42 "K2" 0.00000 100.0000 66.66667 43.53600 74.67810 50.71570 
43 "P11" 0.00000 100.0000 83.33257 48.18030 76.53580 75.17200 
44 "R4" 0.00000 16.66743 100.0000 19.65740 9.822500 95.46760 
45 "U2" 0.00000 33.33333 100.0000 22.03600 14.57980 96.26050 
46 "H14" 0.00000 50.00076 100.0000 26.39760 23.30290 97.71440 
47 "T4" 0.00000 66.66667 100.0000 33.05100 36.60980 99.93220 
48 "AD2" 0.00000 83.33257 100.0000 42.25200 55.01180 102.9992 
49 "A12" 16.66743 0.00000 100.0000 19.78570 8.645600 95.23370 
50 "C6" 33.33333 0.00000 100.0000 22.52880 10.05980 95.36210 
51 "U4" 50.00076 0.00000 100.0000 27.55880 12.65280 95.59750 
52 "AJ10" 66.66667 0.00000 100.0000 35.23180 16.60840 95.95660 
53 "V3" 83.33257 0.00000 100.0000 45.84280 22.07860 96.45310 
54 "W6" 100.0000 100.0000 16.66743 77.60320 93.02130 17.02620 
55 "AB9" 100.0000 100.0000 33.33333 78.80380 93.50150 23.34870 
56 "AE8" 100.0000 100.0000 50.00076 81.00530 94.38210 34.94170 
57 "S15" 100.0000 100.0000 66.66667 84.36360 95.72550 52.62640 
58 "A6" 100.0000 100.0000 83.33257 89.00790 97.58320 77.08270 
59 "AC6" 16.66743 100.0000 100.0000 55.18810 79.45040 107.0345 
60 "A5" 33.33333 100.0000 100.0000 57.93120 80.86460 107.1629 
61 "AJ2" 50.00076 100.0000 100.0000 62.96120 83.45760 107.3983 
62 "R8" 66.66667 100.0000 100.0000 70.63420 87.41320 107.7574 
63 "AG7" 83.33257 100.0000 100.0000 81.24520 92.88340 108.2539 
64 "AD12" 100.0000 16.66743 100.0000 60.48500 30.86990 97.37830 
65 "I11" 100.0000 33.33333 100.0000 62.86360 35.62720 98.17120 
66 "K10" 100.0000 50.00076 100.0000 67.22520 44.35030 99.62510 
67 "AC8" 100.0000 66.66667 100.0000 73.87860 57.65720 101.8429 
68 "AH3" 100.0000 83.33257 100.0000 83.07960 76.05920 104.9099 
69 "H1" 0.00000 16.66743 16.66743 2.210500 2.843800 3.593800 
70 "H16" 0.00000 16.66743 33.33333 3.411100 3.324000 9.916300 
71 "M5" 0.00000 16.66743 50.00076 5.612700 4.204600 21.50930 
72 "P18" 0.00000 16.66743 66.66667 8.971000 5.548000 39.19400 
73 "O10" 0.00000 16.66743 83.33257 13.61520 7.405700 63.65030 
74 "AH16" 0.00000 33.33333 16.66743 4.589200 7.601100 4.386700 
75 "B17" 0.00000 33.33333 33.33333 5.789800 8.081300 10.70920 
76 "AG17" 0.00000 33.33333 50.00076 7.991300 8.962000 22.30220 
77 "AC17" 0.00000 33.33333 66.66667 11.34970 10.30530 39.98690 
78 "AF8" 0.00000 33.33333 83.33257 15.99390 12.16300 64.44320 
79 "AC13" 0.00000 50.00076 16.66743 8.950700 16.32420 5.840500 
80 "K14" 0.00000 50.00076 33.33333 10.15140 16.80450 12.16300 
81 "H5" 0.00000 50.00076 50.00076 12.35290 17.68510 23.75600 
82 "Z16" 0.00000 50.00076 66.66667 15.71120 19.02840 41.44080 
83 "G4" 0.00000 50.00076 83.33257 20.35550 20.88610 65.89700 
84 "M2" 0.00000 66.66667 16.66743 15.60410 29.63100 8.058300 
85 "W18" 0.00000 66.66667 33.33333 16.80480 30.11130 14.38080 
86 "M4" 0.00000 66.66667 50.00076 19.00630 30.99190 25.97380 
87 "T11" 0.00000 66.66667 66.66667 22.36460 32.33520 43.65860 
88 "T9" 0.00000 66.66667 83.33257 27.00890 34.19290 68.11480 
89 "Y14" 0.00000 83.33257 16.66743 24.80510 48.03300 11.12530 
90 "I15" 0.00000 83.33257 33.33333 26.00580 48.51330 17.44780 
91 "R11" 0.00000 83.33257 50.00076 28.20730 49.39390 29.04080 
92 "V12" 0.00000 83.33257 66.66667 31.56560 50.73720 46.72560 
93 "Y9" 0.00000 83.33257 83.33257 36.20990 52.59490 71.18180 
94 "O5" 100.0000 16.66743 16.66743 43.03810 23.89120 5.504500 
95 "Y4" 100.0000 16.66743 33.33333 44.23870 24.37140 11.82700 
96 "D7" 100.0000 16.66743 50.00076 46.44030 25.25200 23.42000 
97 "Y18" 100.0000 16.66743 66.66667 49.79860 26.59540 41.10470 
98 "AB2" 100.0000 16.66743 83.33257 54.44280 28.45310 65.56100 
99 "AE13" 100.0000 33.33333 16.66743 45.41680 28.64850 6.297400 
100 "V17" 100.0000 33.33333 33.33333 46.61740 29.12870 12.61990 
101 "B18" 100.0000 33.33333 50.00076 48.81890 30.00940 24.21290 
102 "I17" 100.0000 33.33333 66.66667 52.17730 31.35270 41.89760 
103 "AB7" 100.0000 33.33333 83.33257 56.82150 33.21040 66.35390 
104 "AG18" 100.0000 50.00076 16.66743 49.77830 37.37160 7.751200 
105 "AJ14" 100.0000 50.00076 33.33333 50.97900 37.85190 14.07370 
106 "O3" 100.0000 50.00076 50.00076 53.18050 38.73250 25.66670 
107 "O13" 100.0000 50.00076 66.66667 56.53880 40.07580 43.35150 
108 "K15" 100.0000 50.00076 83.33257 61.18310 41.93350 67.80770 
109 "C10" 100.0000 66.66667 16.66743 56.43170 50.67840 9.969000 
110 "V4" 100.0000 66.66667 33.33333 57.63240 51.15870 16.29150 
111 "R7" 100.0000 66.66667 50.00076 59.83390 52.03930 27.88450 
112 "X16" 100.0000 66.66667 66.66667 63.19220 53.38260 45.56930 
113 "X6" 100.0000 66.66667 83.33257 67.83650 55.24030 70.02550 
114 "Z11" 100.0000 83.33257 16.66743 65.63270 69.08040 13.03600 
115 "X3" 100.0000 83.33257 33.33333 66.83340 69.56070 19.35850 
116 "AH9" 100.0000 83.33257 50.00076 69.03490 70.44130 30.95150 
117 "AJ3" 100.0000 83.33257 66.66667 72.39320 71.78460 48.63630 
118 "T5" 100.0000 83.33257 83.33257 77.03750 73.64230 73.09250 
119 "Z9" 16.66743 0.00000 16.66743 2.338800 1.666900 3.359900 
120 "N3" 16.66743 0.00000 33.33333 3.539500 2.147100 9.682400 
121 "AA15" 16.66743 0.00000 50.00076 5.741000 3.027700 21.27540 
122 "V11" 16.66743 0.00000 66.66667 9.099300 4.371100 38.96010 
123 "A15" 16.66743 0.00000 83.33257 13.74360 6.228800 63.41640 
124 "Q1" 33.33333 0.00000 16.66743 5.082000 3.081000 3.488200 
125 "AJ5" 33.33333 0.00000 33.33333 6.282600 3.561300 9.810700 
126 "C14" 33.33333 0.00000 50.00076 8.484200 4.441900 21.40370 
127 "R2" 33.33333 0.00000 66.66667 11.84250 5.785200 39.08850 
128 "O8" 33.33333 0.00000 83.33257 16.48670 7.642900 63.54470 
129 "H18" 50.00076 0.00000 16.66743 10.11190 5.674100 3.723600 
130 "K17" 50.00076 0.00000 33.33333 11.31260 6.154300 10.04610 
131 "D13" 50.00076 0.00000 50.00076 13.51410 7.034900 21.63910 
132 "X10" 50.00076 0.00000 66.66667 16.87240 8.378300 39.32390 
133 "AE15" 50.00076 0.00000 83.33257 21.51670 10.23600 63.78010 
134 "AC4" 66.66667 0.00000 16.66743 17.78490 9.629600 4.082700 
135 "R16" 66.66667 0.00000 33.33333 18.98560 10.10990 10.40520 
136 "AJ16" 66.66667 0.00000 50.00076 21.18710 10.99050 21.99820 
137 "AD17" 66.66667 0.00000 66.66667 24.54540 12.33380 39.68300 
138 "AF10" 66.66667 0.00000 83.33257 29.18970 14.19150 64.13920 
139 "AA8" 83.33257 0.00000 16.66743 28.39600 15.09980 4.579300 
140 "Q16" 83.33257 0.00000 33.33333 29.59660 15.58010 10.90180 
141 "J1" 83.33257 0.00000 50.00076 31.79810 16.46070 22.49480 
142 "T12" 83.33257 0.00000 66.66667 35.15640 17.80400 40.17960 
143 "D4" 83.33257 0.00000 83.33257 39.80070 19.66170 64.63580 
144 "Z15" 16.66743 100.0000 16.66743 37.74120 72.47170 15.16070 
145 "U14" 16.66743 100.0000 33.33333 38.94190 72.95190 21.48320 
146 "Q18" 16.66743 100.0000 50.00076 41.14340 73.83250 33.07620 
147 "AC9" 16.66743 100.0000 66.66667 44.50170 75.17590 50.76090 
148 "N6" 16.66743 100.0000 83.33257 49.14600 77.03360 75.21720 
149 "AD14" 33.33333 100.0000 16.66743 40.48440 73.88580 15.28900 
150 "K8" 33.33333 100.0000 33.33333 41.68500 74.36610 21.61150 
151 "AA11" 33.33333 100.0000 50.00076 43.88660 75.24670 33.20450 
152 "AG11" 33.33333 100.0000 66.66667 47.24490 76.59000 50.88930 
153 "AA4" 33.33333 100.0000 83.33257 51.88910 78.44770 75.34550 
154 "F7" 50.00076 100.0000 16.66743 45.51430 76.47890 15.52440 
155 "B6" 50.00076 100.0000 33.33333 46.71500 76.95910 21.84690 
156 "Y6" 50.00076 100.0000 50.00076 48.91650 77.83970 33.43990 
157 "AF2" 50.00076 100.0000 66.66667 52.27480 79.18310 51.12470 
158 "AD4" 50.00076 100.0000 83.33257 56.91910 81.04080 75.58090 
159 "U18" 66.66667 100.0000 16.66743 53.18730 80.43440 15.88350 
160 "AB11" 66.66667 100.0000 33.33333 54.38800 80.91470 22.20600 
161 "AD7" 66.66667 100.0000 50.00076 56.58950 81.79530 33.79900 
162 "P9" 66.66667 100.0000 66.66667 59.94780 83.13860 51.48380 
163 "X17" 66.66667 100.0000 83.33257 64.59210 84.99630 75.94000 
164 "W10" 83.33257 100.0000 16.66743 63.79840 85.90460 16.38010 
165 "AI14" 83.33257 100.0000 33.33333 64.99900 86.38490 22.70260 
166 "E3" 83.33257 100.0000 50.00076 67.20050 87.26550 34.29560 
167 "AB16" 83.33257 100.0000 66.66667 70.55880 88.60880 51.98040 
168 "AF13" 83.33257 100.0000 83.33257 75.20310 90.46650 76.43660 
169 "AA18" 16.66743 16.66743 0.00000 2.753500 3.172500 1.413300 
170 "AH18" 16.66743 33.33333 0.00000 5.132200 7.929900 2.206200 
171 "AJ18" 16.66743 50.00076 0.00000 9.493700 16.65300 3.660000 
172 "P5" 16.66743 66.66667 0.00000 16.14710 29.95980 5.877900 
173 "S8" 16.66743 83.33257 0.00000 25.34820 48.36180 8.944900 
174 "Q4" 33.33333 16.66743 0.00000 5.496700 4.586700 1.541700 
175 "O18" 33.33333 33.33333 0.00000 7.875400 9.344000 2.334600 
176 "H10" 33.33333 50.00076 0.00000 12.23690 18.06710 3.788400 
177 "S10" 33.33333 66.66667 0.00000 18.89030 31.37390 6.006200 
178 "P7" 33.33333 83.33257 0.00000 28.09130 49.77600 9.073200 
179 "H15" 50.00076 16.66743 0.00000 10.52660 7.179700 1.777100 
180 "R1" 50.00076 33.33333 0.00000 12.90530 11.93700 2.570000 
181 "AF17" 50.00076 50.00076 0.00000 17.26690 20.66010 4.023800 
182 "Z17" 50.00076 66.66667 0.00000 23.92030 33.96700 6.241600 
183 "B16" 50.00076 83.33257 0.00000 33.12130 52.36900 9.308600 
184 "H8" 66.66667 16.66743 0.00000 18.19960 11.13530 2.136200 
185 "K1" 66.66667 33.33333 0.00000 20.57830 15.89260 2.929100 
186 "T8" 66.66667 50.00076 0.00000 24.93990 24.61570 4.382900 
187 "AC11" 66.66667 66.66667 0.00000 31.59330 37.92250 6.600700 
188 "H2" 66.66667 83.33257 0.00000 40.79430 56.32460 9.667700 
189 "N10" 83.33257 16.66743 0.00000 28.81060 16.60550 2.632800 
190 "AF4" 83.33257 33.33333 0.00000 31.18930 21.36280 3.425700 
191 "A4" 83.33257 50.00076 0.00000 35.55090 30.08590 4.879500 
192 "AJ7" 83.33257 66.66667 0.00000 42.20430 43.39270 7.097300 
193 "Q8" 83.33257 83.33257 0.00000 51.40530 61.79470 10.16430 
194 "F13" 16.66743 16.66743 100.0000 20.62300 10.32030 95.51280 
195 "L8" 16.66743 33.33333 100.0000 23.00170 15.07770 96.30570 
196 "Y8" 16.66743 50.00076 100.0000 27.36320 23.80080 97.75950 
197 "G6" 16.66743 66.66667 100.0000 34.01660 37.10760 99.97740 
198 "Y11" 16.66743 83.33257 100.0000 43.21770 55.50960 103.0444 
199 "S4" 33.33333 16.66743 100.0000 23.36620 11.73450 95.64120 
200 "G10" 33.33333 33.33333 100.0000 25.74490 16.49180 96.43410 
201 "AC15" 33.33333 50.00076 100.0000 30.10640 25.21490 97.88790 
202 "AI3" 33.33333 66.66667 100.0000 36.75980 38.52170 100.1057 
203 "Y13" 33.33333 83.33257 100.0000 45.96080 56.92380 103.1727 
204 "G12" 50.00076 16.66743 100.0000 28.39610 14.32750 95.87660 
205 "S3" 50.00076 33.33333 100.0000 30.77480 19.08480 96.66950 
206 "J17" 50.00076 50.00076 100.0000 35.13640 27.80790 98.12330 
207 "AH5" 50.00076 66.66667 100.0000 41.78980 41.11480 100.3411 
208 "O2" 50.00076 83.33257 100.0000 50.99080 59.51680 103.4081 
209 "A10" 66.66667 16.66743 100.0000 36.06910 18.28310 96.23570 
210 "A18" 66.66667 33.33333 100.0000 38.44780 23.04040 97.02860 
211 "R14" 66.66667 50.00076 100.0000 42.80940 31.76350 98.48240 
212 "R12" 66.66667 66.66667 100.0000 49.46280 45.07030 100.7002 
213 "AF16" 66.66667 83.33257 100.0000 58.66380 63.47240 103.7672 
214 "F1" 83.33257 16.66743 100.0000 46.68010 23.75330 96.73230 
215 "C12" 83.33257 33.33333 100.0000 49.05880 28.51060 97.52520 
216 "I1" 83.33257 50.00076 100.0000 53.42040 37.23370 98.97900 
217 "C16" 83.33257 66.66667 100.0000 60.07380 50.54050 101.1968 
218 "AE11" 83.33257 83.33257 100.0000 69.27480 68.94250 104.2638 
219 "Q13" 8.332952 0.00000 0.00000 1.261900 1.160600 1.103600 
220 "N2" 0.00000 8.332952 0.00000 1.220600 1.540100 1.179000 
221 "P10" 0.00000 0.00000 8.332952 1.086800 1.054500 1.806800 
222 "I9" 91.66705 0.00000 0.00000 34.46170 18.27560 2.657300 
223 "M9" 100.0000 8.332952 0.00000 42.04820 22.58750 3.089700 
224 "V6" 100.0000 0.00000 8.332952 41.91440 22.10190 3.717500 
225 "F5" 8.332952 100.0000 0.00000 36.66430 71.96540 12.90440 
226 "A13" 0.00000 91.66705 0.00000 30.00870 59.11630 10.77510 
227 "S12" 0.00000 100.0000 8.332952 36.48920 71.85930 13.60760 
228 "L12" 8.332952 0.00000 100.0000 19.13140 8.308400 95.20310 
229 "L14" 0.00000 8.332952 100.0000 19.09010 8.687900 95.27850 
230 "AE17" 0.00000 0.00000 91.66705 15.61770 6.866900 78.32560 
231 "P3" 8.332952 100.0000 100.0000 54.53380 79.11320 107.0039 
232 "X12" 0.00000 91.66705 100.0000 47.87820 66.26410 104.8746 
233 "AD6" 0.00000 100.0000 91.66705 51.02010 77.67170 90.12640 
234 "F3" 91.66705 0.00000 100.0000 52.33120 25.42340 96.75680 
235 "K6" 100.0000 8.332952 100.0000 59.91770 29.73530 97.18920 
236 "G14" 100.0000 0.00000 91.66705 56.44530 27.91430 80.23630 
237 "AD9" 91.66705 100.0000 0.00000 69.86410 89.08040 14.45810 
238 "M14" 100.0000 91.66705 0.00000 70.83630 80.16370 12.68580 
239 "G16" 100.0000 100.0000 8.332952 77.31680 92.90670 15.51830 
240 "D14" 91.66705 100.0000 100.0000 87.73360 96.22820 108.5576 
241 "P8" 100.0000 91.66705 100.0000 88.70580 87.31150 106.7853 
242 "AC7" 100.0000 100.0000 91.66705 91.84770 98.71910 92.03710 
243 "AC14" 0.00000 0.00000 2.000458 0.978200 1.011100 1.234700 
244 "C1" 4.347295 4.347295 4.347295 1.268000 1.334100 1.452800 
245 "AC3" 8.696117 8.696117 8.696117 1.714300 1.803500 1.964000 
246 "J18" 13.04341 13.04341 13.04341 2.400700 2.525800 2.750600 
247 "AD18" 17.39071 17.39071 17.39071 3.354800 3.529500 3.843700 
248 "G15" 21.73953 21.73953 21.73953 4.600100 4.839700 5.270400 
249 "C11" 26.08682 26.08682 26.08682 6.157700 6.478300 7.054900 
250 "B15" 30.43412 30.43412 30.43412 8.046600 8.465600 9.219100 
251 "A9" 34.78294 34.78294 34.78294 10.28440 10.82000 11.78300 
252 "W7" 39.13024 39.13024 39.13024 12.88750 13.55870 14.76540 
253 "C5" 43.47906 43.47906 43.47906 15.87120 16.69770 18.18380 
254 "AJ9" 47.82635 47.82635 47.82635 19.24990 20.25240 22.05490 
255 "A14" 52.17365 52.17365 52.17365 23.03730 24.23700 26.39410 
256 "AE16" 56.52094 56.52094 56.52094 27.24630 28.66530 31.21650 
257 "F2" 60.86976 60.86976 60.86976 31.88950 33.55030 36.53630 
258 "E14" 65.21706 65.21706 65.21706 36.97880 38.90460 42.36710 
259 "U11" 69.56588 69.56588 69.56588 42.52570 44.74040 48.72220 
260 "D17" 73.91318 73.91318 73.91318 48.54120 51.06910 55.61420 
261 "W11" 78.26047 78.26047 78.26047 55.03590 57.90210 63.05540 
262 "AF9" 82.60929 82.60929 82.60929 62.02030 65.25020 71.05740 
263 "D8" 86.95659 86.95659 86.95659 69.50430 73.12390 79.63200 
264 "AI11" 91.30388 91.30388 91.30388 77.49770 81.53360 88.79010 
265 "P12" 95.65270 95.65270 95.65270 86.00980 90.48900 98.54260 
266 "AC5" 97.99954 100.0000 100.0000 93.21700 99.05510 108.8142 
267 "P1" 4.666209 0.00000 0.00000 1.099200 1.076700 1.096000 
268 "K18" 2.333104 2.333104 0.00000 1.088200 1.165900 1.113800 
269 "AI17" 0.00000 4.666209 0.00000 1.079500 1.257900 1.132000 
270 "M1" 0.00000 2.333104 2.333104 1.046700 1.140800 1.280300 
271 "R18" 0.00000 0.00000 4.666209 1.015600 1.026000 1.431800 
272 "U1" 2.333104 0.00000 2.333104 1.056500 1.050900 1.262400 
273 "AB1" 9.015030 2.014191 2.014191 1.383100 1.301700 1.270500 
274 "X2" 6.681926 6.681926 0.00000 1.379000 1.516300 1.166100 
275 "Z18" 2.014191 9.015030 2.014191 1.345100 1.650100 1.339700 
276 "AG1" 0.00000 6.681926 6.681926 1.250000 1.438200 1.684300 
277 "AC1" 2.014191 2.014191 9.015030 1.222300 1.204400 1.916000 
278 "N7" 6.681926 0.00000 6.681926 1.280500 1.158500 1.628700 
279 "AE9" 13.36233 6.363012 6.363012 1.887000 1.749100 1.678300 
280 "Z6" 11.02922 11.02922 4.028382 1.897700 2.096500 1.542800 
281 "G1" 6.363012 13.36233 6.363012 1.828500 2.285500 1.784900 
282 "I18" 4.028382 11.02922 11.02922 1.700800 1.977300 2.333400 
283 "B1" 6.363012 6.363012 13.36233 1.639500 1.599300 2.672100 
284 "H9" 11.02922 4.028382 11.02922 1.747300 1.550500 2.248600 
285 "AJ15" 17.70962 10.71031 10.71031 2.623400 2.425900 2.321400 
286 "Y1" 15.37652 15.37652 8.377203 2.649200 2.936300 2.093100 
287 "AF5" 10.71031 17.70962 10.71031 2.540700 3.184900 2.472200 
288 "Y7" 8.377203 15.37652 15.37652 2.355400 2.758400 3.272800 
289 "J13" 10.71031 10.71031 17.70962 2.273300 2.213900 3.727500 
290 "AH11" 15.37652 8.377203 15.37652 2.424900 2.121700 3.146300 
291 "AH13" 22.05844 15.05760 15.05760 3.630400 3.378200 3.255700 
292 "V18" 19.72534 19.72534 12.72450 3.673300 4.068200 2.922400 
293 "AE18" 15.05760 22.05844 15.05760 3.521100 4.380500 3.454900 
294 "A1" 12.72450 19.72534 19.72534 3.272300 3.825400 4.532900 
295 "Q11" 15.05760 15.05760 22.05844 3.168000 3.098200 5.112600 
296 "AJ17" 19.72534 12.72450 19.72534 3.367000 2.956100 4.360100 
297 "AG5" 26.40574 19.40642 19.40642 4.931400 4.631700 4.510200 
298 "AI9" 24.07263 24.07263 17.07179 4.993200 5.515800 4.061500 
299 "U9" 19.40642 26.40574 19.40642 4.793600 5.895700 4.761500 
300 "S18" 17.07179 24.07263 24.07263 4.475800 5.202600 6.139100 
301 "F18" 19.40642 19.40642 26.40574 4.348200 4.278600 6.852100 
302 "C9" 24.07263 17.07179 24.07263 4.598100 4.081200 5.916200 
303 "E12" 30.75303 23.75372 23.75372 6.547300 6.209200 6.110600 
304 "AA12" 28.41993 28.41993 21.42061 6.629500 7.300500 5.537200 
305 "D3" 23.75372 30.75303 23.75372 6.379100 7.751600 6.417200 
306 "O6" 21.42061 28.41993 28.41993 5.987700 6.911900 8.114400 
307 "K9" 23.75372 23.75372 30.75303 5.835700 5.778400 8.968200 
308 "K5" 28.41993 21.42061 28.41993 6.139300 5.520900 7.837900 
309 "X4" 35.10185 28.10101 28.10101 8.497000 8.131200 8.079700 
310 "L11" 32.76875 32.76875 25.76791 8.601000 9.441500 7.373400 
311 "N13" 28.10101 35.10185 28.10101 8.296900 9.967200 8.444600 
312 "E4" 25.76791 32.76875 32.76875 7.827400 8.973200 10.47970 
313 "AB8" 28.10101 28.10101 35.10185 7.649900 7.618300 11.48130 
314 "AI7" 32.76875 25.76791 32.76875 8.010200 7.296600 10.14650 
315 "B13" 39.44915 32.44984 32.44984 10.79810 10.41660 10.43850 
316 "S7" 37.11604 37.11604 30.11521 10.92500 11.95690 9.591800 
317 "M17" 32.44984 39.44915 32.44984 10.56430 12.56030 10.86460 
318 "E6" 30.11521 37.11604 37.11604 10.01290 11.40470 13.25450 
319 "AE4" 32.44984 32.44984 39.44915 9.808900 9.817700 14.41030 
320 "AB3" 37.11604 30.11521 37.11604 10.22850 9.427800 12.86150 
321 "AB10" 43.79644 36.79713 36.79713 13.46660 13.08270 13.20640 
322 "S2" 41.46334 41.46334 34.46403 13.61780 14.86350 12.21230 
323 "B3" 36.79713 43.79644 36.79713 13.19780 15.54750 13.69630 
324 "F14" 34.46403 41.46334 41.46334 12.56080 14.22350 16.45670 
325 "AD8" 36.79713 36.79713 43.79644 12.32930 12.39420 17.77290 
326 "S9" 41.46334 34.46403 41.46334 12.81060 11.93260 16.00140 
327 "F12" 48.14527 41.14443 41.14443 16.51780 16.14600 16.40150 
328 "G11" 45.81216 45.81216 38.81132 16.69430 18.17680 15.25340 
329 "L7" 41.14443 48.14527 41.14443 16.21270 18.94420 16.95770 
330 "L5" 38.81132 45.81216 45.81216 15.48650 17.44550 20.10350 
331 "U15" 41.14443 41.14443 48.14527 15.22670 15.36440 21.58590 
332 "J10" 45.81216 38.81132 45.81216 15.77190 14.82780 19.58320 
333 "F16" 52.49256 45.49325 45.49325 19.96600 19.62180 20.04090 
334 "L13" 50.15946 50.15946 43.16014 20.16890 21.91170 18.73280 
335 "G13" 45.49325 52.49256 45.49325 19.62330 22.76530 20.66570 
336 "A11" 43.16014 50.15946 50.15946 18.80470 21.08580 24.21090 
337 "F4" 45.49325 45.49325 52.49256 18.51560 18.74370 25.86490 
338 "M15" 50.15946 43.16014 50.15946 19.12710 18.12900 23.62320 
339 "V2" 56.83986 49.84054 49.84054 23.82490 23.52470 24.14060 
340 "O9" 54.50675 54.50675 47.50744 24.05520 26.08240 22.66660 
341 "R5" 49.84054 56.83986 49.84054 23.44330 27.02460 24.83630 
342 "AD13" 47.50744 54.50675 54.50675 22.52920 25.15850 28.79410 
343 "F6" 49.84054 49.84054 56.83986 22.21000 22.54710 30.62510 
344 "U5" 54.50675 47.50744 54.50675 22.88980 21.85130 28.13670 
345 "F8" 61.18868 54.18784 54.18784 28.10730 27.86850 28.71600 
346 "R3" 58.85557 58.85557 51.85473 28.36590 30.70230 27.07060 
347 "C3" 54.18784 61.18868 54.18784 27.68570 31.73560 29.48460 
348 "AE6" 51.85473 58.85557 58.85557 26.67320 29.67740 33.86780 
349 "F10" 54.18784 54.18784 61.18868 26.32300 26.78830 35.88070 
350 "D10" 58.85557 51.85473 58.85557 27.07320 26.00870 33.13860 
351 "Y15" 65.53597 58.53666 58.53666 32.82570 32.66650 33.78160 
352 "U13" 63.20287 63.20287 56.20356 33.11350 35.78420 31.95960 
353 "M10" 58.53666 65.53597 58.53666 32.36290 36.91090 34.62530 
354 "A17" 56.20356 63.20287 63.20287 31.24910 34.65550 39.44590 
355 "W9" 58.53666 58.53666 65.53597 30.86730 31.48080 41.64560 
356 "U17" 63.20287 56.20356 63.20287 31.68970 30.61480 38.64280 
357 "B11" 69.88479 62.88396 62.88396 37.99190 37.93130 39.35140 
358 "X9" 67.55016 67.55016 60.55085 38.30970 41.34050 37.34770 
359 "I8" 62.88396 69.88479 62.88396 37.48690 42.56300 40.27200 
360 "Y17" 60.55085 67.55016 67.55016 36.26910 40.10510 45.54190 
361 "Q9" 62.88396 62.88396 69.88479 35.85480 36.63740 47.93290 
362 "AE2" 67.55016 60.55085 67.55016 36.75130 35.68240 44.66280 
363 "B5" 74.23209 67.23125 67.23125 43.61740 43.67500 45.43880 
364 "I2" 71.89899 71.89899 64.89815 43.96600 47.38320 43.24860 
365 "L9" 67.23125 74.23209 67.23125 43.06910 48.70350 46.43830 
366 "I4" 64.89815 71.89899 71.89899 41.74470 46.03830 52.16850 
