assets/charts/pharmacist/rgb/i1pro/130x180/photocard648/photocard648.ti1
CTI1   

DESCRIPTOR "Argyll Calibration Target chart information 1"
ORIGINATOR "ChromIQ"
APPROX_WHITE_POINT "95.050000 100.000000 108.900000"
COLOR_REP "iRGB"
WHITE_COLOR_PATCHES "2"
BLACK_COLOR_PATCHES "2"
CREATED "Tue Sep 08 08:00:57 2026"

NUMBER_OF_FIELDS 7
BEGIN_DATA_FORMAT
SAMPLE_ID RGB_R RGB_G RGB_B XYZ_X XYZ_Y XYZ_Z
END_DATA_FORMAT

NUMBER_OF_SETS 648
BEGIN_DATA
1 0.0000 0.0000 0.0000 0.9505 1.0000 1.0890
2 100.0000 0.0000 0.0000 41.7781 22.0474 2.9997
3 0.0000 100.0000 0.0000 36.3529 71.8048 12.8898
4 0.0000 0.0000 100.0000 18.8200 8.1478 95.1885
5 0.0000 100.0000 100.0000 54.2224 78.9526 106.9893
6 100.0000 0.0000 100.0000 59.6476 29.1952 97.0992
7 100.0000 100.0000 0.0000 77.1805 92.8522 14.8005
8 100.0000 100.0000 100.0000 95.0500 100.0000 108.9000
9 16.6667 0.0000 0.0000 1.9162 1.4978 1.1342
10 33.3333 0.0000 0.0000 4.6593 2.9120 1.2626
11 50.0000 0.0000 0.0000 9.6893 5.5050 1.4980
12 66.6667 0.0000 0.0000 17.3623 9.4606 1.8571
13 83.3333 0.0000 0.0000 27.9733 14.9308 2.3536
14 0.0000 16.6667 0.0000 1.7879 2.6747 1.3681
15 0.0000 33.3333 0.0000 4.1665 7.4320 2.1610
16 0.0000 50.0000 0.0000 8.5281 16.1551 3.6149
17 0.0000 66.6667 0.0000 15.1815 29.4620 5.8327
18 0.0000 83.3333 0.0000 24.3825 47.8640 8.8997
19 0.0000 0.0000 16.6667 1.3732 1.1691 3.3147
20 0.0000 0.0000 33.3333 2.5738 1.6493 9.6372
21 0.0000 0.0000 50.0000 4.7753 2.5299 21.2302
22 0.0000 0.0000 66.6667 8.1336 3.8733 38.9149
23 0.0000 0.0000 83.3333 12.7779 5.7310 63.3712
24 100.0000 16.6667 0.0000 42.6155 23.7221 3.2788
25 100.0000 33.3333 0.0000 44.9941 28.4794 4.0717
26 100.0000 50.0000 0.0000 49.3557 37.2025 5.5256
27 100.0000 66.6667 0.0000 56.0091 50.5094 7.7434
28 100.0000 83.3333 0.0000 65.2101 68.9114 10.8104
29 100.0000 0.0000 16.6667 42.2008 22.2165 5.2254
30 100.0000 0.0000 33.3333 43.4014 22.6967 11.5479
31 100.0000 0.0000 50.0000 45.6029 23.5773 23.1409
32 100.0000 0.0000 66.6667 48.9612 24.9207 40.8256
33 100.0000 0.0000 83.3333 53.6055 26.7784 65.2819
34 16.6667 100.0000 0.0000 37.3186 72.3026 12.9350
35 33.3333 100.0000 0.0000 40.0617 73.7168 13.0634
36 50.0000 100.0000 0.0000 45.0917 76.3098 13.2988
37 66.6667 100.0000 0.0000 52.7647 80.2654 13.6579
38 83.3333 100.0000 0.0000 63.3757 85.7356 14.1544
39 0.0000 100.0000 16.6667 36.7756 71.9739 15.1155
40 0.0000 100.0000 33.3333 37.9762 72.4541 21.4380
41 0.0000 100.0000 50.0000 40.1777 73.3347 33.0310
42 0.0000 100.0000 66.6667 43.5360 74.6781 50.7157
43 0.0000 100.0000 83.3333 48.1803 76.5358 75.1720
44 0.0000 16.6667 100.0000 19.6574 9.8225 95.4676
45 0.0000 33.3333 100.0000 22.0360 14.5798 96.2605
46 0.0000 50.0000 100.0000 26.3976 23.3029 97.7144
47 0.0000 66.6667 100.0000 33.0510 36.6098 99.9322
48 0.0000 83.3333 100.0000 42.2520 55.0118 102.9992
49 16.6667 0.0000 100.0000 19.7857 8.6456 95.2337
50 33.3333 0.0000 100.0000 22.5288 10.0598 95.3621
51 50.0000 0.0000 100.0000 27.5588 12.6528 95.5975
52 66.6667 0.0000 100.0000 35.2318 16.6084 95.9566
53 83.3333 0.0000 100.0000 45.8428 22.0786 96.4531
54 100.0000 100.0000 16.6667 77.6032 93.0213 17.0262
55 100.0000 100.0000 33.3333 78.8038 93.5015 23.3487
56 100.0000 100.0000 50.0000 81.0053 94.3821 34.9417
57 100.0000 100.0000 66.6667 84.3636 95.7255 52.6264
58 100.0000 100.0000 83.3333 89.0079 97.5832 77.0827
59 16.6667 100.0000 100.0000 55.1881 79.4504 107.0345
60 33.3333 100.0000 100.0000 57.9312 80.8646 107.1629
61 50.0000 100.0000 100.0000 62.9612 83.4576 107.3983
62 66.6667 100.0000 100.0000 70.6342 87.4132 107.7574
63 83.3333 100.0000 100.0000 81.2452 92.8834 108.2539
64 100.0000 16.6667 100.0000 60.4850 30.8699 97.3783
65 100.0000 33.3333 100.0000 62.8636 35.6272 98.1712
66 100.0000 50.0000 100.0000 67.2252 44.3503 99.6251
67 100.0000 66.6667 100.0000 73.8786 57.6572 101.8429
68 100.0000 83.3333 100.0000 83.0796 76.0592 104.9099
69 0.0000 16.6667 16.6667 2.2105 2.8438 3.5938
70 0.0000 16.6667 33.3333 3.4111 3.3240 9.9163
71 0.0000 16.6667 50.0000 5.6127 4.2046 21.5093
72 0.0000 16.6667 66.6667 8.9710 5.5480 39.1940
73 0.0000 16.6667 83.3333 13.6152 7.4057 63.6503
74 0.0000 33.3333 16.6667 4.5892 7.6011 4.3867
75 0.0000 33.3333 33.3333 5.7898 8.0813 10.7092
76 0.0000 33.3333 50.0000 7.9913 8.9620 22.3022
77 0.0000 33.3333 66.6667 11.3497 10.3053 39.9869
78 0.0000 33.3333 83.3333 15.9939 12.1630 64.4432
79 0.0000 50.0000 16.6667 8.9507 16.3242 5.8405
80 0.0000 50.0000 33.3333 10.1514 16.8045 12.1630
81 0.0000 50.0000 50.0000 12.3529 17.6851 23.7560
82 0.0000 50.0000 66.6667 15.7112 19.0284 41.4408
83 0.0000 50.0000 83.3333 20.3555 20.8861 65.8970
84 0.0000 66.6667 16.6667 15.6041 29.6310 8.0583
85 0.0000 66.6667 33.3333 16.8048 30.1113 14.3808
86 0.0000 66.6667 50.0000 19.0063 30.9919 25.9738
87 0.0000 66.6667 66.6667 22.3646 32.3352 43.6586
88 0.0000 66.6667 83.3333 27.0089 34.1929 68.1148
89 0.0000 83.3333 16.6667 24.8051 48.0330 11.1253
90 0.0000 83.3333 33.3333 26.0058 48.5133 17.4478
91 0.0000 83.3333 50.0000 28.2073 49.3939 29.0408
92 0.0000 83.3333 66.6667 31.5656 50.7372 46.7256
93 0.0000 83.3333 83.3333 36.2099 52.5949 71.1818
94 100.0000 16.6667 16.6667 43.0381 23.8912 5.5045
95 100.0000 16.6667 33.3333 44.2387 24.3714 11.8270
96 100.0000 16.6667 50.0000 46.4403 25.2520 23.4200
97 100.0000 16.6667 66.6667 49.7986 26.5954 41.1047
98 100.0000 16.6667 83.3333 54.4428 28.4531 65.5610
99 100.0000 33.3333 16.6667 45.4168 28.6485 6.2974
100 100.0000 33.3333 33.3333 46.6174 29.1287 12.6199
101 100.0000 33.3333 50.0000 48.8189 30.0094 24.2129
102 100.0000 33.3333 66.6667 52.1773 31.3527 41.8976
103 100.0000 33.3333 83.3333 56.8215 33.2104 66.3539
104 100.0000 50.0000 16.6667 49.7783 37.3716 7.7512
105 100.0000 50.0000 33.3333 50.9790 37.8519 14.0737
106 100.0000 50.0000 50.0000 53.1805 38.7325 25.6667
107 100.0000 50.0000 66.6667 56.5388 40.0758 43.3515
108 100.0000 50.0000 83.3333 61.1831 41.9335 67.8077
109 100.0000 66.6667 16.6667 56.4317 50.6784 9.9690
110 100.0000 66.6667 33.3333 57.6324 51.1587 16.2915
111 100.0000 66.6667 50.0000 59.8339 52.0393 27.8845
112 100.0000 66.6667 66.6667 63.1922 53.3826 45.5693
113 100.0000 66.6667 83.3333 67.8365 55.2403 70.0255
114 100.0000 83.3333 16.6667 65.6327 69.0804 13.0360
115 100.0000 83.3333 33.3333 66.8334 69.5607 19.3585
116 100.0000 83.3333 50.0000 69.0349 70.4413 30.9515
117 100.0000 83.3333 66.6667 72.3932 71.7846 48.6363
118 100.0000 83.3333 83.3333 77.0375 73.6423 73.0925
119 16.6667 0.0000 16.6667 2.3388 1.6669 3.3599
120 16.6667 0.0000 33.3333 3.5395 2.1471 9.6824
121 16.6667 0.0000 50.0000 5.7410 3.0277 21.2754
122 16.6667 0.0000 66.6667 9.0993 4.3711 38.9601
123 16.6667 0.0000 83.3333 13.7436 6.2288 63.4164
124 33.3333 0.0000 16.6667 5.0820 3.0810 3.4882
125 33.3333 0.0000 33.3333 6.2826 3.5613 9.8107
126 33.3333 0.0000 50.0000 8.4842 4.4419 21.4037
127 33.3333 0.0000 66.6667 11.8425 5.7852 39.0885
128 33.3333 0.0000 83.3333 16.4867 7.6429 63.5447
129 50.0000 0.0000 16.6667 10.1119 5.6741 3.7236
130 50.0000 0.0000 33.3333 11.3126 6.1543 10.0461
131 50.0000 0.0000 50.0000 13.5141 7.0349 21.6391
132 50.0000 0.0000 66.6667 16.8724 8.3783 39.3239
133 50.0000 0.0000 83.3333 21.5167 10.2360 63.7801
134 66.6667 0.0000 16.6667 17.7849 9.6296 4.0827
135 66.6667 0.0000 33.3333 18.9856 10.1099 10.4052
136 66.6667 0.0000 50.0000 21.1871 10.9905 21.9982
137 66.6667 0.0000 66.6667 24.5454 12.3338 39.6830
138 66.6667 0.0000 83.3333 29.1897 14.1915 64.1392
139 83.3333 0.0000 16.6667 28.3960 15.0998 4.5793
140 83.3333 0.0000 33.3333 29.5966 15.5801 10.9018
141 83.3333 0.0000 50.0000 31.7981 16.4607 22.4948
142 83.3333 0.0000 66.6667 35.1564 17.8040 40.1796
143 83.3333 0.0000 83.3333 39.8007 19.6617 64.6358
144 16.6667 100.0000 16.6667 37.7412 72.4717 15.1607
145 16.6667 100.0000 33.3333 38.9419 72.9519 21.4832
146 16.6667 100.0000 50.0000 41.1434 73.8325 33.0762
147 16.6667 100.0000 66.6667 44.5017 75.1759 50.7609
148 16.6667 100.0000 83.3333 49.1460 77.0336 75.2172
149 33.3333 100.0000 16.6667 40.4844 73.8858 15.2890
150 33.3333 100.0000 33.3333 41.6850 74.3661 21.6115
151 33.3333 100.0000 50.0000 43.8866 75.2467 33.2045
152 33.3333 100.0000 66.6667 47.2449 76.5900 50.8893
153 33.3333 100.0000 83.3333 51.8891 78.4477 75.3455
154 50.0000 100.0000 16.6667 45.5143 76.4789 15.5244
155 50.0000 100.0000 33.3333 46.7150 76.9591 21.8469
156 50.0000 100.0000 50.0000 48.9165 77.8397 33.4399
157 50.0000 100.0000 66.6667 52.2748 79.1831 51.1247
158 50.0000 100.0000 83.3333 56.9191 81.0408 75.5809
159 66.6667 100.0000 16.6667 53.1873 80.4344 15.8835
160 66.6667 100.0000 33.3333 54.3880 80.9147 22.2060
161 66.6667 100.0000 50.0000 56.5895 81.7953 33.7990
162 66.6667 100.0000 66.6667 59.9478 83.1386 51.4838
163 66.6667 100.0000 83.3333 64.5921 84.9963 75.9400
164 83.3333 100.0000 16.6667 63.7984 85.9046 16.3801
165 83.3333 100.0000 33.3333 64.9990 86.3849 22.7026
166 83.3333 100.0000 50.0000 67.2005 87.2655 34.2956
167 83.3333 100.0000 66.6667 70.5588 88.6088 51.9804
168 83.3333 100.0000 83.3333 75.2031 90.4665 76.4366
169 16.6667 16.6667 0.0000 2.7535 3.1725 1.4133
170 16.6667 33.3333 0.0000 5.1322 7.9299 2.2062
171 16.6667 50.0000 0.0000 9.4937 16.6530 3.6600
172 16.6667 66.6667 0.0000 16.1471 29.9598 5.8779
173 16.6667 83.3333 0.0000 25.3482 48.3618 8.9449
174 33.3333 16.6667 0.0000 5.4967 4.5867 1.5417
175 33.3333 33.3333 0.0000 7.8754 9.3440 2.3346
176 33.3333 50.0000 0.0000 12.2369 18.0671 3.7884
177 33.3333 66.6667 0.0000 18.8903 31.3739 6.0062
178 33.3333 83.3333 0.0000 28.0913 49.7760 9.0732
179 50.0000 16.6667 0.0000 10.5266 7.1797 1.7771
180 50.0000 33.3333 0.0000 12.9053 11.9370 2.5700
181 50.0000 50.0000 0.0000 17.2669 20.6601 4.0238
182 50.0000 66.6667 0.0000 23.9203 33.9670 6.2416
183 50.0000 83.3333 0.0000 33.1213 52.3690 9.3086
184 66.6667 16.6667 0.0000 18.1996 11.1353 2.1362
185 66.6667 33.3333 0.0000 20.5783 15.8926 2.9291
186 66.6667 50.0000 0.0000 24.9399 24.6157 4.3829
187 66.6667 66.6667 0.0000 31.5933 37.9225 6.6007
188 66.6667 83.3333 0.0000 40.7943 56.3246 9.6677
189 83.3333 16.6667 0.0000 28.8106 16.6055 2.6328
190 83.3333 33.3333 0.0000 31.1893 21.3628 3.4257
191 83.3333 50.0000 0.0000 35.5509 30.0859 4.8795
192 83.3333 66.6667 0.0000 42.2043 43.3927 7.0973
193 83.3333 83.3333 0.0000 51.4053 61.7947 10.1643
194 16.6667 16.6667 100.0000 20.6230 10.3203 95.5128
195 16.6667 33.3333 100.0000 23.0017 15.0777 96.3057
196 16.6667 50.0000 100.0000 27.3632 23.8008 97.7595
197 16.6667 66.6667 100.0000 34.0166 37.1076 99.9774
198 16.6667 83.3333 100.0000 43.2177 55.5096 103.0444
199 33.3333 16.6667 100.0000 23.3662 11.7345 95.6412
200 33.3333 33.3333 100.0000 25.7449 16.4918 96.4341
201 33.3333 50.0000 100.0000 30.1064 25.2149 97.8879
202 33.3333 66.6667 100.0000 36.7598 38.5217 100.1057
203 33.3333 83.3333 100.0000 45.9608 56.9238 103.1727
204 50.0000 16.6667 100.0000 28.3961 14.3275 95.8766
205 50.0000 33.3333 100.0000 30.7748 19.0848 96.6695
206 50.0000 50.0000 100.0000 35.1364 27.8079 98.1233
207 50.0000 66.6667 100.0000 41.7898 41.1148 100.3411
208 50.0000 83.3333 100.0000 50.9908 59.5168 103.4081
209 66.6667 16.6667 100.0000 36.0691 18.2831 96.2357
210 66.6667 33.3333 100.0000 38.4478 23.0404 97.0286
211 66.6667 50.0000 100.0000 42.8094 31.7635 98.4824
212 66.6667 66.6667 100.0000 49.4628 45.0703 100.7002
213 66.6667 83.3333 100.0000 58.6638 63.4724 103.7672
214 83.3333 16.6667 100.0000 46.6801 23.7533 96.7323
215 83.3333 33.3333 100.0000 49.0588 28.5106 97.5252
216 83.3333 50.0000 100.0000 53.4204 37.2337 98.9790
217 83.3333 66.6667 100.0000 60.0738 50.5405 101.1968
218 83.3333 83.3333 100.0000 69.2748 68.9425 104.2638
219 8.3333 0.0000 0.0000 1.2619 1.1606 1.1036
220 0.0000 8.3333 0.0000 1.2206 1.5401 1.1790
221 0.0000 0.0000 8.3333 1.0868 1.0545 1.8068
222 91.6667 0.0000 0.0000 34.4617 18.2756 2.6573
223 100.0000 8.3333 0.0000 42.0482 22.5875 3.0897
224 100.0000 0.0000 8.3333 41.9144 22.1019 3.7175
225 8.3333 100.0000 0.0000 36.6643 71.9654 12.9044
226 0.0000 91.6667 0.0000 30.0087 59.1163 10.7751
227 0.0000 100.0000 8.3333 36.4892 71.8593 13.6076
228 8.3333 0.0000 100.0000 19.1314 8.3084 95.2031
229 0.0000 8.3333 100.0000 19.0901 8.6879 95.2785
230 0.0000 0.0000 91.6667 15.6177 6.8669 78.3256
231 8.3333 100.0000 100.0000 54.5338 79.1132 107.0039
232 0.0000 91.6667 100.0000 47.8782 66.2641 104.8746
233 0.0000 100.0000 91.6667 51.0201 77.6717 90.1264
234 91.6667 0.0000 100.0000 52.3312 25.4234 96.7568
235 100.0000 8.3333 100.0000 59.9177 29.7353 97.1892
236 100.0000 0.0000 91.6667 56.4453 27.9143 80.2363
237 91.6667 100.0000 0.0000 69.8641 89.0804 14.4581
238 100.0000 91.6667 0.0000 70.8363 80.1637 12.6858
239 100.0000 100.0000 8.3333 77.3168 92.9067 15.5183
240 91.6667 100.0000 100.0000 87.7336 96.2282 108.5576
241 100.0000 91.6667 100.0000 88.7058 87.3115 106.7853
242 100.0000 100.0000 91.6667 91.8477 98.7191 92.0371
243 0.0000 0.0000 2.0000 0.9782 1.0111 1.2347
244 4.3478 4.3478 4.3478 1.2680 1.3341 1.4528
245 8.6957 8.6957 8.6957 1.7143 1.8035 1.9640
246 13.0435 13.0435 13.0435 2.4007 2.5258 2.7506
247 17.3913 17.3913 17.3913 3.3548 3.5295 3.8437
248 21.7391 21.7391 21.7391 4.6001 4.8397 5.2704
249 26.0870 26.0870 26.0870 6.1577 6.4783 7.0549
250 30.4348 30.4348 30.4348 8.0466 8.4656 9.2191
251 34.7826 34.7826 34.7826 10.2844 10.8200 11.7830
252 39.1304 39.1304 39.1304 12.8875 13.5587 14.7654
253 43.4783 43.4783 43.4783 15.8712 16.6977 18.1838
254 47.8261 47.8261 47.8261 19.2499 20.2524 22.0549
255 52.1739 52.1739 52.1739 23.0373 24.2370 26.3941
256 56.5217 56.5217 56.5217 27.2463 28.6653 31.2165
257 60.8696 60.8696 60.8696 31.8895 33.5503 36.5363
258 65.2174 65.2174 65.2174 36.9788 38.9046 42.3671
259 69.5652 69.5652 69.5652 42.5257 44.7404 48.7222
260 73.9130 73.9130 73.9130 48.5412 51.0691 55.6142
261 78.2609 78.2609 78.2609 55.0359 57.9021 63.0554
262 82.6087 82.6087 82.6087 62.0203 65.2502 71.0574
263 86.9565 86.9565 86.9565 69.5043 73.1239 79.6320
264 91.3043 91.3043 91.3043 77.4977 81.5336 88.7901
265 95.6522 95.6522 95.6522 86.0098 90.4890 98.5426
266 98.0000 100.0000 100.0000 93.2170 99.0551 108.8142
267 4.6667 0.0000 0.0000 1.0992 1.0767 1.0960
268 2.3333 2.3333 0.0000 1.0882 1.1659 1.1138
269 0.0000 4.6667 0.0000 1.0795 1.2579 1.1320
270 0.0000 2.3333 2.3333 1.0467 1.1408 1.2803
271 0.0000 0.0000 4.6667 1.0156 1.0260 1.4318
272 2.3333 0.0000 2.3333 1.0565 1.0509 1.2624
273 9.0145 2.0145 2.0145 1.3831 1.3017 1.2705
274 6.6812 6.6812 0.0000 1.3790 1.5163 1.1661
275 2.0145 9.0145 2.0145 1.3451 1.6501 1.3397
276 0.0000 6.6812 6.6812 1.2500 1.4382 1.6843
277 2.0145 2.0145 9.0145 1.2223 1.2044 1.9160
278 6.6812 0.0000 6.6812 1.2805 1.1585 1.6287
279 13.3623 6.3623 6.3623 1.8870 1.7491 1.6783
280 11.0290 11.0290 4.0290 1.8977 2.0965 1.5428
281 6.3623 13.3623 6.3623 1.8285 2.2855 1.7849
282 4.0290 11.0290 11.0290 1.7008 1.9773 2.3334
283 6.3623 6.3623 13.3623 1.6395 1.5993 2.6721
284 11.0290 4.0290 11.0290 1.7473 1.5505 2.2486
285 17.7101 10.7101 10.7101 2.6234 2.4259 2.3214
286 15.3768 15.3768 8.3768 2.6492 2.9363 2.0931
287 10.7101 17.7101 10.7101 2.5407 3.1849 2.4722
288 8.3768 15.3768 15.3768 2.3554 2.7584 3.2728
289 10.7101 10.7101 17.7101 2.2733 2.2139 3.7275
290 15.3768 8.3768 15.3768 2.4249 2.1217 3.1463
291 22.0580 15.0580 15.0580 3.6304 3.3782 3.2557
292 19.7246 19.7246 12.7246 3.6733 4.0682 2.9224
293 15.0580 22.0580 15.0580 3.5211 4.3805 3.4549
294 12.7246 19.7246 19.7246 3.2723 3.8254 4.5329
295 15.0580 15.0580 22.0580 3.1680 3.0982 5.1126
296 19.7246 12.7246 19.7246 3.3670 2.9561 4.3601
297 26.4058 19.4058 19.4058 4.9314 4.6317 4.5102
298 24.0725 24.0725 17.0725 4.9932 5.5158 4.0615
299 19.4058 26.4058 19.4058 4.7936 5.8957 4.7615
300 17.0725 24.0725 24.0725 4.4758 5.2026 6.1391
301 19.4058 19.4058 26.4058 4.3482 4.2786 6.8521
302 24.0725 17.0725 24.0725 4.5981 4.0812 5.9162
303 30.7536 23.7536 23.7536 6.5473 6.2092 6.1106
304 28.4203 28.4203 21.4203 6.6295 7.3005 5.5372
305 23.7536 30.7536 23.7536 6.3791 7.7516 6.4172
306 21.4203 28.4203 28.4203 5.9877 6.9119 8.1144
307 23.7536 23.7536 30.7536 5.8357 5.7784 8.9682
308 28.4203 21.4203 28.4203 6.1393 5.5209 7.8379
309 35.1014 28.1014 28.1014 8.4970 8.1312 8.0797
310 32.7681 32.7681 25.7681 8.6010 9.4415 7.3734
311 28.1014 35.1014 28.1014 8.2969 9.9672 8.4446
312 25.7681 32.7681 32.7681 7.8274 8.9732 10.4797
313 28.1014 28.1014 35.1014 7.6499 7.6183 11.4813
314 32.7681 25.7681 32.7681 8.0102 7.2966 10.1465
315 39.4493 32.4493 32.4493 10.7981 10.4166 10.4385
316 37.1159 37.1159 30.1159 10.9250 11.9569 9.5918
317 32.4493 39.4493 32.4493 10.5643 12.5603 10.8646
318 30.1159 37.1159 37.1159 10.0129 11.4047 13.2545
319 32.4493 32.4493 39.4493 9.8089 9.8177 14.4103
320 37.1159 30.1159 37.1159 10.2285 9.4278 12.8615
321 43.7971 36.7971 36.7971 13.4666 13.0827 13.2064
322 41.4638 41.4638 34.4638 13.6178 14.8635 12.2123
323 36.7971 43.7971 36.7971 13.1978 15.5475 13.6963
324 34.4638 41.4638 41.4638 12.5608 14.2235 16.4567
325 36.7971 36.7971 43.7971 12.3293 12.3942 17.7729
326 41.4638 34.4638 41.4638 12.8106 11.9326 16.0014
327 48.1449 41.1449 41.1449 16.5178 16.1460 16.4015
328 45.8116 45.8116 38.8116 16.6943 18.1768 15.2534
329 41.1449 48.1449 41.1449 16.2127 18.9442 16.9577
330 38.8116 45.8116 45.8116 15.4865 17.4455 20.1035
331 41.1449 41.1449 48.1449 15.2267 15.3644 21.5859
332 45.8116 38.8116 45.8116 15.7719 14.8278 19.5832
333 52.4928 45.4928 45.4928 19.9660 19.6218 20.0409
334 50.1594 50.1594 43.1594 20.1689 21.9117 18.7328
335 45.4928 52.4928 45.4928 19.6233 22.7653 20.6657
336 43.1594 50.1594 50.1594 18.8047 21.0858 24.2109
337 45.4928 45.4928 52.4928 18.5156 18.7437 25.8649
338 50.1594 43.1594 50.1594 19.1271 18.1290 23.6232
339 56.8406 49.8406 49.8406 23.8249 23.5247 24.1406
340 54.5072 54.5072 47.5072 24.0552 26.0824 22.6666
341 49.8406 56.8406 49.8406 23.4433 27.0246 24.8363
342 47.5072 54.5072 54.5072 22.5292 25.1585 28.7941
343 49.8406 49.8406 56.8406 22.2100 22.5471 30.6251
344 54.5072 47.5072 54.5072 22.8898 21.8513 28.1367
345 61.1884 54.1884 54.1884 28.1073 27.8685 28.7160
346 58.8551 58.8551 51.8551 28.3659 30.7023 27.0706
347 54.1884 61.1884 54.1884 27.6857 31.7356 29.4846
348 51.8551 58.8551 58.8551 26.6732 29.6774 33.8678
349 54.1884 54.1884 61.1884 26.3230 26.7883 35.8807
350 58.8551 51.8551 58.8551 27.0732 26.0087 33.1386
351 65.5362 58.5362 58.5362 32.8257 32.6665 33.7816
352 63.2029 63.2029 56.2029 33.1135 35.7842 31.9596
353 58.5362 65.5362 58.5362 32.3629 36.9109 34.6253
354 56.2029 63.2029 63.2029 31.2491 34.6555 39.4459
355 58.5362 58.5362 65.5362 30.8673 31.4808 41.6456
356 63.2029 56.2029 63.2029 31.6897 30.6148 38.6428
357 69.8841 62.8841 62.8841 37.9919 37.9313 39.3514
358 67.5507 67.5507 60.5507 38.3097 41.3405 37.3477
359 62.8841 69.8841 62.8841 37.4869 42.5630 40.2720
360 60.5507 67.5507 67.5507 36.2691 40.1051 45.5419
361 62.8841 62.8841 69.8841 35.8548 36.6374 47.9329
362 67.5507 60.5507 67.5507 36.7513 35.6824 44.6628
363 74.2319 67.2319 67.2319 43.6174 43.6750 45.4388
364 71.8986 71.8986 64.8986 43.9660 47.3832 43.2486
365 67.2319 74.2319 67.2319 43.0691 48.7035 46.4383
366 64.8986 71.8986 71.8986 41.7447 46.0383 52.1685
367 67.2319 67.2319 74.2319 41.2972 42.2703 54.7554
368 71.8986 64.8986 71.8986 42.2696 41.2239 51.2116
369 78.5797 71.5797 71.5797 49.7131 49.9094 52.0567
370 76.2464 76.2464 69.2464 50.0934 53.9235 49.6753
371 71.5797 78.5797 71.5797 49.1205 55.3439 53.1369
372 69.2464 76.2464 76.2464 47.6870 52.4666 59.3383
373 71.5797 71.5797 78.5797 47.2056 48.3914 62.1254
374 76.2464 69.2464 76.2464 48.2556 47.2511 58.3017
375 82.9275 75.9275 75.9275 56.2897 56.6459 59.2176
376 80.5942 80.5942 73.5942 56.7024 60.9727 56.6405
377 75.9275 82.9275 75.9275 55.6519 62.4951 60.3802
378 73.5942 80.5942 80.5942 54.1068 59.4012 67.0633
379 75.9275 75.9275 82.9275 53.5908 55.0119 70.0548
380 80.5942 73.5942 80.5942 54.7201 53.7757 65.9451
381 87.2754 80.2754 80.2754 63.3574 63.8953 66.9334
382 84.9420 84.9420 77.9420 63.8033 68.5415 64.1564
383 80.2754 87.2754 80.2754 62.6735 70.1679 68.1802
384 77.9420 84.9420 84.9420 61.0144 66.8530 75.3551
385 80.2754 80.2754 87.2754 60.4632 62.1431 78.5551
386 84.9420 77.9420 84.9420 61.6734 60.8087 74.1537
387 91.6232 84.6232 84.6232 70.9263 71.6683 75.2159
388 89.2899 89.2899 82.2899 71.4060 76.6402 72.2347
389 84.6232 91.6232 84.6232 70.1953 78.3726 76.5485
390 82.2899 89.2899 89.2899 68.4200 74.8323 84.2250
391 84.6232 84.6232 91.6232 67.8329 69.7955 87.6374
392 89.2899 82.2899 89.2899 69.1256 68.3607 82.9387
393 95.9710 88.9710 88.9710 79.0060 79.9751 84.0763
394 93.6377 93.6377 86.6377 79.5202 85.2790 80.8868
395 88.9710 95.9710 88.9710 78.2270 87.1193 85.4963
396 86.6377 93.6377 93.6377 76.3333 83.3495 93.6841
397 88.9710 88.9710 95.9710 75.7097 77.9794 97.3127
398 93.6377 86.6377 93.6377 77.0864 76.4424 92.3112
399 100.0000 93.3188 93.3188 87.3092 88.6728 93.5118
400 97.9855 97.9855 90.9855 88.1553 94.4676 90.1240
401 93.3188 100.0000 93.3188 86.5208 95.9030 94.9489
402 90.9855 97.9855 97.9855 84.7638 92.4143 103.7429
403 93.3188 93.3188 100.0000 83.9732 86.6531 106.9076
404 97.9855 90.9855 97.9855 85.5652 85.0637 102.2819
405 100.0000 97.6667 97.6667 92.2659 95.9261 103.3655
406 100.0000 100.0000 95.3333 93.2113 99.2645 99.2178
407 97.6667 100.0000 97.6667 91.9824 98.5265 103.8824
408 95.3333 100.0000 100.0000 90.8491 97.8344 108.7034
409 97.6667 97.6667 100.0000 91.0661 95.1997 108.1834
410 100.0000 95.3333 100.0000 91.4073 92.7146 107.6858
411 100.0000 100.0000 100.0000 95.0500 100.0000 108.9000
412 0.0000 0.0000 0.0000 0.9505 1.0000 1.0890
413 75.0902 50.8584 28.8808 31.4150 28.2359 11.0925
414 59.6971 25.8426 66.1470 22.7946 14.3000 39.5074
415 38.2740 72.4154 72.5215 31.6614 41.2235 52.6357
416 52.4872 25.5799 23.0770 13.3208 10.0847 6.2662
417 82.1151 44.8129 82.6709 44.6969 31.0987 65.4816
418 20.6241 68.3166 19.7902 17.9872 32.0192 9.2182
419 43.5747 50.1715 73.4157 23.9910 23.1818 50.8165
420 28.7768 81.7277 20.3097 26.7367 47.5174 11.9005
421 72.7917 43.8297 60.3166 32.3753 25.0123 34.2505
422 12.7291 54.6042 71.5730 19.1407 23.0256 48.4698
423 80.5133 57.2365 46.4181 39.3878 35.5343 22.8102
424 12.5446 58.4759 55.3105 16.9603 24.5244 29.7493
425 52.1954 83.0937 50.6304 37.7525 54.0777 29.9927
426 51.2439 82.6652 23.6488 33.9934 52.0998 13.4848
427 21.4280 28.3488 56.7785 9.8470 8.4370 28.4899
428 29.9305 75.5378 56.8173 27.7740 42.1476 34.0913
429 79.0035 60.1603 15.6762 36.6418 36.1953 7.9864
430 72.6550 15.4122 69.8153 29.5092 15.8840 44.1701
431 43.0383 12.9010 38.1531 9.9707 6.1969 12.8833
432 85.8673 68.0184 28.9867 45.9604 46.1502 13.8307
433 35.4808 16.1234 76.8563 15.8220 8.6984 53.4837
434 79.4884 22.5501 31.9677 28.2137 17.0696 10.5617
435 35.9231 55.4072 65.8206 21.7354 24.9690 41.2192
436 61.2499 47.5271 16.6256 21.7727 21.7688 6.2058
437 38.0039 85.4935 47.7234 34.1033 54.5404 27.8062
438 10.8606 22.1722 81.6813 14.1488 8.6148 61.1246
439 22.4975 82.6669 67.7517 33.0992 50.8745 48.0442
440 60.6818 35.1095 54.2619 22.4317 16.8613 26.9612
441 85.5068 43.4089 38.7832 37.4065 27.8416 16.0093
442 25.4515 21.4018 82.1010 15.8722 9.3494 61.8626
443 59.9722 12.1614 38.1911 16.5821 9.5301 13.2017
444 69.5831 79.1586 43.3483 42.6903 53.1817 23.7180
445 81.5447 31.3488 50.3150 33.3985 21.4891 23.6552
446 29.3525 32.7599 70.9154 15.1549 11.9774 45.6499
447 15.4209 75.6571 12.3464 20.9052 39.2597 8.7388
448 56.6759 67.2625 35.3028 28.7704 36.6771 16.0901
449 60.1262 73.9371 87.4400 45.1163 48.8440 77.0903
450 37.3279 50.7724 22.6256 14.2234 19.3841 7.8608
451 70.4868 86.6168 58.9017 50.5557 63.8913 39.2627
452 76.2925 16.7529 84.7819 36.2558 19.0349 67.1555
453 52.9375 66.7218 16.9742 25.5347 34.7875 8.6047
454 58.8257 58.3535 80.6144 34.9894 33.0283 63.0127
