assets/charts/knut/rgb/colormunki/cm_a3plus_588p_1page_portrait_w10_0mm_fast_reading_speed/chart.ti1
CTI1   

DESCRIPTOR "Argyll Calibration Target chart information 1"
ORIGINATOR "ChromIQ"
APPROX_WHITE_POINT "95.050000 100.000000 108.900000"
COLOR_REP "iRGB"
WHITE_COLOR_PATCHES "1"
BLACK_COLOR_PATCHES "1"
CREATED "Sun Aug 16 17:53:48 2026"

NUMBER_OF_FIELDS 7
BEGIN_DATA_FORMAT
SAMPLE_ID RGB_R RGB_G RGB_B XYZ_X XYZ_Y XYZ_Z
END_DATA_FORMAT

NUMBER_OF_SETS 588
BEGIN_DATA
1 0.0000 0.0000 0.0000 0.9505 1.0000 1.0890
2 0.0000 0.0000 20.0000 1.5421 1.2366 4.2041
3 0.0000 0.0000 40.0000 3.3248 1.9497 13.5918
4 0.0000 0.0000 60.0000 6.6428 3.2769 31.0641
5 0.0000 0.0000 80.0000 11.7406 5.3160 57.9089
6 0.0000 0.0000 100.0000 18.8200 8.1478 95.1885
7 0.0000 20.0000 0.0000 2.1225 3.3440 1.4797
8 0.0000 20.0000 20.0000 2.7141 3.5806 4.5948
9 0.0000 20.0000 40.0000 4.4968 4.2937 13.9825
10 0.0000 20.0000 60.0000 7.8148 5.6209 31.4548
11 0.0000 20.0000 80.0000 12.9126 7.6600 58.2995
12 0.0000 20.0000 100.0000 19.9920 10.4918 95.5792
13 0.0000 40.0000 0.0000 5.6544 10.4077 2.6570
14 0.0000 40.0000 20.0000 6.2459 10.6443 5.7721
15 0.0000 40.0000 40.0000 8.0286 11.3574 15.1598
16 0.0000 40.0000 60.0000 11.3466 12.6846 32.6320
17 0.0000 40.0000 80.0000 16.4445 14.7238 59.4768
18 0.0000 40.0000 100.0000 23.5239 17.5555 96.7565
19 0.0000 60.0000 0.0000 12.2278 23.5546 4.8481
20 0.0000 60.0000 20.0000 12.8194 23.7913 7.9632
21 0.0000 60.0000 40.0000 14.6021 24.5044 17.3509
22 0.0000 60.0000 60.0000 17.9201 25.8315 34.8232
23 0.0000 60.0000 80.0000 23.0179 27.8707 61.6680
24 0.0000 60.0000 100.0000 30.0973 30.7024 98.9476
25 0.0000 80.0000 0.0000 22.3274 43.7539 8.2146
26 0.0000 80.0000 20.0000 22.9190 43.9905 11.3298
27 0.0000 80.0000 40.0000 24.7017 44.7036 20.7175
28 0.0000 80.0000 60.0000 28.0197 46.0308 38.1897
29 0.0000 80.0000 80.0000 33.1175 48.0699 65.0345
30 0.0000 80.0000 100.0000 40.1969 50.9017 102.3141
31 0.0000 100.0000 0.0000 36.3529 71.8048 12.8898
32 0.0000 100.0000 20.0000 36.9445 72.0414 16.0049
33 0.0000 100.0000 40.0000 38.7272 72.7545 25.3926
34 0.0000 100.0000 60.0000 42.0452 74.0817 42.8649
35 0.0000 100.0000 80.0000 47.1430 76.1208 69.7097
36 0.0000 100.0000 100.0000 54.2224 78.9526 106.9893
37 20.0000 0.0000 0.0000 2.3021 1.6968 1.1523
38 20.0000 0.0000 20.0000 2.8937 1.9334 4.2674
39 20.0000 0.0000 40.0000 4.6764 2.6465 13.6551
40 20.0000 0.0000 60.0000 7.9944 3.9737 31.1273
41 20.0000 0.0000 80.0000 13.0922 6.0128 57.9721
42 20.0000 0.0000 100.0000 20.1716 8.8446 95.2518
43 20.0000 20.0000 0.0000 3.4741 4.0407 1.5429
44 20.0000 20.0000 20.0000 4.0656 4.2774 4.6581
45 20.0000 20.0000 40.0000 5.8484 4.9905 14.0458
46 20.0000 20.0000 60.0000 9.1663 6.3177 31.5180
47 20.0000 20.0000 80.0000 14.2642 8.3568 58.3628
48 20.0000 20.0000 100.0000 21.3436 11.1885 95.6424
49 20.0000 40.0000 0.0000 7.0059 11.1045 2.7202
50 20.0000 40.0000 20.0000 7.5975 11.3411 5.8353
51 20.0000 40.0000 40.0000 9.3802 12.0542 15.2230
52 20.0000 40.0000 60.0000 12.6982 13.3814 32.6953
53 20.0000 40.0000 80.0000 17.7960 15.4205 59.5401
54 20.0000 40.0000 100.0000 24.8754 18.2523 96.8197
55 20.0000 60.0000 0.0000 13.5794 24.2514 4.9114
56 20.0000 60.0000 20.0000 14.1710 24.4880 8.0265
57 20.0000 60.0000 40.0000 15.9537 25.2011 17.4142
58 20.0000 60.0000 60.0000 19.2717 26.5283 34.8865
59 20.0000 60.0000 80.0000 24.3695 28.5674 61.7312
60 20.0000 60.0000 100.0000 31.4489 31.3992 99.0109
61 20.0000 80.0000 0.0000 23.6790 44.4506 8.2779
62 20.0000 80.0000 20.0000 24.2706 44.6873 11.3930
63 20.0000 80.0000 40.0000 26.0533 45.4004 20.7807
64 20.0000 80.0000 60.0000 29.3713 46.7276 38.2530
65 20.0000 80.0000 80.0000 34.4691 48.7667 65.0977
66 20.0000 80.0000 100.0000 41.5485 51.5984 102.3774
67 20.0000 100.0000 0.0000 37.7045 72.5016 12.9531
68 20.0000 100.0000 20.0000 38.2961 72.7382 16.0682
69 20.0000 100.0000 40.0000 40.0788 73.4513 25.4559
70 20.0000 100.0000 60.0000 43.3968 74.7785 42.9281
71 20.0000 100.0000 80.0000 48.4946 76.8176 69.7729
72 20.0000 100.0000 100.0000 55.5740 79.6494 107.0526
73 40.0000 0.0000 0.0000 6.3752 3.7965 1.3429
74 40.0000 0.0000 20.0000 6.9668 4.0332 4.4580
75 40.0000 0.0000 40.0000 8.7495 4.7462 13.8457
76 40.0000 0.0000 60.0000 12.0675 6.0734 31.3180
77 40.0000 0.0000 80.0000 17.1653 8.1126 58.1627
78 40.0000 0.0000 100.0000 24.2447 10.9443 95.4424
79 40.0000 20.0000 0.0000 7.5472 6.1405 1.7335
80 40.0000 20.0000 20.0000 8.1387 6.3771 4.8487
81 40.0000 20.0000 40.0000 9.9215 7.0902 14.2364
82 40.0000 20.0000 60.0000 13.2395 8.4174 31.7086
83 40.0000 20.0000 80.0000 18.3373 10.4565 58.5534
84 40.0000 20.0000 100.0000 25.4167 13.2883 95.8330
85 40.0000 40.0000 0.0000 11.0791 13.2042 2.9108
86 40.0000 40.0000 20.0000 11.6706 13.4409 6.0260
87 40.0000 40.0000 40.0000 13.4533 14.1540 15.4137
88 40.0000 40.0000 60.0000 16.7713 15.4812 32.8859
89 40.0000 40.0000 80.0000 21.8691 17.5203 59.7307
90 40.0000 40.0000 100.0000 28.9486 20.3520 97.0103
91 40.0000 60.0000 0.0000 17.6525 26.3512 5.1020
92 40.0000 60.0000 20.0000 18.2441 26.5878 8.2171
93 40.0000 60.0000 40.0000 20.0268 27.3009 17.6048
94 40.0000 60.0000 60.0000 23.3448 28.6281 35.0771
95 40.0000 60.0000 80.0000 28.4426 30.6672 61.9218
96 40.0000 60.0000 100.0000 35.5220 33.4990 99.2015
97 40.0000 80.0000 0.0000 27.7521 46.5504 8.4685
98 40.0000 80.0000 20.0000 28.3437 46.7870 11.5837
99 40.0000 80.0000 40.0000 30.1264 47.5001 20.9714
100 40.0000 80.0000 60.0000 33.4444 48.8273 38.4436
101 40.0000 80.0000 80.0000 38.5422 50.8664 65.2884
102 40.0000 80.0000 100.0000 45.6216 53.6982 102.5680
103 40.0000 100.0000 0.0000 41.7776 74.6013 13.1437
104 40.0000 100.0000 20.0000 42.3692 74.8380 16.2588
105 40.0000 100.0000 40.0000 44.1519 75.5510 25.6465
106 40.0000 100.0000 60.0000 47.4699 76.8782 43.1188
107 40.0000 100.0000 80.0000 52.5677 78.9174 69.9635
108 40.0000 100.0000 100.0000 59.6471 81.7491 107.2432
109 60.0000 0.0000 0.0000 13.9560 7.7046 1.6976
110 60.0000 0.0000 20.0000 14.5476 7.9412 4.8128
111 60.0000 0.0000 40.0000 16.3303 8.6543 14.2005
112 60.0000 0.0000 60.0000 19.6483 9.9815 31.6727
113 60.0000 0.0000 80.0000 24.7461 12.0206 58.5175
114 60.0000 0.0000 100.0000 31.8255 14.8524 95.7971
115 60.0000 20.0000 0.0000 15.1280 10.0486 2.0883
116 60.0000 20.0000 20.0000 15.7196 10.2852 5.2035
117 60.0000 20.0000 40.0000 17.5023 10.9983 14.5912
118 60.0000 20.0000 60.0000 20.8203 12.3255 32.0634
119 60.0000 20.0000 80.0000 25.9181 14.3646 58.9082
120 60.0000 20.0000 100.0000 32.9975 17.1964 96.1878
121 60.0000 40.0000 0.0000 18.6599 17.1123 3.2656
122 60.0000 40.0000 20.0000 19.2514 17.3489 6.3807
123 60.0000 40.0000 40.0000 21.0341 18.0620 15.7684
124 60.0000 40.0000 60.0000 24.3521 19.3892 33.2407
125 60.0000 40.0000 80.0000 29.4500 21.4283 60.0855
126 60.0000 40.0000 100.0000 36.5294 24.2601 97.3651
127 60.0000 60.0000 0.0000 25.2333 30.2592 5.4568
128 60.0000 60.0000 20.0000 25.8249 30.4958 8.5719
129 60.0000 60.0000 40.0000 27.6076 31.2089 17.9596
130 60.0000 60.0000 60.0000 30.9256 32.5361 35.4318
131 60.0000 60.0000 80.0000 36.0234 34.5753 62.2766
132 60.0000 60.0000 100.0000 43.1028 37.4070 99.5563
133 60.0000 80.0000 0.0000 35.3329 50.4585 8.8233
134 60.0000 80.0000 20.0000 35.9245 50.6951 11.9384
135 60.0000 80.0000 40.0000 37.7072 51.4082 21.3261
136 60.0000 80.0000 60.0000 41.0252 52.7354 38.7984
137 60.0000 80.0000 80.0000 46.1230 54.7745 65.6431
138 60.0000 80.0000 100.0000 53.2024 57.6063 102.9228
139 60.0000 100.0000 0.0000 49.3584 78.5094 13.4984
140 60.0000 100.0000 20.0000 49.9500 78.7460 16.6136
141 60.0000 100.0000 40.0000 51.7327 79.4591 26.0013
142 60.0000 100.0000 60.0000 55.0507 80.7863 43.4735
143 60.0000 100.0000 80.0000 60.1485 82.8254 70.3183
144 60.0000 100.0000 100.0000 67.2279 85.6572 107.5979
145 80.0000 0.0000 0.0000 25.6033 13.7090 2.2427
146 80.0000 0.0000 20.0000 26.1949 13.9456 5.3579
147 80.0000 0.0000 40.0000 27.9776 14.6587 14.7456
148 80.0000 0.0000 60.0000 31.2956 15.9859 32.2178
149 80.0000 0.0000 80.0000 36.3934 18.0250 59.0626
150 80.0000 0.0000 100.0000 43.4728 20.8568 96.3422
151 80.0000 20.0000 0.0000 26.7753 16.0530 2.6334
152 80.0000 20.0000 20.0000 27.3669 16.2896 5.7485
153 80.0000 20.0000 40.0000 29.1496 17.0027 15.1362
154 80.0000 20.0000 60.0000 32.4676 18.3299 32.6085
155 80.0000 20.0000 80.0000 37.5654 20.3690 59.4532
156 80.0000 20.0000 100.0000 44.6448 23.2008 96.7329
157 80.0000 40.0000 0.0000 30.3072 23.1167 3.8107
158 80.0000 40.0000 20.0000 30.8987 23.3533 6.9258
159 80.0000 40.0000 40.0000 32.6815 24.0664 16.3135
160 80.0000 40.0000 60.0000 35.9995 25.3936 33.7858
161 80.0000 40.0000 80.0000 41.0973 27.4327 60.6305
162 80.0000 40.0000 100.0000 48.1767 30.2645 97.9102
163 80.0000 60.0000 0.0000 36.8806 36.2636 6.0018
164 80.0000 60.0000 20.0000 37.4722 36.5003 9.1170
165 80.0000 60.0000 40.0000 39.2549 37.2134 18.5047
166 80.0000 60.0000 60.0000 42.5729 38.5405 35.9769
167 80.0000 60.0000 80.0000 47.6707 40.5797 62.8217
168 80.0000 60.0000 100.0000 54.7501 43.4114 100.1013
169 80.0000 80.0000 0.0000 46.9803 56.4629 9.3684
170 80.0000 80.0000 20.0000 47.5718 56.6995 12.4835
171 80.0000 80.0000 40.0000 49.3545 57.4126 21.8712
172 80.0000 80.0000 60.0000 52.6725 58.7398 39.3435
173 80.0000 80.0000 80.0000 57.7704 60.7789 66.1882
174 80.0000 80.0000 100.0000 64.8498 63.6107 103.4679
175 80.0000 100.0000 0.0000 61.0057 84.5138 14.0435
176 80.0000 100.0000 20.0000 61.5973 84.7504 17.1587
177 80.0000 100.0000 40.0000 63.3800 85.4635 26.5464
178 80.0000 100.0000 60.0000 66.6980 86.7907 44.0186
179 80.0000 100.0000 80.0000 71.7958 88.8298 70.8634
180 80.0000 100.0000 100.0000 78.8752 91.6616 108.1430
181 100.0000 0.0000 0.0000 41.7781 22.0474 2.9997
182 100.0000 0.0000 20.0000 42.3697 22.2840 6.1148
183 100.0000 0.0000 40.0000 44.1524 22.9971 15.5025
184 100.0000 0.0000 60.0000 47.4704 24.3243 32.9748
185 100.0000 0.0000 80.0000 52.5682 26.3634 59.8196
186 100.0000 0.0000 100.0000 59.6476 29.1952 97.0992
187 100.0000 20.0000 0.0000 42.9501 24.3914 3.3904
188 100.0000 20.0000 20.0000 43.5417 24.6280 6.5055
189 100.0000 20.0000 40.0000 45.3244 25.3411 15.8932
190 100.0000 20.0000 60.0000 48.6424 26.6683 33.3655
191 100.0000 20.0000 80.0000 53.7402 28.7074 60.2102
192 100.0000 20.0000 100.0000 60.8196 31.5392 97.4899
193 100.0000 40.0000 0.0000 46.4820 31.4551 4.5677
194 100.0000 40.0000 20.0000 47.0735 31.6917 7.6828
195 100.0000 40.0000 40.0000 48.8562 32.4048 17.0705
196 100.0000 40.0000 60.0000 52.1742 33.7320 34.5427
197 100.0000 40.0000 80.0000 57.2721 35.7712 61.3875
198 100.0000 40.0000 100.0000 64.3515 38.6029 98.6672
199 100.0000 60.0000 0.0000 53.0554 44.6020 6.7588
200 100.0000 60.0000 20.0000 53.6470 44.8387 9.8739
201 100.0000 60.0000 40.0000 55.4297 45.5518 19.2616
202 100.0000 60.0000 60.0000 58.7477 46.8789 36.7339
203 100.0000 60.0000 80.0000 63.8455 48.9181 63.5787
204 100.0000 60.0000 100.0000 70.9249 51.7498 100.8583
205 100.0000 80.0000 0.0000 63.1550 64.8013 10.1253
206 100.0000 80.0000 20.0000 63.7466 65.0379 13.2405
207 100.0000 80.0000 40.0000 65.5293 65.7510 22.6282
208 100.0000 80.0000 60.0000 68.8473 67.0782 40.1004
209 100.0000 80.0000 80.0000 73.9451 69.1173 66.9452
210 100.0000 80.0000 100.0000 81.0245 71.9491 104.2248
211 100.0000 100.0000 0.0000 77.1805 92.8522 14.8005
212 100.0000 100.0000 20.0000 77.7721 93.0888 17.9156
213 100.0000 100.0000 40.0000 79.5548 93.8019 27.3033
214 100.0000 100.0000 60.0000 82.8728 95.1291 44.7756
215 100.0000 100.0000 80.0000 87.9706 97.1682 71.6204
216 100.0000 100.0000 100.0000 95.0500 100.0000 108.9000
217 71.7316 63.0300 57.1276 37.9454 38.1413 33.0995
218 83.9016 71.0212 62.0963 50.9090 50.3605 40.1624
219 93.2539 79.9971 70.8734 65.3951 65.0028 53.1799
220 99.4270 89.9894 83.6815 81.0557 82.2874 75.1342
221 69.9704 63.7066 56.3088 37.0462 38.1413 32.3139
222 81.2781 72.0656 60.8480 49.2890 50.3605 38.8399
223 90.5595 81.0577 69.6008 63.4738 65.0028 51.5763
224 97.5238 90.7024 82.8109 79.5479 82.2874 73.7575
225 68.1392 55.5166 50.2397 31.5547 30.4520 25.4166
226 81.4775 62.7464 54.8112 43.7532 41.0015 31.0285
227 90.8624 71.5494 63.4036 56.8802 53.8102 42.0274
228 95.7433 81.9669 76.2719 70.2070 69.0971 61.3995
229 66.4590 56.2865 48.6657 30.6603 30.4520 24.1181
230 78.9530 63.9622 52.4068 42.1044 41.0015 28.8387
231 88.2709 72.7761 60.9497 54.9074 53.8102 39.3229
232 93.9254 82.7688 74.5908 68.6617 69.0971 59.0096
233 64.1411 49.8857 43.1136 26.3407 24.9609 18.9630
234 77.8465 56.7452 46.5368 37.3950 34.2227 22.7560
235 87.2415 65.4081 54.9148 49.2462 45.6079 31.7291
236 91.6299 75.9172 68.5758 61.0873 59.3359 49.2641
237 62.0415 50.8596 41.3588 25.3605 24.9609 17.7827
238 74.6929 58.2962 43.8342 35.5582 34.2227 20.7892
239 83.9966 66.9695 52.1608 47.0268 45.6079 29.2427
240 89.3413 76.9280 66.7004 59.3399 59.3359 46.9636
241 57.8997 40.2001 32.6256 19.2844 17.3288 11.4154
242 72.3964 46.1260 34.7453 28.8034 24.6099 13.4480
243 81.8543 54.5507 42.7790 38.7986 33.7860 19.7700
244 85.2890 65.4810 57.1388 48.2131 45.0762 33.9084
245 55.4767 41.4633 30.2370 18.3086 17.3288 10.2960
246 68.7252 48.1949 30.9981 26.9066 24.6099 11.6098
247 78.0724 56.6106 38.9821 36.4664 33.7860 17.3324
248 82.6307 66.7673 54.5867 46.3696 45.0762 31.4590
249 43.3928 27.7735 22.2998 10.3445 9.0536 5.9631
250 56.8255 33.3360 25.1301 16.6292 13.7515 7.5380
251 65.9502 41.3765 32.7694 23.5939 19.9926 11.7764
252 69.7229 51.8474 45.6172 30.4167 27.9961 21.2024
253 41.5096 28.8496 20.0483 9.8072 9.0536 5.2914
254 53.9319 35.1289 21.5702 15.5168 13.7515 6.3613
255 62.9599 43.1433 29.1565 22.1685 19.9926 10.1116
256 67.6315 52.9270 43.1793 29.2583 27.9961 19.4425
257 28.0553 20.4052 18.8539 5.3094 4.9928 4.4066
258 38.5019 26.7879 24.4429 8.8912 8.0585 6.5918
259 46.7806 34.4674 31.9761 13.4582 12.3914 10.4406
260 52.3123 43.4453 41.6201 18.7754 18.2105 17.0063
261 26.2827 19.6086 16.5704 4.7911 4.6080 3.7753
262 37.5369 27.3692 22.6866 8.6046 8.0585 5.9913
263 45.7823 35.0503 30.1535 13.0696 12.3914 9.5801
264 50.4680 42.6645 39.1958 17.5343 17.2912 15.2827
265 0.0000 0.0000 2.0000 0.9782 1.0111 1.2347
266 2.8571 2.8571 2.8571 1.1586 1.2189 1.3274
267 5.7143 5.7143 5.7143 1.3842 1.4563 1.5859
268 8.5714 8.5714 8.5714 1.6983 1.7868 1.9458
269 11.4286 11.4286 11.4286 2.1159 2.2261 2.4242
270 14.2857 14.2857 14.2857 2.6449 2.7827 3.0303
271 17.1429 17.1429 17.1429 3.2927 3.4641 3.7724
272 18.8453 18.8453 18.8453 3.7378 3.9324 4.2824
273 22.8571 22.8571 22.8571 4.9700 5.2288 5.6942
274 25.7143 25.7143 25.7143 6.0114 6.3245 6.8874
275 28.5714 28.5714 28.5714 7.1953 7.5700 8.2437
276 31.4286 31.4286 31.4286 8.5267 8.9708 9.7691
277 34.2857 34.2857 34.2857 10.0105 10.5318 11.4691
278 37.1429 37.1429 37.1429 11.6512 12.2580 13.3489
279 38.8453 38.8453 38.8453 12.7053 13.3670 14.5566
280 42.8571 42.8571 42.8571 15.4211 16.2242 17.6682
281 45.7143 45.7143 45.7143 17.5586 18.4730 20.1171
282 48.5714 48.5714 48.5714 19.8698 20.9045 22.7650
283 51.4286 51.4286 51.4286 22.3584 23.5228 25.6163
284 54.2857 54.2857 54.2857 25.0282 26.3316 28.6751
285 57.1429 57.1429 57.1429 27.8828 29.3349 31.9457
286 58.8453 58.8453 58.8453 29.6730 31.2183 33.9967
287 62.8571 62.8571 62.8571 34.1600 35.9390 39.1376
288 65.7143 65.7143 65.7143 37.5894 39.5470 43.0667
289 68.5714 68.5714 68.5714 41.2169 43.3634 47.2228
290 71.4286 71.4286 71.4286 45.0458 47.3916 51.6095
291 74.2857 74.2857 74.2857 49.0789 51.6349 56.2304
292 77.1429 77.1429 77.1429 53.3195 56.0963 61.0888
293 78.0000 80.0000 80.0000 56.4089 60.0771 66.1245
294 82.8571 82.8571 82.8571 62.4344 65.6858 71.5319
295 85.7143 85.7143 85.7143 67.3145 70.8201 77.1230
296 88.5714 88.5714 88.5714 72.4133 76.1844 82.9648
297 91.4286 91.4286 91.4286 77.7336 81.7818 89.0604
298 94.2857 94.2857 94.2857 83.2781 87.6151 95.4128
299 97.1429 97.1429 97.1429 89.0494 93.6869 102.0250
300 98.0000 100.0000 100.0000 93.2170 99.0551 108.8142
301 2.3094 0.0000 0.0000 1.0235 1.0376 1.0924
302 2.3094 0.0000 2.0000 1.0511 1.0487 1.2381
303 0.0000 2.3094 0.0000 1.0138 1.1266 1.1101
304 0.0000 2.3094 2.0000 1.0414 1.1376 1.2558
305 0.0000 0.0000 4.3094 1.0102 1.0239 1.4036
306 0.0000 2.1213 4.4307 1.0702 1.1409 1.4324
307 5.1516 0.0000 0.0000 1.1168 1.0857 1.0968
308 3.9969 1.1547 1.1547 1.1244 1.1348 1.1896
309 2.6165 2.5351 0.0000 1.1026 1.1816 1.1160
310 0.2257 4.9259 0.0000 1.0946 1.2777 1.1350
311 0.0000 5.1516 2.0000 1.1224 1.2995 1.2827
312 0.0000 7.1516 0.0000 1.1685 1.4359 1.1617
313 2.1213 5.8926 1.3804 1.2061 1.3812 1.2492
314 0.0000 1.3804 6.7712 1.0906 1.1165 1.6400
315 2.0000 0.0000 5.1516 1.0865 1.0617 1.4753
316 2.1213 0.0000 7.2729 1.1301 1.0796 1.6849
317 3.5017 0.0000 3.7712 1.1133 1.0779 1.3688
318 5.5033 0.0000 3.1124 1.1734 1.1099 1.3241
319 8.9761 4.3573 6.6667 1.5177 1.4586 1.6726
320 8.9761 6.6667 4.3573 1.5567 1.6001 1.4897
321 6.6667 8.9761 4.3573 1.5409 1.7445 1.5184
322 4.3573 8.9761 6.6667 1.4899 1.7136 1.7233
323 4.3573 6.6667 8.9761 1.4390 1.5289 1.9621
324 6.6667 4.3573 8.9761 1.4511 1.4183 1.9401
325 11.8183 2.8954 5.2863 1.6389 1.4640 1.5355
326 11.8183 5.2863 2.8954 1.6732 1.5886 1.3744
327 10.4379 8.0470 1.5151 1.6658 1.7476 1.3054
328 8.0470 10.4379 1.5151 1.6470 1.9198 1.3397
329 5.2863 11.8183 2.8954 1.6250 2.0305 1.4623
330 2.8954 11.8183 5.2863 1.5801 2.0033 1.6427
331 1.5151 10.4379 8.0470 1.5074 1.8353 1.9004
332 1.5151 8.0470 10.4379 1.4467 1.6149 2.1852
333 2.8954 5.2863 11.8183 1.4244 1.4379 2.3736
334 5.2863 2.8954 11.8183 1.4350 1.3405 2.3543
335 8.0470 1.5151 10.4379 1.4797 1.3123 2.1251
336 10.4379 1.5151 8.0470 1.5592 1.3604 1.8060
337 15.6427 11.0239 13.3333 2.5121 2.3862 2.7725
338 15.6427 13.3333 11.0239 2.5877 2.6605 2.4178
339 13.3333 15.6427 11.0239 2.5599 2.9152 2.4684
340 11.0239 15.6427 13.3333 2.4610 2.8553 2.8657
341 11.0239 13.3333 15.6427 2.3712 2.5295 3.2870
342 13.3333 11.0239 15.6427 2.3946 2.3150 3.2443
343 18.4849 9.5621 11.9530 2.6867 2.3593 2.5079
344 18.4849 11.9530 9.5621 2.7563 2.6119 2.1813
345 17.1046 14.7137 8.1817 2.7664 2.9170 2.0591
346 14.7137 17.1046 8.1817 2.7348 3.2073 2.1168
347 11.9530 18.4849 9.5621 2.6735 3.3709 2.3322
348 9.5621 18.4849 11.9530 2.5824 3.3157 2.6980
349 8.1817 17.1046 14.7137 2.4701 3.0471 3.1795
350 8.1817 14.7137 17.1046 2.3679 2.6757 3.6596
351 9.5621 11.9530 18.4849 2.3150 2.3447 3.9534
352 11.9530 9.5621 18.4849 2.3365 2.1472 3.9141
353 14.7137 8.1817 17.1046 2.4304 2.1022 3.5456
354 17.1046 8.1817 14.7137 2.5643 2.1833 3.0078
355 22.3094 17.6906 20.0000 4.1395 3.9610 4.5931
356 22.3094 20.0000 17.6906 4.2577 4.3903 4.0380
357 20.0000 22.3094 17.6906 4.2162 4.7713 4.1137
358 17.6906 22.3094 20.0000 4.0613 4.6776 4.7355
359 17.6906 20.0000 22.3094 3.9271 4.1901 5.3657
360 20.0000 17.6906 22.3094 3.9637 3.8545 5.2990
361 25.1516 16.2288 18.6196 4.3683 3.8871 4.1791
362 23.9969 17.4649 15.0741 4.1324 3.9527 3.3436
363 23.7712 21.3804 14.8484 4.5067 4.7680 3.4328
364 21.3804 23.7712 14.8484 4.4604 5.1922 3.5171
365 18.6196 25.1516 16.2288 4.3587 5.4162 3.8735
366 16.2288 25.1516 18.6196 4.2113 5.3270 4.4653
367 14.8484 23.7712 21.3804 4.0401 4.9377 5.2051
368 14.8484 21.3804 23.7712 3.8906 4.3950 5.9067
369 16.2288 18.6196 25.1516 3.8165 3.8935 6.3186
370 18.6196 16.2288 25.1516 3.8513 3.5741 6.2551
371 21.3804 14.8484 23.7712 3.9899 3.4840 5.7256
372 23.7712 14.8484 21.3804 4.1857 3.6025 4.9397
373 28.9761 24.3573 26.6667 6.4822 6.2729 7.2294
374 28.9761 26.6667 24.3573 6.6481 6.8754 6.4504
375 26.6667 28.9761 24.3573 6.5913 7.3961 6.5540
376 24.3573 28.9761 26.6667 6.3741 7.2645 7.4265
377 24.3573 26.6667 28.9761 6.1906 6.5983 8.2878
378 26.6667 24.3573 28.9761 6.2419 6.1274 8.1942
379 31.8183 22.8954 25.2863 6.7684 6.1440 6.6484
380 31.8183 25.2863 22.8954 6.9293 6.7281 5.8933
381 30.4379 28.0470 21.5151 6.9730 7.3865 5.5656
382 28.0470 30.4379 21.5151 6.9107 7.9580 5.6792
383 25.2863 31.8183 22.8954 6.7636 8.2475 6.1953
384 22.8954 31.8183 25.2863 6.5529 8.1200 7.0412
385 21.5151 30.4379 28.0470 6.3157 7.5978 8.0683
386 21.5151 28.0470 30.4379 6.1143 6.8666 9.0137
387 22.8954 25.2863 31.8183 6.0175 6.1761 9.5544
388 25.2863 22.8954 31.8183 6.0673 5.7195 9.4636
389 28.0470 21.5151 30.4379 6.2549 5.5771 8.7574
390 30.4379 21.5151 28.0470 6.5186 5.7368 7.6984
391 35.6427 31.0239 33.3333 9.6102 9.3976 10.7619
392 35.6427 33.3333 31.0239 9.8281 10.1888 9.7389
393 33.3333 35.6427 31.0239 9.7548 10.8610 9.8725
394 31.0239 35.6427 33.3333 9.4694 10.6882 11.0184
395 31.0239 33.3333 35.6427 9.2326 9.8283 12.1302
396 33.3333 31.0239 35.6427 9.3000 9.2098 12.0073
397 38.4849 29.5621 31.9530 9.9567 9.2070 9.9989
398 38.4849 31.9530 29.5621 10.1705 9.9833 8.9954
399 37.1046 34.7137 28.1817 10.2341 10.8442 8.5463
400 34.7137 37.1046 28.1817 10.1544 11.5750 8.6916
401 31.9530 38.4849 29.5621 9.9578 11.9344 9.3832
402 29.5621 38.4849 31.9530 9.6778 11.7649 10.5074
403 28.1817 37.1046 34.7137 9.3686 11.0992 11.8470
404 28.1817 34.7137 37.1046 9.1111 10.1643 13.0558
405 29.5621 31.9530 38.4849 8.9903 9.2687 13.7345
406 31.9530 29.5621 38.4849 9.0565 8.6620 13.6139
407 34.7137 28.1817 37.1046 9.2968 8.4612 12.7172
408 37.1046 28.1817 34.7137 9.6340 8.6653 11.3633
409 42.3094 37.6906 40.0000 13.5850 13.4012 15.2614
410 42.3094 40.0000 37.6906 13.8588 14.3952 13.9764
411 40.0000 42.3094 37.6906 13.7678 15.2293 14.1422
412 37.6906 42.3094 40.0000 13.4093 15.0123 15.5817
413 37.6906 40.0000 42.3094 13.1154 13.9452 16.9613
414 40.0000 37.6906 42.3094 13.2001 13.1682 16.8069
415 45.1516 36.2288 38.6196 13.9947 13.1433 14.3031
416 45.1516 38.6196 36.2288 14.2655 14.1264 13.0320
417 43.7712 41.3804 34.8484 14.3507 15.2045 12.4514
418 41.3804 43.7712 34.8484 14.2525 16.1052 12.6304
419 38.6196 45.1516 36.2288 14.0025 16.5386 13.5115
420 36.2288 45.1516 38.6196 13.6479 16.3239 14.9353
421 34.8484 43.7712 41.3804 13.2615 15.5051 16.6100
422 34.8484 41.3804 43.7712 12.9441 14.3529 18.0996
423 36.2288 38.6196 45.1516 12.7980 13.2379 18.9250
424 38.6196 36.2288 45.1516 12.8818 12.4694 18.7723
425 41.3804 34.8484 43.7712 13.1783 12.2050 17.6727
426 43.7712 34.8484 41.3804 13.5938 12.4566 16.0041
427 48.9761 44.3573 46.6667 18.4622 18.3434 20.7919
428 48.9761 46.6667 44.3573 18.7952 19.5526 19.2285
429 46.6667 48.9761 44.3573 18.6856 20.5583 19.4284
430 44.3573 48.9761 46.6667 18.2495 20.2942 21.1796
431 44.3573 46.6667 48.9761 17.8951 19.0077 22.8430
432 46.6667 44.3573 48.9761 17.9982 18.0625 22.6551
433 51.8183 42.8954 45.2863 18.9377 18.0128 19.6260
434 51.8183 45.2863 42.8954 19.2692 19.2162 18.0702
435 50.4379 48.0470 41.5151 19.3775 20.5248 17.3489
436 48.0470 50.4379 41.5151 19.2597 21.6050 17.5636
437 45.2863 51.8183 42.8954 18.9530 22.1162 18.6467
438 42.8954 51.8183 45.2863 18.5190 21.8534 20.3894
439 41.5151 50.4379 48.0470 18.0504 20.8728 22.4195
440 41.5151 48.0470 50.4379 17.6698 19.4909 24.2061
441 42.8954 45.2863 51.8183 17.4971 18.1433 25.1859
442 45.2863 42.8954 51.8183 17.5997 17.2027 24.9990
443 48.0470 41.5151 50.4379 17.9556 16.8701 23.6851
444 50.4379 41.5151 48.0470 18.4540 17.1718 21.6838
445 55.6427 51.0239 53.3333 24.2924 24.2782 27.4115
446 55.6427 53.3333 51.0239 24.6879 25.7143 25.5549
447 53.3333 55.6427 51.0239 24.5586 26.9003 25.7906
448 51.0239 55.6427 53.3333 24.0407 26.5867 27.8704
449 51.0239 53.3333 55.6427 23.6228 25.0695 29.8319
450 53.3333 51.0239 55.6427 23.7452 23.9469 29.6088
451 58.4849 49.5621 51.9530 24.8364 23.8705 26.0269
452 58.4849 51.9530 49.5621 25.2318 25.3062 24.1707
453 57.1046 54.7137 48.1817 25.3646 26.8575 23.3004
454 54.7137 57.1046 48.1817 25.2263 28.1262 23.5526
455 51.9530 58.4849 49.5621 24.8597 28.7188 24.8490
456 49.5621 58.4849 51.9530 24.3419 28.4053 26.9283
457 48.1817 57.1046 54.7137 23.7869 27.2548 29.3326
458 48.1817 54.7137 57.1046 23.3398 25.6317 31.4310
459 49.5621 51.9530 58.4849 23.1394 24.0394 32.5726
460 51.9530 49.5621 58.4849 23.2618 22.9172 32.3496
461 54.7137 48.1817 57.1046 23.6800 22.5120 30.8109
462 57.1046 48.1817 54.7137 24.2653 22.8664 28.4603
463 62.3094 57.6906 60.0000 31.1226 31.2559 35.1743
464 62.3094 60.0000 57.6906 31.5836 32.9296 33.0105
465 60.0000 62.3094 57.6906 31.4337 34.3041 33.2837
466 57.6906 62.3094 60.0000 30.8301 33.9386 35.7076
467 57.6906 60.0000 62.3094 30.3457 32.1802 37.9810
