assets/charts/knut/rgb/i1pro/i1_w8_a4_2288p_4pages_portrait_w8_0mm/chart.ti1
CTI1   

DESCRIPTOR "Argyll Calibration Target chart information 1"
ORIGINATOR "ChromIQ"
APPROX_WHITE_POINT "95.050000 100.000000 108.900000"
COLOR_REP "iRGB"
WHITE_COLOR_PATCHES "2"
BLACK_COLOR_PATCHES "2"
CREATED "Mon Aug 24 21:11:43 2026"

NUMBER_OF_FIELDS 7
BEGIN_DATA_FORMAT
SAMPLE_ID RGB_R RGB_G RGB_B XYZ_X XYZ_Y XYZ_Z
END_DATA_FORMAT

NUMBER_OF_SETS 2288
BEGIN_DATA
1 0.0000 0.0000 0.0000 0.9505 1.0000 1.0890
2 0.0000 0.0000 9.0909 1.1054 1.0620 1.9048
3 0.0000 0.0000 18.1818 1.4458 1.1981 3.6974
4 0.0000 0.0000 27.2727 2.0308 1.4321 6.7777
5 0.0000 0.0000 36.3636 2.8946 1.7776 11.3264
6 0.0000 0.0000 45.4545 4.0661 2.2463 17.4957
7 0.0000 0.0000 54.5455 5.5707 2.8481 25.4185
8 0.0000 0.0000 63.6364 7.4309 3.5922 35.2143
9 0.0000 0.0000 72.7273 9.6675 4.4868 46.9920
10 0.0000 0.0000 81.8182 12.2995 5.5396 60.8520
11 0.0000 0.0000 90.9091 15.3448 6.7577 76.8882
12 0.0000 0.0000 100.0000 18.8200 8.1478 95.1885
13 0.0000 9.0909 0.0000 1.2574 1.6138 1.1913
14 0.0000 9.0909 9.0909 1.4123 1.6758 2.0071
15 0.0000 9.0909 18.1818 1.7528 1.8120 3.7997
16 0.0000 9.0909 27.2727 2.3377 2.0460 6.8800
17 0.0000 9.0909 36.3636 3.2015 2.3915 11.4287
18 0.0000 9.0909 45.4545 4.3730 2.8601 17.5980
19 0.0000 9.0909 54.5455 5.8776 3.4619 25.5208
20 0.0000 9.0909 63.6364 7.7378 4.2060 35.3167
21 0.0000 9.0909 72.7273 9.9744 5.1006 47.0943
22 0.0000 9.0909 81.8182 12.6064 6.1534 60.9543
23 0.0000 9.0909 90.9091 15.6517 7.3715 76.9905
24 0.0000 9.0909 100.0000 19.1269 8.7616 95.2908
25 0.0000 18.1818 0.0000 1.9318 2.9627 1.4161
26 0.0000 18.1818 9.0909 2.0868 3.0247 2.2319
27 0.0000 18.1818 18.1818 2.4272 3.1608 4.0245
28 0.0000 18.1818 27.2727 3.0121 3.3948 7.1048
29 0.0000 18.1818 36.3636 3.8759 3.7403 11.6535
30 0.0000 18.1818 45.4545 5.0475 4.2089 17.8228
31 0.0000 18.1818 54.5455 6.5520 4.8108 25.7456
32 0.0000 18.1818 63.6364 8.4123 5.5549 35.5415
33 0.0000 18.1818 72.7273 10.6488 6.4495 47.3191
34 0.0000 18.1818 81.8182 13.2809 7.5023 61.1792
35 0.0000 18.1818 90.9091 16.3261 8.7204 77.2153
36 0.0000 18.1818 100.0000 19.8013 10.1105 95.5156
37 0.0000 27.2727 0.0000 3.0907 5.2804 1.8024
38 0.0000 27.2727 9.0909 3.2456 5.3424 2.6182
39 0.0000 27.2727 18.1818 3.5861 5.4786 4.4108
40 0.0000 27.2727 27.2727 4.1710 5.7125 7.4911
41 0.0000 27.2727 36.3636 5.0348 6.0581 12.0398
42 0.0000 27.2727 45.4545 6.2063 6.5267 18.2091
43 0.0000 27.2727 54.5455 7.7109 7.1285 26.1319
44 0.0000 27.2727 63.6364 9.5711 7.8726 35.9278
45 0.0000 27.2727 72.7273 11.8077 8.7672 47.7054
46 0.0000 27.2727 81.8182 14.4397 9.8200 61.5654
47 0.0000 27.2727 90.9091 17.4850 11.0381 77.6016
48 0.0000 27.2727 100.0000 20.9602 12.4282 95.9019
49 0.0000 36.3636 0.0000 4.8020 8.7031 2.3728
50 0.0000 36.3636 9.0909 4.9570 8.7651 3.1886
51 0.0000 36.3636 18.1818 5.2974 8.9012 4.9813
52 0.0000 36.3636 27.2727 5.8823 9.1352 8.0615
53 0.0000 36.3636 36.3636 6.7461 9.4807 12.6103
54 0.0000 36.3636 45.4545 7.9177 9.9493 18.7795
55 0.0000 36.3636 54.5455 9.4222 10.5512 26.7024
56 0.0000 36.3636 63.6364 11.2825 11.2953 36.4982
57 0.0000 36.3636 72.7273 13.5190 12.1899 48.2758
58 0.0000 36.3636 81.8182 16.1511 13.2427 62.1359
59 0.0000 36.3636 90.9091 19.1963 14.4608 78.1720
60 0.0000 36.3636 100.0000 22.6715 15.8509 96.4723
61 0.0000 45.4545 0.0000 7.1231 13.3451 3.1465
62 0.0000 45.4545 9.0909 7.2780 13.4071 3.9623
63 0.0000 45.4545 18.1818 7.6184 13.5433 5.7549
64 0.0000 45.4545 27.2727 8.2033 13.7772 8.8352
65 0.0000 45.4545 36.3636 9.0672 14.1228 13.3839
66 0.0000 45.4545 45.4545 10.2387 14.5914 19.5532
67 0.0000 45.4545 54.5455 11.7432 15.1932 27.4761
68 0.0000 45.4545 63.6364 13.6035 15.9373 37.2719
69 0.0000 45.4545 72.7273 15.8400 16.8319 49.0495
70 0.0000 45.4545 81.8182 18.4721 17.8847 62.9096
71 0.0000 45.4545 90.9091 21.5173 19.1028 78.9457
72 0.0000 45.4545 100.0000 24.9926 20.4929 97.2460
73 0.0000 54.5455 0.0000 10.1038 19.3067 4.1401
74 0.0000 54.5455 9.0909 10.2587 19.3686 4.9559
75 0.0000 54.5455 18.1818 10.5992 19.5048 6.7485
76 0.0000 54.5455 27.2727 11.1841 19.7388 9.8288
77 0.0000 54.5455 36.3636 12.0479 20.0843 14.3775
78 0.0000 54.5455 45.4545 13.2195 20.5529 20.5468
79 0.0000 54.5455 54.5455 14.7240 21.1547 28.4696
80 0.0000 54.5455 63.6364 16.5842 21.8988 38.2655
81 0.0000 54.5455 72.7273 18.8208 22.7935 50.0431
82 0.0000 54.5455 81.8182 21.4528 23.8463 63.9031
83 0.0000 54.5455 90.9091 24.4981 25.0644 79.9393
84 0.0000 54.5455 100.0000 27.9733 26.4545 98.2396
85 0.0000 63.6364 0.0000 13.7892 26.6775 5.3686
86 0.0000 63.6364 9.0909 13.9442 26.7395 6.1844
87 0.0000 63.6364 18.1818 14.2846 26.8756 7.9770
88 0.0000 63.6364 27.2727 14.8695 27.1096 11.0573
89 0.0000 63.6364 36.3636 15.7333 27.4551 15.6060
90 0.0000 63.6364 45.4545 16.9049 27.9237 21.7753
91 0.0000 63.6364 54.5455 18.4094 28.5256 29.6981
92 0.0000 63.6364 63.6364 20.2696 29.2696 39.4939
93 0.0000 63.6364 72.7273 22.5062 30.1643 51.2716
94 0.0000 63.6364 81.8182 25.1382 31.2171 65.1316
95 0.0000 63.6364 90.9091 28.1835 32.4352 81.1678
96 0.0000 63.6364 100.0000 31.6587 33.8253 99.4681
97 0.0000 72.7273 0.0000 18.2203 35.5395 6.8456
98 0.0000 72.7273 9.0909 18.3752 35.6015 7.6614
99 0.0000 72.7273 18.1818 18.7156 35.7377 9.4540
100 0.0000 72.7273 27.2727 19.3005 35.9716 12.5343
101 0.0000 72.7273 36.3636 20.1644 36.3172 17.0830
102 0.0000 72.7273 45.4545 21.3359 36.7858 23.2523
103 0.0000 72.7273 54.5455 22.8404 37.3876 31.1751
104 0.0000 72.7273 63.6364 24.7007 38.1317 40.9709
105 0.0000 72.7273 72.7273 26.9372 39.0263 52.7486
106 0.0000 72.7273 81.8182 29.5693 40.0791 66.6086
107 0.0000 72.7273 90.9091 32.6145 41.2972 82.6448
108 0.0000 72.7273 100.0000 36.0898 42.6873 100.9451
109 0.0000 81.8182 0.0000 23.4347 45.9685 8.5837
110 0.0000 81.8182 9.0909 23.5897 46.0304 9.3995
111 0.0000 81.8182 18.1818 23.9301 46.1666 11.1922
112 0.0000 81.8182 27.2727 24.5150 46.4006 14.2724
113 0.0000 81.8182 36.3636 25.3788 46.7461 18.8212
114 0.0000 81.8182 45.4545 26.5504 47.2147 24.9904
115 0.0000 81.8182 54.5455 28.0549 47.8165 32.9133
116 0.0000 81.8182 63.6364 29.9151 48.5606 42.7091
117 0.0000 81.8182 72.7273 32.1517 49.4553 54.4867
118 0.0000 81.8182 81.8182 34.7837 50.5081 68.3468
119 0.0000 81.8182 90.9091 37.8290 51.7262 84.3829
120 0.0000 81.8182 100.0000 41.3042 53.1163 102.6832
121 0.0000 90.9091 0.0000 29.4679 58.0348 10.5948
122 0.0000 90.9091 9.0909 29.6228 58.0968 11.4106
123 0.0000 90.9091 18.1818 29.9632 58.2329 13.2032
124 0.0000 90.9091 27.2727 30.5482 58.4669 16.2835
125 0.0000 90.9091 36.3636 31.4120 58.8124 20.8322
126 0.0000 90.9091 45.4545 32.5835 59.2811 27.0015
127 0.0000 90.9091 54.5455 34.0881 59.8829 34.9243
128 0.0000 90.9091 63.6364 35.9483 60.6270 44.7201
129 0.0000 90.9091 72.7273 38.1849 61.5216 56.4978
130 0.0000 90.9091 81.8182 40.8169 62.5744 70.3578
131 0.0000 90.9091 90.9091 43.8622 63.7925 86.3940
132 0.0000 90.9091 100.0000 47.3374 65.1826 104.6943
133 0.0000 100.0000 0.0000 36.3529 71.8048 12.8898
134 0.0000 100.0000 9.0909 36.5078 71.8668 13.7056
135 0.0000 100.0000 18.1818 36.8482 72.0029 15.4982
136 0.0000 100.0000 27.2727 37.4332 72.2369 18.5785
137 0.0000 100.0000 36.3636 38.2970 72.5824 23.1272
138 0.0000 100.0000 45.4545 39.4685 73.0511 29.2965
139 0.0000 100.0000 54.5455 40.9731 73.6529 37.2193
140 0.0000 100.0000 63.6364 42.8333 74.3970 47.0151
141 0.0000 100.0000 72.7273 45.0699 75.2916 58.7928
142 0.0000 100.0000 81.8182 47.7019 76.3444 72.6528
143 0.0000 100.0000 90.9091 50.7472 77.5625 88.6890
144 0.0000 100.0000 100.0000 54.2224 78.9526 106.9893
145 9.0909 0.0000 0.0000 1.3045 1.1825 1.1056
146 9.0909 0.0000 9.0909 1.4594 1.2444 1.9214
147 9.0909 0.0000 18.1818 1.7998 1.3806 3.7140
148 9.0909 0.0000 27.2727 2.3847 1.6146 6.7942
149 9.0909 0.0000 36.3636 3.2485 1.9601 11.3430
150 9.0909 0.0000 45.4545 4.4201 2.4287 17.5122
151 9.0909 0.0000 54.5455 5.9246 3.0305 25.4351
152 9.0909 0.0000 63.6364 7.7849 3.7746 35.2309
153 9.0909 0.0000 72.7273 10.0214 4.6693 47.0086
154 9.0909 0.0000 81.8182 12.6535 5.7221 60.8686
155 9.0909 0.0000 90.9091 15.6987 6.9402 76.9048
156 9.0909 0.0000 100.0000 19.1740 8.3303 95.2051
157 9.0909 9.0909 0.0000 1.6114 1.7963 1.2079
158 9.0909 9.0909 9.0909 1.7663 1.8583 2.0237
159 9.0909 9.0909 18.1818 2.1067 1.9944 3.8163
160 9.0909 9.0909 27.2727 2.6917 2.2284 6.8966
161 9.0909 9.0909 36.3636 3.5555 2.5739 11.4453
162 9.0909 9.0909 45.4545 4.7270 3.0426 17.6145
163 9.0909 9.0909 54.5455 6.2316 3.6444 25.5374
164 9.0909 9.0909 63.6364 8.0918 4.3885 35.3332
165 9.0909 9.0909 72.7273 10.3284 5.2831 47.1109
166 9.0909 9.0909 81.8182 12.9604 6.3359 60.9709
167 9.0909 9.0909 90.9091 16.0056 7.5540 77.0071
168 9.0909 9.0909 100.0000 19.4809 8.9441 95.3074
169 9.0909 18.1818 0.0000 2.2858 3.1452 1.4327
170 9.0909 18.1818 9.0909 2.4407 3.2071 2.2485
171 9.0909 18.1818 18.1818 2.7811 3.3433 4.0411
172 9.0909 18.1818 27.2727 3.3661 3.5773 7.1214
173 9.0909 18.1818 36.3636 4.2299 3.9228 11.6701
174 9.0909 18.1818 45.4545 5.4014 4.3914 17.8394
175 9.0909 18.1818 54.5455 6.9060 4.9932 25.7622
176 9.0909 18.1818 63.6364 8.7662 5.7373 35.5580
177 9.0909 18.1818 72.7273 11.0028 6.6320 47.3357
178 9.0909 18.1818 81.8182 13.6348 7.6848 61.1957
179 9.0909 18.1818 90.9091 16.6801 8.9029 77.2319
180 9.0909 18.1818 100.0000 20.1553 10.2930 95.5322
181 9.0909 27.2727 0.0000 3.4447 5.4629 1.8190
182 9.0909 27.2727 9.0909 3.5996 5.5249 2.6348
183 9.0909 27.2727 18.1818 3.9400 5.6610 4.4274
184 9.0909 27.2727 27.2727 4.5249 5.8950 7.5077
185 9.0909 27.2727 36.3636 5.3888 6.2405 12.0564
186 9.0909 27.2727 45.4545 6.5603 6.7091 18.2256
187 9.0909 27.2727 54.5455 8.0648 7.3110 26.1485
188 9.0909 27.2727 63.6364 9.9251 8.0551 35.9443
189 9.0909 27.2727 72.7273 12.1616 8.9497 47.7220
190 9.0909 27.2727 81.8182 14.7937 10.0025 61.5820
191 9.0909 27.2727 90.9091 17.8389 11.2206 77.6182
192 9.0909 27.2727 100.0000 21.3142 12.6107 95.9185
193 9.0909 36.3636 0.0000 5.1560 8.8856 2.3894
194 9.0909 36.3636 9.0909 5.3109 8.9475 3.2052
195 9.0909 36.3636 18.1818 5.6513 9.0837 4.9978
196 9.0909 36.3636 27.2727 6.2363 9.3177 8.0781
197 9.0909 36.3636 36.3636 7.1001 9.6632 12.6268
198 9.0909 36.3636 45.4545 8.2716 10.1318 18.7961
199 9.0909 36.3636 54.5455 9.7762 10.7336 26.7189
200 9.0909 36.3636 63.6364 11.6364 11.4777 36.5148
201 9.0909 36.3636 72.7273 13.8730 12.3724 48.2924
202 9.0909 36.3636 81.8182 16.5050 13.4252 62.1525
203 9.0909 36.3636 90.9091 19.5503 14.6433 78.1886
204 9.0909 36.3636 100.0000 23.0255 16.0334 96.4889
205 9.0909 45.4545 0.0000 7.4770 13.5276 3.1631
206 9.0909 45.4545 9.0909 7.6319 13.5896 3.9789
207 9.0909 45.4545 18.1818 7.9724 13.7257 5.7715
208 9.0909 45.4545 27.2727 8.5573 13.9597 8.8518
209 9.0909 45.4545 36.3636 9.4211 14.3052 13.4005
210 9.0909 45.4545 45.4545 10.5926 14.7739 19.5698
211 9.0909 45.4545 54.5455 12.0972 15.3757 27.4926
212 9.0909 45.4545 63.6364 13.9574 16.1198 37.2884
213 9.0909 45.4545 72.7273 16.1940 17.0144 49.0661
214 9.0909 45.4545 81.8182 18.8260 18.0672 62.9261
215 9.0909 45.4545 90.9091 21.8713 19.2853 78.9623
216 9.0909 45.4545 100.0000 25.3465 20.6754 97.2626
217 9.0909 54.5455 0.0000 10.4578 19.4891 4.1567
218 9.0909 54.5455 9.0909 10.6127 19.5511 4.9725
219 9.0909 54.5455 18.1818 10.9531 19.6873 6.7651
220 9.0909 54.5455 27.2727 11.5381 19.9212 9.8454
221 9.0909 54.5455 36.3636 12.4019 20.2668 14.3941
222 9.0909 54.5455 45.4545 13.5734 20.7354 20.5633
223 9.0909 54.5455 54.5455 15.0780 21.3372 28.4862
224 9.0909 54.5455 63.6364 16.9382 22.0813 38.2820
225 9.0909 54.5455 72.7273 19.1748 22.9759 50.0597
226 9.0909 54.5455 81.8182 21.8068 24.0287 63.9197
227 9.0909 54.5455 90.9091 24.8521 25.2468 79.9559
228 9.0909 54.5455 100.0000 28.3273 26.6369 98.2562
229 9.0909 63.6364 0.0000 14.1432 26.8600 5.3851
230 9.0909 63.6364 9.0909 14.2981 26.9219 6.2009
231 9.0909 63.6364 18.1818 14.6385 27.0581 7.9936
232 9.0909 63.6364 27.2727 15.2235 27.2921 11.0738
233 9.0909 63.6364 36.3636 16.0873 27.6376 15.6226
234 9.0909 63.6364 45.4545 17.2588 28.1062 21.7918
235 9.0909 63.6364 54.5455 18.7634 28.7080 29.7147
236 9.0909 63.6364 63.6364 20.6236 29.4521 39.5105
237 9.0909 63.6364 72.7273 22.8602 30.3467 51.2881
238 9.0909 63.6364 81.8182 25.4922 31.3996 65.1482
239 9.0909 63.6364 90.9091 28.5375 32.6177 81.1843
240 9.0909 63.6364 100.0000 32.0127 34.0078 99.4846
241 9.0909 72.7273 0.0000 18.5742 35.7220 6.8622
242 9.0909 72.7273 9.0909 18.7291 35.7840 7.6779
243 9.0909 72.7273 18.1818 19.0696 35.9201 9.4706
244 9.0909 72.7273 27.2727 19.6545 36.1541 12.5508
245 9.0909 72.7273 36.3636 20.5183 36.4996 17.0996
246 9.0909 72.7273 45.4545 21.6898 36.9683 23.2688
247 9.0909 72.7273 54.5455 23.1944 37.5701 31.1917
248 9.0909 72.7273 63.6364 25.0546 38.3142 40.9875
249 9.0909 72.7273 72.7273 27.2912 39.2088 52.7652
250 9.0909 72.7273 81.8182 29.9232 40.2616 66.6252
251 9.0909 72.7273 90.9091 32.9685 41.4797 82.6613
252 9.0909 72.7273 100.0000 36.4437 42.8698 100.9617
253 9.0909 81.8182 0.0000 23.7887 46.1509 8.6003
254 9.0909 81.8182 9.0909 23.9436 46.2129 9.4161
255 9.0909 81.8182 18.1818 24.2840 46.3491 11.2087
256 9.0909 81.8182 27.2727 24.8690 46.5830 14.2890
257 9.0909 81.8182 36.3636 25.7328 46.9286 18.8377
258 9.0909 81.8182 45.4545 26.9043 47.3972 25.0070
259 9.0909 81.8182 54.5455 28.4089 47.9990 32.9298
260 9.0909 81.8182 63.6364 30.2691 48.7431 42.7257
261 9.0909 81.8182 72.7273 32.5057 49.6377 54.5033
262 9.0909 81.8182 81.8182 35.1377 50.6905 68.3633
263 9.0909 81.8182 90.9091 38.1830 51.9086 84.3995
264 9.0909 81.8182 100.0000 41.6582 53.2987 102.6998
265 9.0909 90.9091 0.0000 29.8219 58.2173 10.6114
266 9.0909 90.9091 9.0909 29.9768 58.2792 11.4272
267 9.0909 90.9091 18.1818 30.3172 58.4154 13.2198
268 9.0909 90.9091 27.2727 30.9021 58.6494 16.3000
269 9.0909 90.9091 36.3636 31.7659 58.9949 20.8488
270 9.0909 90.9091 45.4545 32.9375 59.4635 27.0180
271 9.0909 90.9091 54.5455 34.4420 60.0653 34.9409
272 9.0909 90.9091 63.6364 36.3023 60.8094 44.7367
273 9.0909 90.9091 72.7273 38.5388 61.7041 56.5144
274 9.0909 90.9091 81.8182 41.1709 62.7569 70.3744
275 9.0909 90.9091 90.9091 44.2161 63.9750 86.4106
276 9.0909 90.9091 100.0000 47.6914 65.3651 104.7109
277 9.0909 100.0000 0.0000 36.7069 71.9873 12.9064
278 9.0909 100.0000 9.0909 36.8618 72.0492 13.7222
279 9.0909 100.0000 18.1818 37.2022 72.1854 15.5148
280 9.0909 100.0000 27.2727 37.7871 72.4194 18.5950
281 9.0909 100.0000 36.3636 38.6509 72.7649 23.1438
282 9.0909 100.0000 45.4545 39.8225 73.2335 29.3130
283 9.0909 100.0000 54.5455 41.3270 73.8353 37.2359
284 9.0909 100.0000 63.6364 43.1873 74.5794 47.0317
285 9.0909 100.0000 72.7273 45.4238 75.4741 58.8094
286 9.0909 100.0000 81.8182 48.0559 76.5269 72.6694
287 9.0909 100.0000 90.9091 51.1011 77.7450 88.7056
288 9.0909 100.0000 100.0000 54.5764 79.1351 107.0059
289 18.1818 0.0000 0.0000 2.0822 1.5834 1.1420
290 18.1818 0.0000 9.0909 2.2372 1.6454 1.9578
291 18.1818 0.0000 18.1818 2.5776 1.7816 3.7504
292 18.1818 0.0000 27.2727 3.1625 2.0155 6.8306
293 18.1818 0.0000 36.3636 4.0263 2.3611 11.3794
294 18.1818 0.0000 45.4545 5.1979 2.8297 17.5486
295 18.1818 0.0000 54.5455 6.7024 3.4315 25.4715
296 18.1818 0.0000 63.6364 8.5626 4.1756 35.2673
297 18.1818 0.0000 72.7273 10.7992 5.0702 47.0450
298 18.1818 0.0000 81.8182 13.4312 6.1230 60.9050
299 18.1818 0.0000 90.9091 16.4765 7.3411 76.9412
300 18.1818 0.0000 100.0000 19.9517 8.7312 95.2415
301 18.1818 9.0909 0.0000 2.3892 2.1973 1.2443
302 18.1818 9.0909 9.0909 2.5441 2.2592 2.0601
303 18.1818 9.0909 18.1818 2.8845 2.3954 3.8527
304 18.1818 9.0909 27.2727 3.4694 2.6294 6.9330
305 18.1818 9.0909 36.3636 4.3332 2.9749 11.4817
306 18.1818 9.0909 45.4545 5.5048 3.4435 17.6509
307 18.1818 9.0909 54.5455 7.0093 4.0453 25.5738
308 18.1818 9.0909 63.6364 8.8696 4.7894 35.3696
309 18.1818 9.0909 72.7273 11.1061 5.6841 47.1473
310 18.1818 9.0909 81.8182 13.7382 6.7369 61.0073
311 18.1818 9.0909 90.9091 16.7834 7.9550 77.0435
312 18.1818 9.0909 100.0000 20.2587 9.3451 95.3438
313 18.1818 18.1818 0.0000 3.0636 3.5461 1.4691
314 18.1818 18.1818 9.0909 3.2185 3.6081 2.2849
315 18.1818 18.1818 18.1818 3.5589 3.7443 4.0775
316 18.1818 18.1818 27.2727 4.1439 3.9782 7.1578
317 18.1818 18.1818 36.3636 5.0077 4.3238 11.7065
318 18.1818 18.1818 45.4545 6.1792 4.7924 17.8758
319 18.1818 18.1818 54.5455 7.6838 5.3942 25.7986
320 18.1818 18.1818 63.6364 9.5440 6.1383 35.5944
321 18.1818 18.1818 72.7273 11.7806 7.0329 47.3721
322 18.1818 18.1818 81.8182 14.4126 8.0857 61.2321
323 18.1818 18.1818 90.9091 17.4579 9.3038 77.2683
324 18.1818 18.1818 100.0000 20.9331 10.6939 95.5686
325 18.1818 27.2727 0.0000 4.2224 5.8639 1.8554
326 18.1818 27.2727 9.0909 4.3774 5.9258 2.6712
327 18.1818 27.2727 18.1818 4.7178 6.0620 4.4638
328 18.1818 27.2727 27.2727 5.3027 6.2960 7.5441
329 18.1818 27.2727 36.3636 6.1665 6.6415 12.0928
330 18.1818 27.2727 45.4545 7.3381 7.1101 18.2620
331 18.1818 27.2727 54.5455 8.8426 7.7119 26.1849
332 18.1818 27.2727 63.6364 10.7029 8.4560 35.9807
333 18.1818 27.2727 72.7273 12.9394 9.3506 47.7584
334 18.1818 27.2727 81.8182 15.5714 10.4035 61.6184
335 18.1818 27.2727 90.9091 18.6167 11.6216 77.6546
336 18.1818 27.2727 100.0000 22.0919 13.0117 95.9549
337 18.1818 36.3636 0.0000 5.9338 9.2865 2.4258
338 18.1818 36.3636 9.0909 6.0887 9.3485 3.2416
339 18.1818 36.3636 18.1818 6.4291 9.4847 5.0342
340 18.1818 36.3636 27.2727 7.0141 9.7186 8.1145
341 18.1818 36.3636 36.3636 7.8779 10.0642 12.6632
342 18.1818 36.3636 45.4545 9.0494 10.5328 18.8325
343 18.1818 36.3636 54.5455 10.5540 11.1346 26.7553
344 18.1818 36.3636 63.6364 12.4142 11.8787 36.5512
345 18.1818 36.3636 72.7273 14.6508 12.7733 48.3288
346 18.1818 36.3636 81.8182 17.2828 13.8261 62.1889
347 18.1818 36.3636 90.9091 20.3281 15.0442 78.2250
348 18.1818 36.3636 100.0000 23.8033 16.4343 96.5253
349 18.1818 45.4545 0.0000 8.2548 13.9286 3.1995
350 18.1818 45.4545 9.0909 8.4097 13.9905 4.0153
351 18.1818 45.4545 18.1818 8.7501 14.1267 5.8079
352 18.1818 45.4545 27.2727 9.3351 14.3607 8.8882
353 18.1818 45.4545 36.3636 10.1989 14.7062 13.4369
354 18.1818 45.4545 45.4545 11.3704 15.1748 19.6062
355 18.1818 45.4545 54.5455 12.8750 15.7766 27.5290
356 18.1818 45.4545 63.6364 14.7352 16.5207 37.3248
357 18.1818 45.4545 72.7273 16.9718 17.4154 49.1025
358 18.1818 45.4545 81.8182 19.6038 18.4682 62.9625
359 18.1818 45.4545 90.9091 22.6491 19.6863 78.9987
360 18.1818 45.4545 100.0000 26.1243 21.0764 97.2990
361 18.1818 54.5455 0.0000 11.2356 19.8901 4.1931
362 18.1818 54.5455 9.0909 11.3905 19.9521 5.0089
363 18.1818 54.5455 18.1818 11.7309 20.0882 6.8015
364 18.1818 54.5455 27.2727 12.3158 20.3222 9.8818
365 18.1818 54.5455 36.3636 13.1796 20.6677 14.4305
366 18.1818 54.5455 45.4545 14.3512 21.1363 20.5997
367 18.1818 54.5455 54.5455 15.8557 21.7382 28.5226
368 18.1818 54.5455 63.6364 17.7160 22.4823 38.3184
369 18.1818 54.5455 72.7273 19.9525 23.3769 50.0961
370 18.1818 54.5455 81.8182 22.5846 24.4297 63.9561
371 18.1818 54.5455 90.9091 25.6298 25.6478 79.9923
372 18.1818 54.5455 100.0000 29.1051 27.0379 98.2926
373 18.1818 63.6364 0.0000 14.9210 27.2609 5.4215
374 18.1818 63.6364 9.0909 15.0759 27.3229 6.2373
375 18.1818 63.6364 18.1818 15.4163 27.4591 8.0300
376 18.1818 63.6364 27.2727 16.0013 27.6930 11.1102
377 18.1818 63.6364 36.3636 16.8651 28.0385 15.6590
378 18.1818 63.6364 45.4545 18.0366 28.5072 21.8282
379 18.1818 63.6364 54.5455 19.5412 29.1090 29.7511
380 18.1818 63.6364 63.6364 21.4014 29.8531 39.5469
381 18.1818 63.6364 72.7273 23.6380 30.7477 51.3245
382 18.1818 63.6364 81.8182 26.2700 31.8005 65.1846
383 18.1818 63.6364 90.9091 29.3152 33.0186 81.2207
384 18.1818 63.6364 100.0000 32.7905 34.4087 99.5210
385 18.1818 72.7273 0.0000 19.3520 36.1230 6.8986
386 18.1818 72.7273 9.0909 19.5069 36.1849 7.7143
387 18.1818 72.7273 18.1818 19.8473 36.3211 9.5070
388 18.1818 72.7273 27.2727 20.4323 36.5551 12.5872
389 18.1818 72.7273 36.3636 21.2961 36.9006 17.1360
390 18.1818 72.7273 45.4545 22.4676 37.3692 23.3052
391 18.1818 72.7273 54.5455 23.9722 37.9710 31.2281
392 18.1818 72.7273 63.6364 25.8324 38.7151 41.0239
393 18.1818 72.7273 72.7273 28.0690 39.6098 52.8016
394 18.1818 72.7273 81.8182 30.7010 40.6626 66.6616
395 18.1818 72.7273 90.9091 33.7463 41.8807 82.6977
396 18.1818 72.7273 100.0000 37.2215 43.2708 100.9981
397 18.1818 81.8182 0.0000 24.5665 46.5519 8.6367
398 18.1818 81.8182 9.0909 24.7214 46.6139 9.4525
399 18.1818 81.8182 18.1818 25.0618 46.7500 11.2451
400 18.1818 81.8182 27.2727 25.6467 46.9840 14.3254
401 18.1818 81.8182 36.3636 26.5105 47.3295 18.8741
402 18.1818 81.8182 45.4545 27.6821 47.7981 25.0434
403 18.1818 81.8182 54.5455 29.1866 48.4000 32.9662
404 18.1818 81.8182 63.6364 31.0469 49.1441 42.7621
405 18.1818 81.8182 72.7273 33.2834 50.0387 54.5397
406 18.1818 81.8182 81.8182 35.9155 51.0915 68.3997
407 18.1818 81.8182 90.9091 38.9607 52.3096 84.4359
408 18.1818 81.8182 100.0000 42.4360 53.6997 102.7362
409 18.1818 90.9091 0.0000 30.5996 58.6182 10.6478
410 18.1818 90.9091 9.0909 30.7546 58.6802 11.4636
411 18.1818 90.9091 18.1818 31.0950 58.8164 13.2562
412 18.1818 90.9091 27.2727 31.6799 59.0503 16.3364
413 18.1818 90.9091 36.3636 32.5437 59.3959 20.8852
414 18.1818 90.9091 45.4545 33.7153 59.8645 27.0544
415 18.1818 90.9091 54.5455 35.2198 60.4663 34.9773
416 18.1818 90.9091 63.6364 37.0800 61.2104 44.7731
417 18.1818 90.9091 72.7273 39.3166 62.1050 56.5508
418 18.1818 90.9091 81.8182 41.9486 63.1578 70.4108
419 18.1818 90.9091 90.9091 44.9939 64.3759 86.4470
420 18.1818 90.9091 100.0000 48.4691 65.7660 104.7473
421 18.1818 100.0000 0.0000 37.4846 72.3882 12.9428
422 18.1818 100.0000 9.0909 37.6396 72.4502 13.7586
423 18.1818 100.0000 18.1818 37.9800 72.5864 15.5512
424 18.1818 100.0000 27.2727 38.5649 72.8203 18.6314
425 18.1818 100.0000 36.3636 39.4287 73.1659 23.1802
426 18.1818 100.0000 45.4545 40.6003 73.6345 29.3494
427 18.1818 100.0000 54.5455 42.1048 74.2363 37.2723
428 18.1818 100.0000 63.6364 43.9650 74.9804 47.0681
429 18.1818 100.0000 72.7273 46.2016 75.8750 58.8458
430 18.1818 100.0000 81.8182 48.8336 76.9278 72.7058
431 18.1818 100.0000 90.9091 51.8789 78.1459 88.7420
432 18.1818 100.0000 100.0000 55.3541 79.5360 107.0423
433 27.2727 0.0000 0.0000 3.4187 2.2724 1.2045
434 27.2727 0.0000 9.0909 3.5736 2.3344 2.0203
435 27.2727 0.0000 18.1818 3.9140 2.4705 3.8129
436 27.2727 0.0000 27.2727 4.4990 2.7045 6.8932
437 27.2727 0.0000 36.3636 5.3628 3.0500 11.4419
438 27.2727 0.0000 45.4545 6.5343 3.5186 17.6112
439 27.2727 0.0000 54.5455 8.0389 4.1205 25.5340
440 27.2727 0.0000 63.6364 9.8991 4.8646 35.3299
441 27.2727 0.0000 72.7273 12.1357 5.7592 47.1075
442 27.2727 0.0000 81.8182 14.7677 6.8120 60.9675
443 27.2727 0.0000 90.9091 17.8130 8.0301 77.0037
444 27.2727 0.0000 100.0000 21.2882 9.4202 95.3040
445 27.2727 9.0909 0.0000 3.7256 2.8862 1.3068
446 27.2727 9.0909 9.0909 3.8805 2.9482 2.1226
447 27.2727 9.0909 18.1818 4.2209 3.0844 3.9152
448 27.2727 9.0909 27.2727 4.8059 3.3183 6.9955
449 27.2727 9.0909 36.3636 5.6697 3.6639 11.5442
450 27.2727 9.0909 45.4545 6.8412 4.1325 17.7135
451 27.2727 9.0909 54.5455 8.3458 4.7343 25.6363
452 27.2727 9.0909 63.6364 10.2060 5.4784 35.4322
453 27.2727 9.0909 72.7273 12.4426 6.3730 47.2098
454 27.2727 9.0909 81.8182 15.0746 7.4258 61.0699
455 27.2727 9.0909 90.9091 18.1199 8.6439 77.1060
456 27.2727 9.0909 100.0000 21.5951 10.0340 95.4063
457 27.2727 18.1818 0.0000 4.4000 4.2351 1.5316
458 27.2727 18.1818 9.0909 4.5550 4.2971 2.3474
459 27.2727 18.1818 18.1818 4.8954 4.4332 4.1400
460 27.2727 18.1818 27.2727 5.4803 4.6672 7.2203
461 27.2727 18.1818 36.3636 6.3441 5.0127 11.7690
462 27.2727 18.1818 45.4545 7.5157 5.4813 17.9383
463 27.2727 18.1818 54.5455 9.0202 6.0832 25.8612
464 27.2727 18.1818 63.6364 10.8804 6.8273 35.6570
465 27.2727 18.1818 72.7273 13.1170 7.7219 47.4346
466 27.2727 18.1818 81.8182 15.7490 8.7747 61.2947
467 27.2727 18.1818 90.9091 18.7943 9.9928 77.3308
468 27.2727 18.1818 100.0000 22.2695 11.3829 95.6311
469 27.2727 27.2727 0.0000 5.5589 6.5528 1.9179
470 27.2727 27.2727 9.0909 5.7138 6.6148 2.7337
471 27.2727 27.2727 18.1818 6.0542 6.7510 4.5263
472 27.2727 27.2727 27.2727 6.6392 6.9849 7.6066
