demo-projects/Demo-Report-Matrix/runs/run1/Demo-Report-Matrix.ti3
CTI3   

DESCRIPTOR "Argyll Calibration Target chart information 3"
ORIGINATOR "Argyll fakeread"
CREATED "Tue Aug 11 11:21:03 2026"
DEVICE_CLASS "DISPLAY"
COLOR_REP "iRGB_XYZ"

NUMBER_OF_FIELDS 7
BEGIN_DATA_FORMAT
SAMPLE_ID RGB_R RGB_G RGB_B XYZ_X XYZ_Y XYZ_Z 
END_DATA_FORMAT

NUMBER_OF_SETS 210
BEGIN_DATA
1 100.0000 100.0000 100.0000 94.81324 99.77066 108.1027 
2 100.0000 100.0000 100.0000 94.62823 99.80088 108.1621 
3 100.0000 100.0000 100.0000 94.55717 99.75679 108.4952 
4 100.0000 100.0000 100.0000 94.85858 99.80317 108.8769 
5 0.00000 0.00000 0.00000 0.00000 0.00000 0.00000 
6 0.00000 0.00000 0.00000 0.00000 0.00000 0.00000 
7 0.00000 0.00000 0.00000 0.00628993 0.00251583 0.0331262 
8 0.00000 0.00000 0.00000 0.00906372 0.00624552 0.0396555 
9 100.0000 100.0000 0.00000 76.97476 92.72487 13.88070 
10 0.00000 0.00000 100.0000 18.04868 7.219054 95.05403 
11 100.0000 0.00000 0.00000 40.91592 21.09694 1.965558 
12 0.00000 100.0000 100.0000 53.81430 78.73943 106.9729 
13 0.00000 100.0000 0.00000 35.57379 71.13515 11.89437 
14 100.0000 0.00000 100.0000 59.02816 28.36667 96.22078 
15 0.00000 48.94341 100.0000 25.47534 22.06365 97.52772 
16 0.00000 49.27058 0.00000 7.366189 14.72727 2.454231 
17 0.00000 0.00000 49.74722 3.846264 1.562537 20.18212 
18 100.0000 0.00000 50.27844 45.11521 22.80889 22.62241 
19 100.0000 52.95732 100.0000 68.06402 46.03732 99.91192 
20 100.0000 51.46797 0.00000 48.96789 37.46120 4.651142 
21 48.15306 0.00000 0.00000 8.248624 4.253049 0.399926 
22 100.0000 100.0000 50.62479 80.93387 94.35568 34.58575 
23 0.00000 100.0000 51.02191 39.25892 71.94537 33.34875 
24 51.31754 100.0000 100.0000 62.78485 82.91970 107.3074 
25 50.65051 100.0000 0.00000 44.80379 75.99545 12.30665 
26 50.39017 0.00000 100.0000 26.89865 11.79123 95.07397 
27 0.00000 50.47073 50.95826 11.90046 17.41031 23.65605 
28 100.0000 50.01621 48.06799 52.16067 37.72491 22.83019 
29 50.59241 49.73283 0.00000 16.69562 19.97711 2.983185 
30 51.64018 0.00000 48.02905 12.85599 6.230561 18.89930 
31 49.74911 50.29281 100.0000 34.37460 27.06895 98.02511 
32 51.47506 100.0000 49.90814 48.88757 77.84211 32.59350 
33 0.00000 24.48986 0.00000 1.800075 3.575658 0.653268 
34 0.00000 0.00000 23.80317 0.827782 0.331094 4.359546 
35 100.0000 26.72220 100.0000 61.05309 32.45760 97.53125 
36 74.61589 0.00000 0.00000 21.06760 10.86336 0.987227 
37 0.00000 75.63524 100.0000 37.32825 45.97757 100.8648 
38 52.95721 54.86698 45.29698 22.74479 25.38603 20.00414 
39 100.0000 100.0000 25.40356 77.60062 92.48788 18.67931 
40 100.0000 76.36183 0.00000 60.84527 60.46912 8.495101 
41 100.0000 0.00000 25.06615 42.15789 21.63205 6.775564 
42 0.00000 74.61888 27.06523 19.72887 37.65273 12.14055 
43 67.64862 76.28067 100.0000 54.35392 54.45708 102.1066 
44 75.70873 0.00000 100.0000 39.49694 18.33065 94.77239 
45 74.59608 100.0000 76.31285 66.51281 86.26367 63.50861 
46 0.00000 26.02462 100.0000 19.99625 11.16426 95.54301 
47 100.0000 75.71850 78.55725 70.63703 63.69852 63.96572 
48 25.59418 100.0000 76.86926 48.19486 76.75537 65.48322 
49 0.00000 100.0000 25.71017 36.60706 71.57546 17.25280 
50 100.0000 0.00000 75.88249 50.95876 25.15220 53.12572 
51 27.58624 73.39933 0.00000 20.33734 36.97133 6.132017 
52 100.0000 25.63905 0.00000 43.20137 25.19040 2.586738 
53 26.30576 0.00000 71.17499 10.67299 4.543737 44.29072 
54 76.73663 100.0000 100.0000 75.65574 89.64425 104.8812 
55 75.54941 100.0000 0.00000 57.73921 82.85091 12.94858 
56 0.00000 100.0000 76.21086 44.86789 74.22668 62.77185 
57 35.53599 76.87970 100.0000 41.97077 48.81390 101.8215 
58 100.0000 100.0000 76.60860 86.92440 96.75176 66.13509 
59 25.21997 100.0000 0.00000 37.90575 72.62392 12.01919 
60 32.94395 0.00000 23.22224 4.369424 2.162283 4.301379 
61 25.28005 25.31841 0.00000 3.933195 4.797363 0.718713 
62 0.00000 73.96029 77.00057 28.69000 41.20315 59.39584 
63 74.09027 26.52765 73.61097 32.19718 18.68270 50.17129 
64 24.67490 0.00000 100.0000 20.00403 8.246343 95.14933 
65 100.0000 29.78965 74.57692 52.89400 29.93120 50.96946 
66 0.00000 75.71814 0.00000 19.00687 38.00683 6.355909 
67 0.00000 0.00000 76.09367 9.823492 3.938975 51.70555 
68 100.0000 77.31918 100.0000 79.43114 68.77147 103.7007 
69 73.87364 100.0000 26.17568 57.98677 82.86477 18.09520 
70 72.05195 24.51108 0.00000 21.36958 13.58594 1.516567 
71 0.00000 26.49709 23.71872 2.866997 4.380282 4.997065 
72 30.75750 37.91439 66.25346 14.59953 13.09408 39.23156 
73 100.0000 77.73344 31.23535 62.83965 62.23935 16.01377 
74 75.56648 24.37740 45.00575 27.00847 16.12964 17.87758 
75 75.50505 72.82185 0.00000 39.55256 46.52679 6.913789 
76 100.0000 28.38243 25.33786 44.52705 26.29214 7.806380 
77 22.98514 0.00000 0.00000 1.845765 0.951756 0.0864925 
78 0.00000 25.81538 70.66845 10.09571 7.018745 43.97926 
79 24.25002 100.0000 30.06553 39.03659 73.05062 19.13053 
80 32.14348 27.58155 100.0000 23.72864 13.42803 95.95319 
81 26.91779 51.53922 23.52635 11.44019 18.10254 7.096826 
82 75.83725 0.00000 71.20510 30.23386 14.61423 45.55300 
83 64.88735 0.00000 21.52970 16.23102 8.291641 4.270110 
84 49.00294 72.07542 76.16645 35.56697 42.65619 56.83762 
85 66.80184 26.26536 100.0000 36.73414 19.69779 95.34480 
86 25.99746 71.39006 49.26601 23.17014 36.91646 25.47549 
87 25.25845 100.0000 100.0000 55.63975 79.08976 106.9444 
88 79.76515 49.91431 20.63878 33.08772 28.12604 6.959438 
89 46.57199 26.83048 28.07037 11.06260 8.771163 7.096318 
90 47.97812 79.34591 20.98837 30.05911 47.17796 11.01194 
91 75.38947 75.77211 48.91837 44.66526 50.65846 26.88038 
92 74.66165 60.08226 76.27818 42.16253 37.60072 55.99658 
93 76.52644 51.86452 100.0000 48.48806 35.18231 97.52991 
94 24.09739 48.40938 0.00000 9.132153 15.35689 2.485470 
95 21.46241 19.53768 47.60490 6.139310 4.406716 18.83693 
96 50.96953 100.0000 75.63390 54.28351 79.32455 63.29751 
97 23.86247 52.96849 100.0000 28.41369 25.21760 97.98167 
98 78.09958 0.00000 42.10351 26.53607 13.37410 15.37435 
99 25.76719 100.0000 54.22529 42.53789 74.48082 36.22736 
100 27.31162 67.08796 75.36823 27.08760 34.76311 56.37056 
101 0.00000 50.28361 24.44027 8.713393 16.01326 7.133350 
102 100.0000 24.47371 50.27555 46.91969 26.33841 23.21534 
103 100.0000 53.36129 71.79695 58.62926 42.25480 50.25066 
104 55.02557 53.14513 70.21287 28.07527 26.97502 46.37978 
105 44.03680 21.98664 78.39277 18.65139 10.52054 55.42957 
106 0.00000 48.91010 77.13587 17.22812 18.53068 54.84415 
107 78.31565 42.10361 51.21553 33.27502 24.44919 24.75621 
108 46.63963 23.39635 49.90428 13.16634 8.694595 20.93835 
109 76.05712 74.23037 26.20722 41.12159 47.68531 12.55046 
110 0.00000 25.75224 46.23788 5.196492 5.224025 17.60037 
111 47.52593 23.02819 0.00000 9.390725 7.082173 0.887213 
112 19.54697 43.64720 46.35939 10.15920 13.16387 19.17398 
113 19.23591 77.97018 25.34867 22.36642 41.40565 11.82618 
114 83.83931 15.61500 14.49644 29.46347 16.24151 3.451828 
115 51.40751 76.24459 0.00000 28.86299 43.81244 6.935279 
116 49.95628 73.83793 49.65658 30.57825 41.95232 26.36362 
117 22.91641 21.54739 18.04803 3.601147 3.830486 3.175217 
118 58.69194 50.41350 21.75336 21.41375 22.59117 6.899574 
119 0.00000 75.28998 52.84163 22.97979 38.99808 29.12272 
120 75.91020 100.0000 53.36857 61.98095 84.21246 36.00050 
121 76.47031 47.41229 0.00000 29.97830 25.71205 3.391716 
122 48.28827 100.0000 23.29808 44.27538 75.06102 16.16406 
123 100.0000 76.62859 55.56587 65.36381 61.60489 34.36267 
124 13.29195 85.50085 85.40985 38.06163 54.87271 74.96730 
125 51.28013 0.00000 74.69981 18.59193 8.508321 49.53977 
126 24.71178 0.00000 45.62440 5.108454 2.283222 16.56266 
127 14.02653 10.62774 87.19651 14.38612 6.508728 70.11312 
128 100.0000 55.32715 24.55975 51.39446 40.63278 9.794400 
129 86.35840 15.38194 87.42043 43.60109 21.96402 71.18914 
130 76.98678 77.28701 79.69321 53.49897 56.02721 64.59038 
131 86.62658 62.70897 40.25988 44.97692 41.51314 18.32806 
132 87.04273 38.71822 88.36409 48.28951 29.83307 75.61479 
133 36.29819 83.69165 64.12164 35.21344 53.22763 43.53059 
134 66.11643 28.63055 22.14370 19.47148 13.59230 5.481178 
135 39.15627 58.23252 60.93043 21.81217 26.72667 34.43180 
136 87.21240 16.22540 63.47064 37.29737 19.66122 35.91461 
137 17.70658 42.29183 85.64934 19.34436 16.46237 69.93567 
138 56.96216 62.79813 88.96348 38.35352 36.70299 77.07777 
139 12.81359 36.00600 10.80450 4.723205 8.245542 2.404555 
140 89.00560 82.93281 12.64317 55.65697 63.42556 10.68903 
141 36.40120 37.14522 12.40511 8.881730 10.73340 3.061385 
142 15.38053 62.14103 12.11720 13.30827 25.12060 5.383782 
143 67.94668 57.66651 57.83205 32.77818 31.46722 32.12598 
144 36.43616 85.43095 83.85906 41.50474 57.08271 72.15192 
145 62.77502 87.15890 83.90262 53.20744 65.69729 73.40122 
146 64.95765 11.17881 85.85756 28.88426 14.08047 67.91612 
147 41.03013 62.69470 13.78973 18.81503 28.45927 6.067766 
148 19.13698 51.09286 65.28859 16.18490 19.51278 38.83670 
149 39.46878 42.75380 82.48089 22.41871 18.23158 63.41782 
150 13.36687 60.84617 86.02033 25.37896 28.75235 73.03622 
151 13.36527 60.01461 38.97192 14.24304 23.81662 15.84355 
152 37.19040 87.71642 42.05529 34.36525 57.29452 23.17482 
153 8.036606 10.42017 17.03832 1.094306 1.071296 2.365327 
154 34.58778 15.66400 62.28956 11.03268 6.116928 33.21886 
155 13.37425 13.71385 63.49910 7.602034 4.005013 34.09300 
156 68.58462 16.10942 57.11024 23.92623 12.89524 28.18711 
157 86.56384 89.03062 38.27800 59.11055 70.37650 22.20943 
158 65.63108 86.82175 12.88781 42.41918 60.69042 10.89795 
159 40.57024 13.22913 14.29912 6.502599 4.110658 2.238546 
160 88.82010 65.30692 12.58998 45.85187 44.19176 7.536875 
161 13.45146 86.84297 42.72850 28.97716 52.63565 22.77081 
162 85.62743 34.79568 12.35284 33.15208 22.29143 3.958322 
163 86.06902 87.72688 64.51087 62.64058 71.67917 45.67817 
164 87.44463 37.74804 34.91491 36.22527 24.72012 12.41961 
165 89.63838 17.37448 34.81315 34.82321 19.04847 11.28628 
166 15.37023 89.44209 11.18241 29.18527 56.67780 10.61328 
167 86.92420 64.07560 62.38749 49.48999 44.30793 38.71658 
168 34.09172 89.26489 14.00883 31.77463 57.10950 11.03539 
169 14.05326 86.21880 66.83697 33.66035 54.51492 47.35908 
170 59.36164 66.17704 32.77806 28.60117 35.57240 13.46486 
171 86.60879 64.73215 90.02622 57.20715 47.74998 79.51692 
172 57.82718 90.00716 62.49480 46.85261 65.27471 43.85432 
173 60.85154 34.90815 40.68796 19.74848 15.24486 14.98169 
174 66.11143 43.74438 80.43246 33.01297 24.06265 60.90263 
175 60.84564 15.21238 34.00155 15.95783 9.176164 9.834645 
176 35.83815 69.99307 30.23060 21.63667 34.61034 12.59116 
177 61.21213 86.20862 36.45005 41.53843 59.34037 19.74772 
178 81.12472 2.460981 26.56412 26.99810 13.89150 7.026042 
179 63.75946 64.60886 11.40055 28.90670 34.91956 6.388657 
180 12.61013 35.24157 58.96784 9.882204 10.11262 30.03646 
181 43.47890 44.61602 29.61553 13.70965 15.65353 8.913686 
182 39.01456 39.83710 48.08457 13.53607 13.69871 20.48826 
183 62.14251 12.54902 10.95362 14.83497 8.340524 1.977551 
184 42.43468 9.169894 35.91093 8.374401 4.559286 10.09881 
185 13.83441 39.65443 29.89508 6.613241 10.09199 8.322312 
186 57.72060 32.15551 68.85940 23.03372 15.51845 43.17866 
187 10.19840 19.60955 33.93320 3.334658 3.212542 9.448976 
188 14.84852 3.325629 33.79536 2.610409 1.282455 9.099158 
189 88.93154 93.77788 85.68240 75.67911 83.27976 79.44682 
190 54.13047 32.63141 90.82276 27.98394 17.40887 77.94625 
191 45.52034 15.82221 98.09570 25.31955 12.19988 91.92857 
192 58.22792 42.89616 56.31173 22.79968 19.45609 29.25660 
193 15.31574 12.96012 4.694697 1.496359 1.565272 0.551880 
194 56.76331 36.93317 9.187622 15.69422 14.11325 2.697256 
195 83.82187 97.81152 14.34803 61.92165 82.54043 14.47486 
196 17.65657 75.07963 98.08640 36.86720 44.96071 95.62751 
197 85.88447 42.77806 68.38968 42.94053 29.49083 43.63873 
198 36.69516 59.13174 87.69950 28.40940 29.12641 71.80651 
199 70.08301 51.78187 37.27123 28.47693 26.45182 14.09858 
200 36.20907 57.95763 41.46704 17.70741 24.60552 17.15784 
201 5.468365 34.02005 88.44715 17.21082 12.11724 73.75820 
202 52.22558 84.18383 98.62956 51.28935 60.26482 100.6678 
203 11.87502 65.27469 60.44171 19.92041 29.74967 35.13896 
204 23.99503 25.38803 82.48991 15.45948 9.376542 62.10807 
205 54.40907 11.30600 64.87077 17.73493 9.018037 35.72291 
206 4.276114 77.97125 13.75109 20.47748 40.27999 8.252001 
207 28.69171 26.55966 33.75525 6.673714 6.384915 9.758134 
208 34.77114 7.830922 85.03975 16.59721 7.485962 65.37372 
209 84.23997 84.27323 96.38655 68.82502 69.88992 96.13777 
210 64.56057 74.01070 66.09675 40.64018 47.03059 44.39766 
END_DATA
