demo-projects/Demo-Report-Matrix/runs/run1/Demo-Report-Matrix.ti1
CTI1   

DESCRIPTOR "Argyll Calibration Target chart information 1"
ORIGINATOR "Argyll targen"
CREATED "Tue Aug 11 11:21:03 2026"
APPROX_WHITE_POINT "95.106486 100.000000 108.844025"
COLOR_REP "iRGB"
WHITE_COLOR_PATCHES "4"
BLACK_COLOR_PATCHES "4"
OFPS_PATCHES "202"

NUMBER_OF_FIELDS 7
BEGIN_DATA_FORMAT
SAMPLE_ID RGB_R RGB_G RGB_B XYZ_X XYZ_Y XYZ_Z 
END_DATA_FORMAT

NUMBER_OF_SETS 210
BEGIN_DATA
1 100.0000 100.0000 100.0000 95.10649 100.0000 108.8440 
2 100.0000 100.0000 100.0000 95.10649 100.0000 108.8440 
3 100.0000 100.0000 100.0000 95.10649 100.0000 108.8440 
4 100.0000 100.0000 100.0000 95.10649 100.0000 108.8440 
5 0.00000 0.00000 0.00000 1.000000 1.000000 1.000000 
6 0.00000 0.00000 0.00000 1.000000 1.000000 1.000000 
7 0.00000 0.00000 0.00000 1.000000 1.000000 1.000000 
8 0.00000 0.00000 0.00000 1.000000 1.000000 1.000000 
9 100.0000 100.0000 0.00000 77.23538 92.85269 14.71507 
10 0.00000 0.00000 100.0000 18.87111 8.147314 95.12896 
11 100.0000 0.00000 0.00000 41.83017 22.05217 2.913230 
12 0.00000 100.0000 100.0000 54.27632 78.94783 106.9308 
13 0.00000 100.0000 0.00000 36.40521 71.80052 12.80184 
14 100.0000 0.00000 100.0000 59.70128 29.19948 97.04219 
15 0.00000 48.94341 100.0000 26.10763 22.61834 97.54115 
16 0.00000 49.27058 0.00000 8.341333 15.68061 3.447132 
17 0.00000 0.00000 49.74722 4.783473 2.513150 20.92794 
18 100.0000 0.00000 50.27844 45.70154 23.60047 23.30414 
19 100.0000 52.95732 100.0000 68.28498 46.36448 99.90345 
20 100.0000 51.46797 0.00000 49.89834 38.18625 5.602643 
21 48.15306 0.00000 0.00000 9.057533 5.154490 1.377562 
22 100.0000 100.0000 50.62479 81.16469 94.42416 35.41117 
23 0.00000 100.0000 51.02191 40.40158 73.39881 33.85114 
24 51.31754 100.0000 100.0000 63.52187 83.71487 107.3640 
25 50.65051 100.0000 0.00000 45.39241 76.43435 13.22296 
26 50.39017 0.00000 100.0000 27.75862 12.72975 95.54541 
27 0.00000 50.47073 50.95826 12.71893 18.05852 24.57027 
28 100.0000 50.01621 48.06799 52.92698 38.62212 23.94612 
29 50.59241 49.73283 0.00000 17.45581 20.60206 3.917072 
30 51.64018 0.00000 48.02905 13.87926 7.234923 19.91193 
31 49.74911 50.29281 100.0000 35.19041 27.95143 98.09222 
32 51.47506 100.0000 49.90814 49.52238 78.12309 33.30549 
33 0.00000 24.48986 0.00000 2.729816 4.459149 1.576610 
34 0.00000 0.00000 23.80317 1.825925 1.330318 5.350233 
35 100.0000 26.72220 100.0000 61.75638 33.30912 97.72723 
36 74.61589 0.00000 0.00000 22.09114 11.87466 1.988294 
37 0.00000 75.63524 100.0000 37.72340 45.84662 101.4131 
38 52.95721 54.86698 45.29698 23.26387 25.88252 20.84485 
39 100.0000 100.0000 25.40356 78.17373 93.22797 19.65747 
40 100.0000 76.36183 0.00000 61.09019 60.56682 9.333291 
41 100.0000 0.00000 25.06615 42.74412 22.41769 7.727107 
42 0.00000 74.61888 27.06523 20.35451 38.00138 12.70125 
43 67.64862 76.28067 100.0000 55.03924 55.31188 102.3282 
44 75.70873 0.00000 100.0000 40.65933 19.38139 96.14992 
45 74.59608 100.0000 76.31285 67.19155 86.55120 64.92109 
46 0.00000 26.02462 100.0000 20.82105 12.04665 95.77894 
47 100.0000 75.71850 78.55725 71.08812 63.98742 63.77582 
48 25.59418 100.0000 76.86926 48.44787 76.86848 64.87390 
49 0.00000 100.0000 25.71017 37.36606 72.18480 17.86274 
50 100.0000 0.00000 75.88249 51.41578 25.88581 53.40163 
51 27.58624 73.39933 0.00000 21.15478 37.55594 6.994846 
52 100.0000 25.63905 0.00000 43.72336 25.83802 3.544299 
53 26.30576 0.00000 71.17499 11.60549 5.507231 44.86855 
54 76.73663 100.0000 100.0000 76.73229 90.52621 107.9830 
55 75.54941 100.0000 0.00000 58.09099 82.98177 13.81799 
56 0.00000 100.0000 76.21086 46.08391 75.67139 63.78054 
57 35.53599 76.87970 100.0000 42.65904 49.43248 101.8453 
58 100.0000 100.0000 76.60860 87.02753 96.76893 66.29135 
59 25.21997 100.0000 0.00000 38.51863 72.89020 12.90087 
60 32.94395 0.00000 23.22224 5.407622 3.181535 5.315763 
61 25.28005 25.31841 0.00000 4.970091 5.787772 1.715082 
62 0.00000 73.96029 77.00057 28.83643 40.81966 59.14646 
63 74.09027 26.52765 73.61097 32.74201 19.33638 49.82008 
64 24.67490 0.00000 100.0000 20.89564 9.191171 95.22383 
65 100.0000 29.78965 74.57692 53.60717 30.85178 52.33165 
66 0.00000 75.71814 0.00000 19.89855 38.79182 7.299570 
67 0.00000 0.00000 76.09367 10.64542 4.857558 51.80341 
68 100.0000 77.31918 100.0000 79.50631 68.80401 103.6439 
69 73.87364 100.0000 26.17568 58.02602 82.83312 19.01226 
70 72.05195 24.51108 0.00000 22.24008 14.52307 2.491669 
71 0.00000 26.49709 23.71872 3.841039 5.369103 5.993816 
72 30.75750 37.91439 66.25346 15.43448 13.86099 39.86836 
73 100.0000 77.73344 31.23535 63.29463 62.70204 17.07824 
74 75.56648 24.37740 45.00575 27.46148 16.83499 18.65513 
75 75.50505 72.82185 0.00000 39.97859 46.80432 7.788637 
76 100.0000 28.38243 25.33786 45.08221 27.06182 8.603275 
77 22.98514 0.00000 0.00000 2.763029 1.909023 1.082612 
78 0.00000 25.81538 70.66845 11.09624 8.107879 44.70995 
79 24.25002 100.0000 30.06553 39.67667 73.33523 19.81802 
80 32.14348 27.58155 100.0000 24.50237 14.29971 96.01996 
81 26.91779 51.53922 23.52635 12.30440 18.74529 8.062426 
82 75.83725 0.00000 71.20510 31.18724 15.60274 45.82700 
83 64.88735 0.00000 21.52970 17.13873 9.242480 5.308089 
84 49.00294 72.07542 76.16645 35.96109 43.03077 57.94695 
85 66.80184 26.26536 100.0000 37.34368 20.61909 96.56346 
86 25.99746 71.39006 49.26601 23.51997 36.77621 26.14278 
87 25.25845 100.0000 100.0000 56.39609 80.04079 107.0301 
88 79.76515 49.91431 20.63878 33.67009 28.97745 7.971143 
89 46.57199 26.83048 28.07037 11.71566 9.467310 8.070525 
90 47.97812 79.34591 20.98837 30.63099 47.35183 11.78464 
91 75.38947 75.77211 48.91837 45.16059 51.43973 27.53891 
92 74.66165 60.08226 76.27818 43.13016 38.38942 56.84000 
93 76.52644 51.86452 100.0000 49.39320 36.05973 98.90933 
94 24.09739 48.40938 0.00000 10.00012 16.12924 3.446364 
95 21.46241 19.53768 47.60490 7.107840 5.416002 19.56975 
96 50.96953 100.0000 75.63390 55.03093 80.30338 63.34779 
97 23.86247 52.96849 100.0000 29.35491 26.29786 98.08038 
98 78.09958 0.00000 42.10351 27.00613 14.10273 16.03421 
99 25.76719 100.0000 54.22529 43.17179 74.76176 36.93203 
100 27.31162 67.08796 75.36823 27.34859 34.91269 55.65290 
101 0.00000 50.28361 24.44027 9.541124 16.68856 8.137860 
102 100.0000 24.47371 50.27555 47.42864 27.05496 23.87747 
103 100.0000 53.36129 71.79695 59.02793 42.89110 50.43986 
104 55.02557 53.14513 70.21287 28.47077 27.06938 46.84218 
105 44.03680 21.98664 78.39277 19.36669 11.36001 56.08656 
106 0.00000 48.91010 77.13587 18.16965 19.42666 55.78341 
107 78.31565 42.10361 51.21553 33.77726 25.21554 25.07192 
108 46.63963 23.39635 49.90428 13.91440 9.566391 21.94411 
109 76.05712 74.23037 26.20722 42.08955 48.90083 13.31416 
110 0.00000 25.75224 46.23788 6.141858 6.111601 18.66045 
111 47.52593 23.02819 0.00000 10.36768 8.107134 1.878505 
112 19.54697 43.64720 46.35939 11.20566 14.28703 20.06751 
113 19.23591 77.97018 25.34867 23.37157 42.37733 12.70720 
114 83.83931 15.61500 14.49644 29.47070 16.74738 4.270722 
115 51.40751 76.24459 0.00000 29.47462 44.16758 7.832894 
116 49.95628 73.83793 49.65658 31.35692 42.73073 27.21352 
117 22.91641 21.54739 18.04803 4.591618 4.799013 4.106167 
118 58.69194 50.41350 21.75336 21.80001 23.09333 7.807455 
119 0.00000 75.28998 52.84163 23.97248 40.04003 29.93271 
120 75.91020 100.0000 53.36857 62.72961 84.86381 37.03688 
121 76.47031 47.41229 0.00000 30.03951 26.00204 4.296664 
122 48.28827 100.0000 23.29808 45.30373 76.29700 17.35412 
123 100.0000 76.62859 55.56587 66.05246 62.79294 34.72521 
124 13.29195 85.50085 85.40985 38.98226 55.98769 75.16128 
125 51.28013 0.00000 74.69981 19.48564 9.460799 50.17791 
126 24.71178 0.00000 45.62440 6.171373 3.303081 17.63856 
127 14.02653 10.62774 87.19651 15.20345 7.387327 70.16673 
128 100.0000 55.32715 24.55975 52.15088 41.28604 10.68550 
129 86.35840 15.38194 87.42043 44.18854 22.82094 72.01813 
130 76.98678 77.28701 79.69321 54.10521 56.50937 65.00493 
131 86.62658 62.70897 40.25988 45.32912 42.02580 19.20427 
132 87.04273 38.71822 88.36409 48.70514 30.55426 74.96872 
133 36.29819 83.69165 64.12164 35.67745 53.23369 43.80846 
134 66.11643 28.63055 22.14370 20.19159 14.31385 6.323790 
135 39.15627 58.23252 60.93043 22.63708 27.14960 35.78048 
136 87.21240 16.22540 63.47064 38.18548 20.61190 36.60908 
137 17.70658 42.29183 85.64934 19.95329 17.17263 69.08625 
138 56.96216 62.79813 88.96348 38.78276 37.40126 77.90253 
139 12.81359 36.00600 10.80450 5.586305 8.941416 3.351671 
140 89.00560 82.93281 12.64317 55.79503 63.62568 11.57288 
141 36.40120 37.14522 12.40511 9.731551 11.44883 3.884554 
142 15.38053 62.14103 12.11720 14.26355 25.89204 6.383167 
143 67.94668 57.66651 57.83205 33.70902 32.60008 32.90576 
144 36.43616 85.43095 83.85906 42.24159 57.65882 72.66062 
145 62.77502 87.15890 83.90262 53.30871 65.06333 73.58063 
146 64.95765 11.17881 85.85756 29.56973 14.89528 68.50239 
147 41.03013 62.69470 13.78973 19.45132 28.91726 7.004397 
148 19.13698 51.09286 65.28859 17.04467 20.26509 39.83219 
149 39.46878 42.75380 82.48089 23.24885 19.17378 63.92920 
150 13.36687 60.84617 86.02033 25.99237 29.67841 71.82834 
151 13.36527 60.01461 38.97192 15.18782 24.80245 16.63141 
152 37.19040 87.71642 42.05529 34.60092 57.05950 23.89240 
153 8.036606 10.42017 17.03832 2.113954 2.085046 3.457000 
154 34.58778 15.66400 62.28956 11.93464 7.035029 33.99915 
155 13.37425 13.71385 63.49910 8.700896 5.106410 35.20244 
156 68.58462 16.10942 57.11024 24.37554 13.63078 28.98870 
157 86.56384 89.03062 38.27800 59.81214 71.44752 22.84850 
158 65.63108 86.82175 12.88781 42.82656 60.68158 11.73237 
159 40.57024 13.22913 14.29912 7.470835 5.128516 3.145936 
160 88.82010 65.30692 12.58998 46.06162 44.38343 8.361586 
161 13.45146 86.84297 42.72850 30.11131 53.86197 23.98657 
162 85.62743 34.79568 12.35284 33.49593 22.94207 4.842175 
163 86.06902 87.72688 64.51087 63.05696 71.27482 46.31432 
164 87.44463 37.74804 34.91491 37.07541 25.57480 13.21040 
165 89.63838 17.37448 34.81315 35.53771 19.94255 12.14769 
166 15.37023 89.44209 11.18241 29.53858 56.48708 11.32779 
167 86.92420 64.07560 62.38749 49.96080 44.87436 39.41296 
168 34.09172 89.26489 14.00883 32.56265 57.85253 11.94281 
169 14.05326 86.21880 66.83697 34.24158 54.85552 47.52009 
170 59.36164 66.17704 32.77806 29.27392 36.17654 14.52281 
171 86.60879 64.73215 90.02622 57.89280 48.49402 80.99300 
172 57.82718 90.00716 62.49480 47.10539 65.43422 43.65552 
173 60.85154 34.90815 40.68796 20.41565 15.97721 15.77348 
174 66.11143 43.74438 80.43246 33.72135 25.04870 61.18082 
175 60.84564 15.21238 34.00155 16.81583 10.01511 10.77393 
176 35.83815 69.99307 30.23060 22.49640 35.46443 13.48972 
177 61.21213 86.20862 36.45005 41.84102 59.37345 20.36024 
178 81.12472 2.460981 26.56412 27.53251 14.66176 7.614175 
179 63.75946 64.60886 11.40055 29.36843 35.30672 7.283801 
180 12.61013 35.24157 58.96784 10.68311 10.71456 31.09373 
181 43.47890 44.61602 29.61553 14.68151 16.71061 9.996819 
182 39.01456 39.83710 48.08457 14.32716 14.38664 21.31464 
183 62.14251 12.54902 10.95362 15.76895 9.349969 2.917654 
184 42.43468 9.169894 35.91093 9.353142 5.549295 11.36858 
185 13.83441 39.65443 29.89508 7.614149 11.11500 9.417362 
186 57.72060 32.15551 68.85940 23.65230 16.22000 43.21139 
187 10.19840 19.60955 33.93320 4.235669 4.149773 10.26754 
188 14.84852 3.325629 33.79536 3.547738 2.255691 9.864266 
189 88.93154 93.77788 85.68240 75.48574 83.36099 78.99518 
190 54.13047 32.63141 90.82276 28.82558 18.25432 78.17275 
191 45.52034 15.82221 98.09570 26.01057 13.04907 91.69155 
192 58.22792 42.89616 56.31173 23.58644 20.16877 29.47983 
193 15.31574 12.96012 4.694697 2.435775 2.533821 1.564001 
194 56.76331 36.93317 9.187622 16.65305 14.95759 3.695031 
195 83.82187 97.81152 14.34803 62.37488 82.57495 15.21369 
196 17.65657 75.07963 98.08640 37.71942 45.47579 97.31484 
197 85.88447 42.77806 68.38968 42.95031 29.79914 44.20538 
198 36.69516 59.13174 87.69950 29.72173 30.48450 74.75834 
199 70.08301 51.78187 37.27123 29.56198 27.62295 15.36604 
200 36.20907 57.95763 41.46704 18.41777 25.19709 18.18701 
201 5.468365 34.02005 88.44715 18.06193 13.21075 73.38525 
202 52.22558 84.18383 98.62956 51.89909 60.82357 100.6631 
203 11.87502 65.27469 60.44171 20.90577 30.75180 36.02471 
204 23.99503 25.38803 82.48991 16.33426 10.32487 62.60018 
205 54.40907 11.30600 64.87077 18.69232 9.979563 37.25273 
206 4.276114 77.97125 13.75109 21.61805 41.54734 9.320633 
207 28.69171 26.55966 33.75525 7.429066 7.135357 10.58033 
208 34.77114 7.830922 85.03975 17.67550 8.532635 66.48465 
209 84.23997 84.27323 96.38655 69.16163 69.91139 96.88479 
210 64.56057 74.01070 66.09675 41.29404 47.61376 44.82725 
END_DATA
CTI1   

DESCRIPTOR "Argyll Calibration Target chart information 1"
ORIGINATOR "Argyll targen"
DENSITY_EXTREME_VALUES "8"
CREATED "August 11, 2026"

NUMBER_OF_FIELDS 7
BEGIN_DATA_FORMAT
INDEX RGB_R RGB_G RGB_B XYZ_X XYZ_Y XYZ_Z 
END_DATA_FORMAT

NUMBER_OF_SETS 8
BEGIN_DATA
0 100.0000 100.0000 100.0000 95.10649 100.0000 108.8440 
1 0.00000 47.36069 100.0000 25.61297 21.62916 97.37627 
2 100.0000 0.00000 79.35138 52.42580 26.28975 58.72153 
3 0.00000 0.00000 58.99714 6.485834 3.193987 29.89445 
4 100.0000 66.65930 0.00000 56.05879 50.50543 7.656144 
5 0.00000 35.60114 0.00000 4.685619 8.370208 2.228550 
6 84.44437 0.00000 0.00000 28.84279 15.35583 2.304665 
7 0.00000 0.00000 0.00000 1.000000 1.000000 1.000000 
END_DATA
CTI1   

DESCRIPTOR "Argyll Calibration Target chart information 1"
ORIGINATOR "Argyll targen"
DEVICE_COMBINATION_VALUES "9"
CREATED "August 11, 2026"

NUMBER_OF_FIELDS 7
BEGIN_DATA_FORMAT
INDEX RGB_R RGB_G RGB_B XYZ_X XYZ_Y XYZ_Z 
END_DATA_FORMAT

NUMBER_OF_SETS 9
BEGIN_DATA
0 100.0000 100.0000 100.0000 95.10649 100.0000 108.8440 
1 0.00000 100.0000 100.0000 54.27632 78.94783 106.9308 
2 100.0000 0.00000 100.0000 59.70128 29.19948 97.04219 
3 0.00000 0.00000 100.0000 18.87111 8.147314 95.12896 
4 100.0000 100.0000 0.00000 77.23538 92.85269 14.71507 
5 0.00000 100.0000 0.00000 36.40521 71.80052 12.80184 
6 100.0000 0.00000 0.00000 41.83017 22.05217 2.913230 
7 0.00000 0.00000 0.00000 1.000000 1.000000 1.000000 
8 50.00000 50.00000 50.00000 21.14266 22.19007 24.08306 
END_DATA
