demo-projects/Demo-Report-Matrix/runs/run1/Demo-Report-Matrix.ti2
CTI2   

DESCRIPTOR "Argyll Calibration Target chart information 2"
ORIGINATOR "Argyll printtarg"
CREATED "Tue Aug 11 11:21:03 2026"
TARGET_INSTRUMENT "X-Rite ColorMunki"
APPROX_WHITE_POINT "95.106486 100.000000 108.844025"
COLOR_REP "iRGB"
PAPER_SIZE "210.0x297.0"
RANDOM_START "93"
STEPS_IN_PASS "15"
PASSES_IN_STRIPS2 "6,6,2"
STRIP_INDEX_PATTERN "A-Z, A-Z"
PATCH_INDEX_PATTERN "0-9,@-9,@-9;1-999"
INDEX_ORDER "STRIP_THEN_PATCH"

NUMBER_OF_FIELDS 8
BEGIN_DATA_FORMAT
SAMPLE_ID SAMPLE_LOC RGB_R RGB_G RGB_B XYZ_X XYZ_Y XYZ_Z 
END_DATA_FORMAT

NUMBER_OF_SETS 210
BEGIN_DATA
1 "C6" 100.0000 100.0000 100.0000 95.10649 100.0000 108.8440 
2 "G11" 100.0000 100.0000 100.0000 95.10649 100.0000 108.8440 
3 "J14" 100.0000 100.0000 100.0000 95.10649 100.0000 108.8440 
4 "L5" 100.0000 100.0000 100.0000 95.10649 100.0000 108.8440 
5 "B15" 0.00000 0.00000 0.00000 1.000000 1.000000 1.000000 
6 "M15" 0.00000 0.00000 0.00000 1.000000 1.000000 1.000000 
7 "E1" 0.00000 0.00000 0.00000 1.000000 1.000000 1.000000 
8 "A10" 0.00000 0.00000 0.00000 1.000000 1.000000 1.000000 
9 "I9" 100.0000 100.0000 0.00000 77.23538 92.85269 14.71507 
10 "D11" 0.00000 0.00000 100.0000 18.87111 8.147314 95.12896 
11 "L13" 100.0000 0.00000 0.00000 41.83017 22.05217 2.913230 
12 "A9" 0.00000 100.0000 100.0000 54.27632 78.94783 106.9308 
13 "J1" 0.00000 100.0000 0.00000 36.40521 71.80052 12.80184 
14 "J12" 100.0000 0.00000 100.0000 59.70128 29.19948 97.04219 
15 "J6" 0.00000 49.01961 100.0000 26.10763 22.61834 97.54115 
16 "E5" 0.00000 49.41176 0.00000 8.341333 15.68061 3.447132 
17 "F15" 0.00000 0.00000 49.80392 4.783473 2.513150 20.92794 
18 "K15" 100.0000 0.00000 50.19608 45.70154 23.60047 23.30414 
19 "L6" 100.0000 52.94118 100.0000 68.28498 46.36448 99.90345 
20 "H12" 100.0000 51.37255 0.00000 49.89834 38.18625 5.602643 
21 "D15" 48.23529 0.00000 0.00000 9.057533 5.154490 1.377562 
22 "H14" 100.0000 100.0000 50.58824 81.16469 94.42416 35.41117 
23 "M14" 0.00000 100.0000 50.98039 40.40158 73.39881 33.85114 
24 "N9" 51.37255 100.0000 100.0000 63.52187 83.71487 107.3640 
25 "F6" 50.58824 100.0000 0.00000 45.39241 76.43435 13.22296 
26 "I1" 50.19608 0.00000 100.0000 27.75862 12.72975 95.54541 
27 "M2" 0.00000 50.58824 50.98039 12.71893 18.05852 24.57027 
28 "I4" 100.0000 50.19608 48.23529 52.92698 38.62212 23.94612 
29 "J8" 50.58824 49.80392 0.00000 17.45581 20.60206 3.917072 
30 "M9" 51.76471 0.00000 47.84314 13.87926 7.234923 19.91193 
31 "N12" 49.80392 50.19608 100.0000 35.19041 27.95143 98.09222 
32 "A12" 51.37255 100.0000 49.80392 49.52238 78.12309 33.30549 
33 "B7" 0.00000 24.31373 0.00000 2.729816 4.459149 1.576610 
34 "H3" 0.00000 0.00000 23.92157 1.825925 1.330318 5.350233 
35 "M1" 100.0000 26.66667 100.0000 61.75638 33.30912 97.72723 
36 "F1" 74.50980 0.00000 0.00000 22.09114 11.87466 1.988294 
37 "A2" 0.00000 75.68627 100.0000 37.72340 45.84662 101.4131 
38 "D12" 52.94118 54.90196 45.49020 23.26387 25.88252 20.84485 
39 "L8" 100.0000 100.0000 25.49020 78.17373 93.22797 19.65747 
40 "N8" 100.0000 76.47059 0.00000 61.09019 60.56682 9.333291 
41 "G12" 100.0000 0.00000 25.09804 42.74412 22.41769 7.727107 
42 "C5" 0.00000 74.50980 27.05882 20.35451 38.00138 12.70125 
43 "H9" 67.84314 76.47059 100.0000 55.03924 55.31188 102.3282 
44 "D7" 75.68627 0.00000 100.0000 40.65933 19.38139 96.14992 
45 "K13" 74.50980 100.0000 76.47059 67.19155 86.55120 64.92109 
46 "A7" 0.00000 25.88235 100.0000 20.82105 12.04665 95.77894 
47 "F7" 100.0000 75.68627 78.43137 71.08812 63.98742 63.77582 
48 "A5" 25.49020 100.0000 76.86275 48.44787 76.86848 64.87390 
49 "N4" 0.00000 100.0000 25.88235 37.36606 72.18480 17.86274 
50 "C7" 100.0000 0.00000 76.07843 51.41578 25.88581 53.40163 
51 "H1" 27.45098 73.33333 0.00000 21.15478 37.55594 6.994846 
52 "E7" 100.0000 25.49020 0.00000 43.72336 25.83802 3.544299 
53 "E15" 26.27451 0.00000 70.98039 11.60549 5.507231 44.86855 
54 "M3" 76.86275 100.0000 100.0000 76.73229 90.52621 107.9830 
55 "B5" 75.68627 100.0000 0.00000 58.09099 82.98177 13.81799 
56 "G10" 0.00000 100.0000 76.07843 46.08391 75.67139 63.78054 
57 "K7" 35.68627 76.86275 100.0000 42.65904 49.43248 101.8453 
58 "K5" 100.0000 100.0000 76.47059 87.02753 96.76893 66.29135 
59 "L15" 25.09804 100.0000 0.00000 38.51863 72.89020 12.90087 
60 "M11" 32.94118 0.00000 23.13725 5.407622 3.181535 5.315763 
61 "D8" 25.09804 25.49020 0.00000 4.970091 5.787772 1.715082 
62 "N13" 0.00000 74.11765 76.86275 28.83643 40.81966 59.14646 
63 "G7" 74.11765 26.66667 73.72549 32.74201 19.33638 49.82008 
64 "N6" 24.70588 0.00000 100.0000 20.89564 9.191171 95.22383 
65 "J2" 100.0000 29.80392 74.50980 53.60717 30.85178 52.33165 
66 "D6" 0.00000 75.68627 0.00000 19.89855 38.79182 7.299570 
67 "I3" 0.00000 0.00000 76.07843 10.64542 4.857558 51.80341 
68 "E2" 100.0000 77.25490 100.0000 79.50631 68.80401 103.6439 
69 "D1" 73.72549 100.0000 26.27451 58.02602 82.83312 19.01226 
70 "E14" 72.15686 24.70588 0.00000 22.24008 14.52307 2.491669 
71 "A4" 0.00000 26.66667 23.52941 3.841039 5.369103 5.993816 
72 "N10" 30.58824 38.03922 66.27451 15.43448 13.86099 39.86836 
73 "B12" 100.0000 77.64706 31.37255 63.29463 62.70204 17.07824 
74 "D10" 75.68627 24.31373 45.09804 27.46148 16.83499 18.65513 
75 "C3" 75.68627 72.94118 0.00000 39.97859 46.80432 7.788637 
76 "A1" 100.0000 28.23529 25.49020 45.08221 27.06182 8.603275 
77 "N1" 23.13725 0.00000 0.00000 2.763029 1.909023 1.082612 
78 "J15" 0.00000 25.88235 70.58824 11.09624 8.107879 44.70995 
79 "D3" 24.31373 100.0000 30.19608 39.67667 73.33523 19.81802 
80 "B9" 32.15686 27.45098 100.0000 24.50237 14.29971 96.01996 
81 "F11" 27.05882 51.37255 23.52941 12.30440 18.74529 8.062426 
82 "K12" 75.68627 0.00000 71.37255 31.18724 15.60274 45.82700 
83 "N3" 64.70588 0.00000 21.56863 17.13873 9.242480 5.308089 
84 "F13" 49.01961 72.15686 76.07843 35.96109 43.03077 57.94695 
85 "C1" 66.66667 26.27451 100.0000 37.34368 20.61909 96.56346 
86 "N2" 25.88235 71.37255 49.41176 23.51997 36.77621 26.14278 
87 "N11" 25.09804 100.0000 100.0000 56.39609 80.04079 107.0301 
88 "K3" 79.60784 49.80392 20.78431 33.67009 28.97745 7.971143 
89 "N5" 46.66667 26.66667 28.23529 11.71566 9.467310 8.070525 
90 "M12" 47.84314 79.21569 21.17647 30.63099 47.35183 11.78464 
91 "F10" 75.29412 75.68627 49.01961 45.16059 51.43973 27.53891 
92 "L3" 74.50980 60.00000 76.47059 43.13016 38.38942 56.84000 
93 "L11" 76.47059 51.76471 100.0000 49.39320 36.05973 98.90933 
94 "F4" 23.92157 48.23529 0.00000 10.00012 16.12924 3.446364 
95 "H11" 21.56863 19.60784 47.45098 7.107840 5.416002 19.56975 
96 "J10" 50.98039 100.0000 75.68627 55.03093 80.30338 63.34779 
97 "M10" 23.92157 52.94118 100.0000 29.35491 26.29786 98.08038 
98 "C15" 78.03922 0.00000 41.96078 27.00613 14.10273 16.03421 
99 "E10" 25.88235 100.0000 54.11765 43.17179 74.76176 36.93203 
100 "J9" 27.45098 67.05882 75.29412 27.34859 34.91269 55.65290 
101 "I2" 0.00000 50.19608 24.31373 9.541124 16.68856 8.137860 
102 "F3" 100.0000 24.31373 50.19608 47.42864 27.05496 23.87747 
103 "C2" 100.0000 53.33333 71.76471 59.02793 42.89110 50.43986 
104 "L14" 54.90196 53.33333 70.19608 28.47077 27.06938 46.84218 
105 "F9" 43.92157 21.96078 78.43137 19.36669 11.36001 56.08656 
106 "E4" 0.00000 49.01961 77.25490 18.16965 19.42666 55.78341 
107 "M13" 78.43137 41.96078 51.37255 33.77726 25.21554 25.07192 
108 "M4" 46.66667 23.52941 49.80392 13.91440 9.566391 21.94411 
109 "B3" 76.07843 74.11765 26.27451 42.08955 48.90083 13.31416 
110 "C4" 0.00000 25.88235 46.27451 6.141858 6.111601 18.66045 
111 "H5" 47.45098 23.13725 0.00000 10.36768 8.107134 1.878505 
112 "J3" 19.60784 43.52941 46.27451 11.20566 14.28703 20.06751 
113 "D4" 19.21569 78.03922 25.49020 23.37157 42.37733 12.70720 
114 "K11" 83.92157 15.68627 14.50980 29.47070 16.74738 4.270722 
115 "M5" 51.37255 76.07843 0.00000 29.47462 44.16758 7.832894 
116 "C14" 49.80392 73.72549 49.80392 31.35692 42.73073 27.21352 
117 "B4" 22.74510 21.56863 18.03922 4.591618 4.799013 4.106167 
118 "A11" 58.82353 50.58824 21.56863 21.80001 23.09333 7.807455 
119 "E8" 0.00000 75.29412 52.94118 23.97248 40.04003 29.93271 
120 "K9" 76.07843 100.0000 53.33333 62.72961 84.86381 37.03688 
121 "K14" 76.47059 47.45098 0.00000 30.03951 26.00204 4.296664 
122 "G1" 48.23529 100.0000 23.13725 45.30373 76.29700 17.35412 
123 "H13" 100.0000 76.47059 55.68627 66.05246 62.79294 34.72521 
124 "G14" 13.33333 85.49020 85.49020 38.98226 55.98769 75.16128 
125 "D13" 51.37255 0.00000 74.50980 19.48564 9.460799 50.17791 
126 "K10" 24.70588 0.00000 45.49020 6.171373 3.303081 17.63856 
127 "A15" 14.11765 10.58824 87.05882 15.20345 7.387327 70.16673 
128 "A14" 100.0000 55.29412 24.70588 52.15088 41.28604 10.68550 
129 "H10" 86.27451 15.29412 87.45098 44.18854 22.82094 72.01813 
130 "E6" 76.86275 77.25490 79.60784 54.10521 56.50937 65.00493 
131 "A6" 86.66667 62.74510 40.39216 45.32912 42.02580 19.20427 
132 "C10" 87.05882 38.82353 88.23529 48.70514 30.55426 74.96872 
133 "G4" 36.47059 83.52941 64.31373 35.67745 53.23369 43.80846 
134 "H7" 66.27451 28.62745 21.96078 20.19159 14.31385 6.323790 
135 "I8" 39.21569 58.03922 60.78431 22.63708 27.14960 35.78048 
136 "I15" 87.05882 16.07843 63.52941 38.18548 20.61190 36.60908 
137 "F12" 17.64706 42.35294 85.49020 19.95329 17.17263 69.08625 
138 "B2" 56.86275 62.74510 89.01961 38.78276 37.40126 77.90253 
139 "F8" 12.94118 36.07843 10.98039 5.586305 8.941416 3.351671 
140 "H8" 89.01961 82.74510 12.54902 55.79503 63.62568 11.57288 
141 "E13" 36.47059 37.25490 12.54902 9.731551 11.44883 3.884554 
142 "M7" 15.29412 61.96078 12.15686 14.26355 25.89204 6.383167 
143 "D5" 67.84314 57.64706 57.64706 33.70902 32.60008 32.90576 
144 "D9" 36.47059 85.49020 83.92157 42.24159 57.65882 72.66062 
145 "B6" 62.74510 87.05882 83.92157 53.30871 65.06333 73.58063 
146 "A3" 65.09804 11.37255 85.88235 29.56973 14.89528 68.50239 
147 "I13" 41.17647 62.74510 13.72549 19.45132 28.91726 7.004397 
148 "F2" 19.21569 50.98039 65.09804 17.04467 20.26509 39.83219 
149 "B8" 39.60784 42.74510 82.35294 23.24885 19.17378 63.92920 
150 "H4" 13.33333 60.78431 85.88235 25.99237 29.67841 71.82834 
151 "H6" 13.33333 60.00000 38.82353 15.18782 24.80245 16.63141 
152 "E12" 37.25490 87.84314 41.96078 34.60092 57.05950 23.89240 
153 "N14" 7.843137 10.58824 16.86275 2.113954 2.085046 3.457000 
154 "L1" 34.50980 15.68627 62.35294 11.93464 7.035029 33.99915 
155 "E3" 13.33333 13.72549 63.52941 8.700896 5.106410 35.20244 
156 "J7" 68.62745 16.07843 57.25490 24.37554 13.63078 28.98870 
157 "B14" 86.66667 89.01961 38.43137 59.81214 71.44752 22.84850 
158 "L4" 65.49020 86.66667 12.94118 42.82656 60.68158 11.73237 
159 "E9" 40.39216 13.33333 14.11765 7.470835 5.128516 3.145936 
160 "G8" 88.62745 65.49020 12.54902 46.06162 44.38343 8.361586 
161 "L2" 13.33333 86.66667 42.74510 30.11131 53.86197 23.98657 
162 "I7" 85.49020 34.90196 12.15686 33.49593 22.94207 4.842175 
163 "C12" 85.88235 87.84314 64.70588 63.05696 71.27482 46.31432 
164 "F14" 87.45098 37.64706 34.90196 37.07541 25.57480 13.21040 
165 "F5" 89.80392 17.25490 34.90196 35.53771 19.94255 12.14769 
166 "K1" 15.29412 89.41176 11.37255 29.53858 56.48708 11.32779 
167 "E11" 87.05882 63.92157 62.35294 49.96080 44.87436 39.41296 
168 "G3" 34.11765 89.41176 14.11765 32.56265 57.85253 11.94281 
169 "L10" 14.11765 86.27451 66.66667 34.24158 54.85552 47.52009 
170 "L7" 59.21569 66.27451 32.94118 29.27392 36.17654 14.52281 
171 "G13" 86.66667 64.70588 90.19608 57.89280 48.49402 80.99300 
172 "J4" 57.64706 90.19608 62.35294 47.10539 65.43422 43.65552 
173 "G2" 60.78431 34.90196 40.78431 20.41565 15.97721 15.77348 
174 "A8" 66.27451 43.92157 80.39216 33.72135 25.04870 61.18082 
175 "N7" 60.78431 15.29412 34.11765 16.81583 10.01511 10.77393 
176 "C9" 35.68627 69.80392 30.19608 22.49640 35.46443 13.48972 
177 "J5" 61.17647 86.27451 36.47059 41.84102 59.37345 20.36024 
178 "K6" 81.17647 2.352941 26.66667 27.53251 14.66176 7.614175 
179 "D14" 63.92157 64.70588 11.37255 29.36843 35.30672 7.283801 
180 "M8" 12.54902 35.29412 58.82353 10.68311 10.71456 31.09373 
181 "G9" 43.52941 44.70588 29.80392 14.68151 16.71061 9.996819 
182 "D2" 38.82353 40.00000 48.23529 14.32716 14.38664 21.31464 
183 "J13" 61.96078 12.54902 10.98039 15.76895 9.349969 2.917654 
184 "C8" 42.35294 9.019608 36.07843 9.353142 5.549295 11.36858 
185 "C13" 13.72549 39.60784 29.80392 7.614149 11.11500 9.417362 
186 "G5" 57.64706 32.15686 69.01961 23.65230 16.22000 43.21139 
187 "C11" 10.19608 19.60784 34.11765 4.235669 4.149773 10.26754 
188 "G15" 14.90196 3.137255 33.72549 3.547738 2.255691 9.864266 
189 "I11" 89.01961 93.72549 85.49020 75.48574 83.36099 78.99518 
190 "B1" 54.11765 32.54902 90.98039 28.82558 18.25432 78.17275 
191 "K2" 45.49020 15.68627 98.03922 26.01057 13.04907 91.69155 
192 "J11" 58.03922 42.74510 56.47059 23.58644 20.16877 29.47983 
193 "A13" 15.29412 12.94118 4.705882 2.435775 2.533821 1.564001 
194 "I10" 56.86275 36.86275 9.019608 16.65305 14.95759 3.695031 
195 "G6" 83.92157 97.64706 14.50980 62.37488 82.57495 15.21369 
196 "I6" 17.64706 74.90196 98.03922 37.71942 45.47579 97.31484 
197 "L9" 85.88235 42.74510 68.23529 42.95031 29.79914 44.20538 
198 "I14" 36.86275 59.21569 87.84314 29.72173 30.48450 74.75834 
199 "M6" 70.19608 51.76471 37.25490 29.56198 27.62295 15.36604 
200 "K4" 36.07843 58.03922 41.56863 18.41777 25.19709 18.18701 
201 "I5" 5.490196 34.11765 88.62745 18.06193 13.21075 73.38525 
202 "L12" 52.15686 84.31373 98.82353 51.89909 60.82357 100.6631 
203 "K8" 11.76471 65.09804 60.39216 20.90577 30.75180 36.02471 
204 "B10" 23.92157 25.49020 82.35294 16.33426 10.32487 62.60018 
205 "H15" 54.50980 11.37255 64.70588 18.69232 9.979563 37.25273 
206 "N15" 4.313725 78.03922 13.72549 21.61805 41.54734 9.320633 
207 "B13" 28.62745 26.66667 33.72549 7.429066 7.135357 10.58033 
208 "I12" 34.90196 7.843137 85.09804 17.67550 8.532635 66.48465 
209 "H2" 84.31373 84.31373 96.47059 69.16163 69.91139 96.88479 
210 "B11" 64.70588 74.11765 66.27451 41.29404 47.61376 44.82725 
END_DATA
